yifeidong0/3D-Soft-Fixture/results/4blender/handbag-gripper/HandbagGripper_24-05-2023-18-10-21_dynamics/data.csv
index,obj_pos_x,obj_pos_y,obj_pos_z,obj_qtn_x,obj_qtn_y,obj_qtn_z,obj_qtn_w,obj_joint_0_pos,obj_joint_1_pos,obj_joint_2_pos,obj_joint_3_pos,obj_joint_4_pos,obj_joint_5_pos,obj_joint_6_pos,obj_joint_7_pos,obj_joint_8_pos,obs_pos_x,obs_pos_y,obs_pos_z,obs_qtn_x,obs_qtn_y,obs_qtn_z,obs_qtn_w,obs_joint_0_pos,obs_joint_1_pos,obs_joint_2_pos,obs_joint_3_pos,obs_joint_4_pos,obs_joint_5_pos,obs_joint_6_pos,obs_joint_7_pos,obs_joint_8_pos,obs_joint_9_pos,obs_joint_10_pos,obs_joint_11_pos
0,-0.5,0.3,0.85,0.33914000194777966,0.33887004315045344,0.6202974532430737,0.6207916095069478,0.880144608505712,0,0.880144608505712,0,0.880144608505712,0,0.880144608505712,0,0,0,-0.5,2.2,0.1505842917243781,-0.6910065596697561,-0.15058429172437815,0.6907667310062802,0.0,0.005,0.0,0.0,0.0,0.005,0.0,0.0,0.0,0.005,0.0,0.0
1,-0.5,0.3,0.85,0.33914000194777966,0.33887004315045344,0.6202974532430737,0.6207916095069478,0.880144608505712,0,0.880144608505712,0,0.880144608505712,0,0.880144608505712,0,0,0,-0.5,2.2,0.1505842917243781,-0.6910065596697561,-0.15058429172437815,0.6907667310062802,0.0,0.01,0.0,0.0,0.0,0.01,0.0,0.0,0.0,0.01,0.0,0.0
2,-0.5,0.3,0.85,0.33914000194777966,0.33887004315045344,0.6202974532430737,0.6207916095069478,0.880144608505712,0,0.880144608505712,0,0.880144608505712,0,0.880144608505712,0,0,0,-0.5,2.2,0.1505842917243781,-0.6910065596697561,-0.15058429172437815,0.6907667310062802,0.0,0.015,0.0,0.0,0.0,0.015,0.0,0.0,0.0,0.015,0.0,0.0
3,-0.5,0.3,0.85,0.33914000194777966,0.33887004315045344,0.6202974532430737,0.6207916095069478,0.880144608505712,0,0.880144608505712,0,0.880144608505712,0,0.880144608505712,0,0,0,-0.5,2.2,0.1505842917243781,-0.6910065596697561,-0.15058429172437815,0.6907667310062802,0.0,0.02,0.0,0.0,0.0,0.02,0.0,0.0,0.0,0.02,0.0,0.0
4,-0.5,0.3,0.85,0.33914000194777966,0.33887004315045344,0.6202974532430737,0.6207916095069478,0.880144608505712,0,0.880144608505712,0,0.880144608505712,0,0.880144608505712,0,0,0,-0.5,2.2,0.1505842917243781,-0.6910065596697561,-0.15058429172437815,0.6907667310062802,0.0,0.025,0.0,0.0,0.0,0.025,0.0,0.0,0.0,0.025,0.0,0.0
5,-0.5,0.3,0.85,0.33914000194777966,0.33887004315045344,0.6202974532430737,0.6207916095069478,0.880144608505712,0,0.880144608505712,0,0.880144608505712,0,0.880144608505712,0,0,0,-0.5,2.2,0.1505842917243781,-0.6910065596697561,-0.15058429172437815,0.6907667310062802,0.0,0.030000000000000002,0.0,0.0,0.0,0.030000000000000002,0.0,0.0,0.0,0.030000000000000002,0.0,0.0
6,-0.5,0.3,0.85,0.33914000194777966,0.33887004315045344,0.6202974532430737,0.6207916095069478,0.880144608505712,0,0.880144608505712,0,0.880144608505712,0,0.880144608505712,0,0,0,-0.5,2.2,0.1505842917243781,-0.6910065596697561,-0.15058429172437815,0.6907667310062802,0.0,0.035,0.0,0.0,0.0,0.035,0.0,0.0,0.0,0.035,0.0,0.0
7,-0.5,0.3,0.85,0.33914000194777966,0.33887004315045344,0.6202974532430737,0.6207916095069478,0.880144608505712,0,0.880144608505712,0,0.880144608505712,0,0.880144608505712,0,0,0,-0.5,2.2,0.1505842917243781,-0.6910065596697561,-0.15058429172437815,0.6907667310062802,0.0,0.04,0.0,0.0,0.0,0.04,0.0,0.0,0.0,0.04,0.0,0.0
8,-0.5,0.3,0.85,0.33914000194777966,0.33887004315045344,0.6202974532430737,0.6207916095069478,0.880144608505712,0,0.880144608505712,0,0.880144608505712,0,0.880144608505712,0,0,0,-0.5,2.2,0.1505842917243781,-0.6910065596697561,-0.15058429172437815,0.6907667310062802,0.0,0.045,0.0,0.0,0.0,0.045,0.0,0.0,0.0,0.045,0.0,0.0
9,-0.5,0.3,0.85,0.33914000194777966,0.33887004315045344,0.6202974532430737,0.6207916095069478,0.880144608505712,0,0.880144608505712,0,0.880144608505712,0,0.880144608505712,0,0,0,-0.5,2.2,0.1505842917243781,-0.6910065596697561,-0.15058429172437815,0.6907667310062802,0.0,0.049999999999999996,0.0,0.0,0.0,0.049999999999999996,0.0,0.0,0.0,0.049999999999999996,0.0,0.0
10,-0.5,0.3,0.85,0.33914000194777966,0.33887004315045344,0.6202974532430737,0.6207916095069478,0.880144608505712,0,0.880144608505712,0,0.880144608505712,0,0.880144608505712,0,0,0,-0.5,2.2,0.1505842917243781,-0.6910065596697561,-0.15058429172437815,0.6907667310062802,0.0,0.05499999999999999,0.0,0.0,0.0,0.05499999999999999,0.0,0.0,0.0,0.05499999999999999,0.0,0.0
11,-0.5,0.3,0.85,0.33914000194777966,0.33887004315045344,0.6202974532430737,0.6207916095069478,0.880144608505712,0,0.880144608505712,0,0.880144608505712,0,0.880144608505712,0,0,0,-0.5,2.2,0.1505842917243781,-0.6910065596697561,-0.15058429172437815,0.6907667310062802,0.0,0.05999999999999999,0.0,0.0,0.0,0.05999999999999999,0.0,0.0,0.0,0.05999999999999999,0.0,0.0
12,-0.5,0.3,0.85,0.33914000194777966,0.33887004315045344,0.6202974532430737,0.6207916095069478,0.880144608505712,0,0.880144608505712,0,0.880144608505712,0,0.880144608505712,0,0,0,-0.5,2.2,0.1505842917243781,-0.6910065596697561,-0.15058429172437815,0.6907667310062802,0.0,0.06499999999999999,0.0,0.0,0.0,0.06499999999999999,0.0,0.0,0.0,0.06499999999999999,0.0,0.0
13,-0.5,0.3,0.85,0.33914000194777966,0.33887004315045344,0.6202974532430737,0.6207916095069478,0.880144608505712,0,0.880144608505712,0,0.880144608505712,0,0.880144608505712,0,0,0,-0.5,2.2,0.1505842917243781,-0.6910065596697561,-0.15058429172437815,0.6907667310062802,0.0,0.06999999999999999,0.0,0.0,0.0,0.06999999999999999,0.0,0.0,0.0,0.06999999999999999,0.0,0.0
14,-0.5,0.3,0.85,0.33914000194777966,0.33887004315045344,0.6202974532430737,0.6207916095069478,0.880144608505712,0,0.880144608505712,0,0.880144608505712,0,0.880144608505712,0,0,0,-0.5,2.2,0.1505842917243781,-0.6910065596697561,-0.15058429172437815,0.6907667310062802,0.0,0.075,0.0,0.0,0.0,0.075,0.0,0.0,0.0,0.075,0.0,0.0
15,-0.5,0.3,0.85,0.33914000194777966,0.33887004315045344,0.6202974532430737,0.6207916095069478,0.880144608505712,0,0.880144608505712,0,0.880144608505712,0,0.880144608505712,0,0,0,-0.5,2.2,0.1505842917243781,-0.6910065596697561,-0.15058429172437815,0.6907667310062802,0.0,0.08,0.0,0.0,0.0,0.08,0.0,0.0,0.0,0.08,0.0,0.0
16,-0.5,0.3,0.85,0.33914000194777966,0.33887004315045344,0.6202974532430737,0.6207916095069478,0.880144608505712,0,0.880144608505712,0,0.880144608505712,0,0.880144608505712,0,0,0,-0.5,2.2,0.1505842917243781,-0.6910065596697561,-0.15058429172437815,0.6907667310062802,0.0,0.085,0.0,0.0,0.0,0.085,0.0,0.0,0.0,0.085,0.0,0.0
17,-0.5,0.3,0.85,0.33914000194777966,0.33887004315045344,0.6202974532430737,0.6207916095069478,0.880144608505712,0,0.880144608505712,0,0.880144608505712,0,0.880144608505712,0,0,0,-0.5,2.2,0.1505842917243781,-0.6910065596697561,-0.15058429172437815,0.6907667310062802,0.0,0.09000000000000001,0.0,0.0,0.0,0.09000000000000001,0.0,0.0,0.0,0.09000000000000001,0.0,0.0
18,-0.5,0.3,0.85,0.33914000194777966,0.33887004315045344,0.6202974532430737,0.6207916095069478,0.880144608505712,0,0.880144608505712,0,0.880144608505712,0,0.880144608505712,0,0,0,-0.5,2.2,0.1505842917243781,-0.6910065596697561,-0.15058429172437815,0.6907667310062802,0.0,0.09500000000000001,0.0,0.0,0.0,0.09500000000000001,0.0,0.0,0.0,0.09500000000000001,0.0,0.0
19,-0.5,0.3,0.85,0.33914000194777966,0.33887004315045344,0.6202974532430737,0.6207916095069478,0.880144608505712,0,0.880144608505712,0,0.880144608505712,0,0.880144608505712,0,0,0,-0.5,2.2,0.1505842917243781,-0.6910065596697561,-0.15058429172437815,0.6907667310062802,0.0,0.10000000000000002,0.0,0.0,0.0,0.10000000000000002,0.0,0.0,0.0,0.10000000000000002,0.0,0.0
20,-0.5,0.3,0.85,0.33914000194777966,0.33887004315045344,0.6202974532430737,0.6207916095069478,0.880144608505712,0,0.880144608505712,0,0.880144608505712,0,0.880144608505712,0,0,0,-0.5,2.2,0.1505842917243781,-0.6910065596697561,-0.15058429172437815,0.6907667310062802,0.0,0.10500000000000002,0.0,0.0,0.0,0.10500000000000002,0.0,0.0,0.0,0.10500000000000002,0.0,0.0
21,-0.5,0.3,0.85,0.33914000194777966,0.33887004315045344,0.6202974532430737,0.6207916095069478,0.880144608505712,0,0.880144608505712,0,0.880144608505712,0,0.880144608505712,0,0,0,-0.5,2.2,0.1505842917243781,-0.6910065596697561,-0.15058429172437815,0.6907667310062802,0.0,0.11000000000000003,0.0,0.0,0.0,0.11000000000000003,0.0,0.0,0.0,0.11000000000000003,0.0,0.0
22,-0.5,0.3,0.85,0.33914000194777966,0.33887004315045344,0.6202974532430737,0.6207916095069478,0.880144608505712,0,0.880144608505712,0,0.880144608505712,0,0.880144608505712,0,0,0,-0.5,2.2,0.1505842917243781,-0.6910065596697561,-0.15058429172437815,0.6907667310062802,0.0,0.11500000000000003,0.0,0.0,0.0,0.11500000000000003,0.0,0.0,0.0,0.11500000000000003,0.0,0.0
23,-0.5,0.3,0.85,0.33914000194777966,0.33887004315045344,0.6202974532430737,0.6207916095069478,0.880144608505712,0,0.880144608505712,0,0.880144608505712,0,0.880144608505712,0,0,0,-0.5,2.2,0.1505842917243781,-0.6910065596697561,-0.15058429172437815,0.6907667310062802,0.0,0.12000000000000004,0.0,0.0,0.0,0.12000000000000004,0.0,0.0,0.0,0.12000000000000004,0.0,0.0
24,-0.5,0.3,0.85,0.33914000194777966,0.33887004315045344,0.6202974532430737,0.6207916095069478,0.880144608505712,0,0.880144608505712,0,0.880144608505712,0,0.880144608505712,0,0,0,-0.5,2.2,0.1505842917243781,-0.6910065596697561,-0.15058429172437815,0.6907667310062802,0.0,0.12500000000000003,0.0,0.0,0.0,0.12500000000000003,0.0,0.0,0.0,0.12500000000000003,0.0,0.0
25,-0.5,0.3,0.85,0.33914000194777966,0.33887004315045344,0.6202974532430737,0.6207916095069478,0.880144608505712,0,0.880144608505712,0,0.880144608505712,0,0.880144608505712,0,0,0,-0.5,2.2,0.1505842917243781,-0.6910065596697561,-0.15058429172437815,0.6907667310062802,0.0,0.13000000000000003,0.0,0.0,0.0,0.13000000000000003,0.0,0.0,0.0,0.13000000000000003,0.0,0.0
26,-0.5,0.3,0.85,0.33914000194777966,0.33887004315045344,0.6202974532430737,0.6207916095069478,0.880144608505712,0,0.880144608505712,0,0.880144608505712,0,0.880144608505712,0,0,0,-0.5,2.2,0.1505842917243781,-0.6910065596697561,-0.15058429172437815,0.6907667310062802,0.0,0.13500000000000004,0.0,0.0,0.0,0.13500000000000004,0.0,0.0,0.0,0.13500000000000004,0.0,0.0
27,-0.5,0.3,0.85,0.33914000194777966,0.33887004315045344,0.6202974532430737,0.6207916095069478,0.880144608505712,0,0.880144608505712,0,0.880144608505712,0,0.880144608505712,0,0,0,-0.5,2.2,0.1505842917243781,-0.6910065596697561,-0.15058429172437815,0.6907667310062802,0.0,0.14000000000000004,0.0,0.0,0.0,0.14000000000000004,0.0,0.0,0.0,0.14000000000000004,0.0,0.0
28,-0.5,0.3,0.85,0.33914000194777966,0.33887004315045344,0.6202974532430737,0.6207916095069478,0.880144608505712,0,0.880144608505712,0,0.880144608505712,0,0.880144608505712,0,0,0,-0.5,2.2,0.1505842917243781,-0.6910065596697561,-0.15058429172437815,0.6907667310062802,0.0,0.14500000000000005,0.0,0.0,0.0,0.14500000000000005,0.0,0.0,0.0,0.14500000000000005,0.0,0.0
29,-0.5,0.3,0.85,0.33914000194777966,0.33887004315045344,0.6202974532430737,0.6207916095069478,0.880144608505712,0,0.880144608505712,0,0.880144608505712,0,0.880144608505712,0,0,0,-0.5,2.2,0.1505842917243781,-0.6910065596697561,-0.15058429172437815,0.6907667310062802,0.0,0.15000000000000005,0.0,0.0,0.0,0.15000000000000005,0.0,0.0,0.0,0.15000000000000005,0.0,0.0
30,-0.5,0.3,0.85,0.33914000194777966,0.33887004315045344,0.6202974532430737,0.6207916095069478,0.880144608505712,0,0.880144608505712,0,0.880144608505712,0,0.880144608505712,0,0,0,-0.5,2.2,0.1505842917243781,-0.6910065596697561,-0.15058429172437815,0.6907667310062802,0.0,0.15500000000000005,0.0,0.0,0.0,0.15500000000000005,0.0,0.0,0.0,0.15500000000000005,0.0,0.0
31,-0.5,0.3,0.85,0.33914000194777966,0.33887004315045344,0.6202974532430737,0.6207916095069478,0.880144608505712,0,0.880144608505712,0,0.880144608505712,0,0.880144608505712,0,0,0,-0.5,2.2,0.1505842917243781,-0.6910065596697561,-0.15058429172437815,0.6907667310062802,0.0,0.16000000000000006,0.0,0.0,0.0,0.16000000000000006,0.0,0.0,0.0,0.16000000000000006,0.0,0.0
32,-0.5,0.3,0.85,0.33914000194777966,0.33887004315045344,0.6202974532430737,0.6207916095069478,0.880144608505712,0,0.880144608505712,0,0.880144608505712,0,0.880144608505712,0,0,0,-0.5,2.2,0.1505842917243781,-0.6910065596697561,-0.15058429172437815,0.6907667310062802,0.0,0.16500000000000006,0.0,0.0,0.0,0.16500000000000006,0.0,0.0,0.0,0.16500000000000006,0.0,0.0
33,-0.5,0.3,0.85,0.33914000194777966,0.33887004315045344,0.6202974532430737,0.6207916095069478,0.880144608505712,0,0.880144608505712,0,0.880144608505712,0,0.880144608505712,0,0,0,-0.5,2.2,0.1505842917243781,-0.6910065596697561,-0.15058429172437815,0.6907667310062802,0.0,0.17000000000000007,0.0,0.0,0.0,0.17000000000000007,0.0,0.0,0.0,0.17000000000000007,0.0,0.0
34,-0.5,0.3,0.85,0.33914000194777966,0.33887004315045344,0.6202974532430737,0.6207916095069478,0.880144608505712,0,0.880144608505712,0,0.880144608505712,0,0.880144608505712,0,0,0,-0.5,2.2,0.1505842917243781,-0.6910065596697561,-0.15058429172437815,0.6907667310062802,0.0,0.17500000000000007,0.0,0.0,0.0,0.17500000000000007,0.0,0.0,0.0,0.17500000000000007,0.0,0.0
35,-0.5,0.3,0.85,0.33914000194777966,0.33887004315045344,0.6202974532430737,0.6207916095069478,0.880144608505712,0,0.880144608505712,0,0.880144608505712,0,0.880144608505712,0,0,0,-0.5,2.2,0.1505842917243781,-0.6910065596697561,-0.15058429172437815,0.6907667310062802,0.0,0.18000000000000008,0.0,0.0,0.0,0.18000000000000008,0.0,0.0,0.0,0.18000000000000008,0.0,0.0
36,-0.5,0.3,0.85,0.33914000194777966,0.33887004315045344,0.6202974532430737,0.6207916095069478,0.880144608505712,0,0.880144608505712,0,0.880144608505712,0,0.880144608505712,0,0,0,-0.5,2.2,0.1505842917243781,-0.6910065596697561,-0.15058429172437815,0.6907667310062802,0.0,0.18500000000000008,0.0,0.0,0.0,0.18500000000000008,0.0,0.0,0.0,0.18500000000000008,0.0,0.0
37,-0.5,0.3,0.85,0.33914000194777966,0.33887004315045344,0.6202974532430737,0.6207916095069478,0.880144608505712,0,0.880144608505712,0,0.880144608505712,0,0.880144608505712,0,0,0,-0.5,2.2,0.1505842917243781,-0.6910065596697561,-0.15058429172437815,0.6907667310062802,0.0,0.19000000000000009,0.0,0.0,0.0,0.19000000000000009,0.0,0.0,0.0,0.19000000000000009,0.0,0.0
38,-0.5,0.3,0.85,0.33914000194777966,0.33887004315045344,0.6202974532430737,0.6207916095069478,0.880144608505712,0,0.880144608505712,0,0.880144608505712,0,0.880144608505712,0,0,0,-0.5,2.2,0.1505842917243781,-0.6910065596697561,-0.15058429172437815,0.6907667310062802,0.0,0.1950000000000001,0.0,0.0,0.0,0.1950000000000001,0.0,0.0,0.0,0.1950000000000001,0.0,0.0
39,-0.5,0.3,0.85,0.33914000194777966,0.33887004315045344,0.6202974532430737,0.6207916095069478,0.880144608505712,0,0.880144608505712,0,0.880144608505712,0,0.880144608505712,0,0,0,-0.5,2.2,0.1505842917243781,-0.6910065596697561,-0.15058429172437815,0.6907667310062802,0.0,0.2000000000000001,0.0,0.0,0.0,0.2000000000000001,0.0,0.0,0.0,0.2000000000000001,0.0,0.0
40,-0.5,0.3,0.85,0.33914000194777966,0.33887004315045344,0.6202974532430737,0.6207916095069478,0.880144608505712,0,0.880144608505712,0,0.880144608505712,0,0.880144608505712,0,0,0,-0.5,2.2,0.1505842917243781,-0.6910065596697561,-0.15058429172437815,0.6907667310062802,0.0,0.2050000000000001,0.0,0.0,0.0,0.2050000000000001,0.0,0.0,0.0,0.2050000000000001,0.0,0.0
41,-0.5,0.3,0.85,0.33914000194777966,0.33887004315045344,0.6202974532430737,0.6207916095069478,0.880144608505712,0,0.880144608505712,0,0.880144608505712,0,0.880144608505712,0,0,0,-0.5,2.2,0.1505842917243781,-0.6910065596697561,-0.15058429172437815,0.6907667310062802,0.0,0.2100000000000001,0.0,0.0,0.0,0.2100000000000001,0.0,0.0,0.0,0.2100000000000001,0.0,0.0
42,-0.5,0.3,0.85,0.33914000194777966,0.33887004315045344,0.6202974532430737,0.6207916095069478,0.880144608505712,0,0.880144608505712,0,0.880144608505712,0,0.880144608505712,0,0,0,-0.5,2.2,0.1505842917243781,-0.6910065596697561,-0.15058429172437815,0.6907667310062802,0.0,0.2150000000000001,0.0,0.0,0.0,0.2150000000000001,0.0,0.0,0.0,0.2150000000000001,0.0,0.0
43,-0.5,0.3,0.85,0.33914000194777966,0.33887004315045344,0.6202974532430737,0.6207916095069478,0.880144608505712,0,0.880144608505712,0,0.880144608505712,0,0.880144608505712,0,0,0,-0.5,2.2,0.1505842917243781,-0.6910065596697561,-0.15058429172437815,0.6907667310062802,0.0,0.2200000000000001,0.0,0.0,0.0,0.2200000000000001,0.0,0.0,0.0,0.2200000000000001,0.0,0.0
44,-0.5,0.3,0.85,0.33914000194777966,0.33887004315045344,0.6202974532430737,0.6207916095069478,0.880144608505712,0,0.880144608505712,0,0.880144608505712,0,0.880144608505712,0,0,0,-0.5,2.2,0.1505842917243781,-0.6910065596697561,-0.15058429172437815,0.6907667310062802,0.0,0.22500000000000012,0.0,0.0,0.0,0.22500000000000012,0.0,0.0,0.0,0.22500000000000012,0.0,0.0
45,-0.5,0.3,0.85,0.33914000194777966,0.33887004315045344,0.6202974532430737,0.6207916095069478,0.880144608505712,0,0.880144608505712,0,0.880144608505712,0,0.880144608505712,0,0,0,-0.5,2.2,0.1505842917243781,-0.6910065596697561,-0.15058429172437815,0.6907667310062802,0.0,0.23000000000000012,0.0,0.0,0.0,0.23000000000000012,0.0,0.0,0.0,0.23000000000000012,0.0,0.0
46,-0.5,0.3,0.85,0.33914000194777966,0.33887004315045344,0.6202974532430737,0.6207916095069478,0.880144608505712,0,0.880144608505712,0,0.880144608505712,0,0.880144608505712,0,0,0,-0.5,2.2,0.1505842917243781,-0.6910065596697561,-0.15058429172437815,0.6907667310062802,0.0,0.23500000000000013,0.0,0.0,0.0,0.23500000000000013,0.0,0.0,0.0,0.23500000000000013,0.0,0.0
47,-0.5,0.3,0.85,0.33914000194777966,0.33887004315045344,0.6202974532430737,0.6207916095069478,0.880144608505712,0,0.880144608505712,0,0.880144608505712,0,0.880144608505712,0,0,0,-0.5,2.2,0.1505842917243781,-0.6910065596697561,-0.15058429172437815,0.6907667310062802,0.0,0.24000000000000013,0.0,0.0,0.0,0.24000000000000013,0.0,0.0,0.0,0.24000000000000013,0.0,0.0
48,-0.5,0.3,0.85,0.33914000194777966,0.33887004315045344,0.6202974532430737,0.6207916095069478,0.880144608505712,0,0.880144608505712,0,0.880144608505712,0,0.880144608505712,0,0,0,-0.5,2.2,0.1505842917243781,-0.6910065596697561,-0.15058429172437815,0.6907667310062802,0.0,0.24500000000000013,0.0,0.0,0.0,0.24500000000000013,0.0,0.0,0.0,0.24500000000000013,0.0,0.0
49,-0.5,0.3,0.85,0.33914000194777966,0.33887004315045344,0.6202974532430737,0.6207916095069478,0.880144608505712,0,0.880144608505712,0,0.880144608505712,0,0.880144608505712,0,0,0,-0.5,2.2,0.1505842917243781,-0.6910065596697561,-0.15058429172437815,0.6907667310062802,0.0,0.2500000000000001,0.0,0.0,0.0,0.2500000000000001,0.0,0.0,0.0,0.2500000000000001,0.0,0.0
50,-0.5,0.3,0.85,0.33914000194777966,0.33887004315045344,0.6202974532430737,0.6207916095069478,0.880144608505712,0,0.880144608505712,0,0.880144608505712,0,0.880144608505712,0,0,0,-0.5,2.2,0.1505842917243781,-0.6910065596697561,-0.15058429172437815,0.6907667310062802,0.0,0.2550000000000001,0.0,0.0,0.0,0.2550000000000001,0.0,0.0,0.0,0.2550000000000001,0.0,0.0
51,-0.5,0.3,0.85,0.33914000194777966,0.33887004315045344,0.6202974532430737,0.6207916095069478,0.880144608505712,0,0.880144608505712,0,0.880144608505712,0,0.880144608505712,0,0,0,-0.5,2.2,0.1505842917243781,-0.6910065596697561,-0.15058429172437815,0.6907667310062802,0.0,0.2600000000000001,0.0,0.0,0.0,0.2600000000000001,0.0,0.0,0.0,0.2600000000000001,0.0,0.0
52,-0.5,0.3,0.85,0.33914000194777966,0.33887004315045344,0.6202974532430737,0.6207916095069478,0.880144608505712,0,0.880144608505712,0,0.880144608505712,0,0.880144608505712,0,0,0,-0.5,2.2,0.1505842917243781,-0.6910065596697561,-0.15058429172437815,0.6907667310062802,0.0,0.2650000000000001,0.0,0.0,0.0,0.2650000000000001,0.0,0.0,0.0,0.2650000000000001,0.0,0.0
53,-0.5,0.3,0.85,0.33914000194777966,0.33887004315045344,0.6202974532430737,0.6207916095069478,0.880144608505712,0,0.880144608505712,0,0.880144608505712,0,0.880144608505712,0,0,0,-0.5,2.2,0.1505842917243781,-0.6910065596697561,-0.15058429172437815,0.6907667310062802,0.0,0.27000000000000013,0.0,0.0,0.0,0.27000000000000013,0.0,0.0,0.0,0.27000000000000013,0.0,0.0
54,-0.5,0.3,0.85,0.33914000194777966,0.33887004315045344,0.6202974532430737,0.6207916095069478,0.880144608505712,0,0.880144608505712,0,0.880144608505712,0,0.880144608505712,0,0,0,-0.5,2.2,0.1505842917243781,-0.6910065596697561,-0.15058429172437815,0.6907667310062802,0.0,0.27500000000000013,0.0,0.0,0.0,0.27500000000000013,0.0,0.0,0.0,0.27500000000000013,0.0,0.0
55,-0.5,0.3,0.85,0.33914000194777966,0.33887004315045344,0.6202974532430737,0.6207916095069478,0.880144608505712,0,0.880144608505712,0,0.880144608505712,0,0.880144608505712,0,0,0,-0.5,2.2,0.1505842917243781,-0.6910065596697561,-0.15058429172437815,0.6907667310062802,0.0,0.28000000000000014,0.0,0.0,0.0,0.28000000000000014,0.0,0.0,0.0,0.28000000000000014,0.0,0.0
56,-0.5,0.3,0.85,0.33914000194777966,0.33887004315045344,0.6202974532430737,0.6207916095069478,0.880144608505712,0,0.880144608505712,0,0.880144608505712,0,0.880144608505712,0,0,0,-0.5,2.2,0.1505842917243781,-0.6910065596697561,-0.15058429172437815,0.6907667310062802,0.0,0.28500000000000014,0.0,0.0,0.0,0.28500000000000014,0.0,0.0,0.0,0.28500000000000014,0.0,0.0
57,-0.5,0.3,0.85,0.33914000194777966,0.33887004315045344,0.6202974532430737,0.6207916095069478,0.880144608505712,0,0.880144608505712,0,0.880144608505712,0,0.880144608505712,0,0,0,-0.5,2.2,0.1505842917243781,-0.6910065596697561,-0.15058429172437815,0.6907667310062802,0.0,0.29000000000000015,0.0,0.0,0.0,0.29000000000000015,0.0,0.0,0.0,0.29000000000000015,0.0,0.0
58,-0.5,0.3,0.85,0.33914000194777966,0.33887004315045344,0.6202974532430737,0.6207916095069478,0.880144608505712,0,0.880144608505712,0,0.880144608505712,0,0.880144608505712,0,0,0,-0.5,2.2,0.1505842917243781,-0.6910065596697561,-0.15058429172437815,0.6907667310062802,0.0,0.29500000000000015,0.0,0.0,0.0,0.29500000000000015,0.0,0.0,0.0,0.29500000000000015,0.0,0.0
59,-0.5,0.3,0.85,0.33914000194777966,0.33887004315045344,0.6202974532430737,0.6207916095069478,0.880144608505712,0,0.880144608505712,0,0.880144608505712,0,0.880144608505712,0,0,0,-0.5,2.2,0.1505842917243781,-0.6910065596697561,-0.15058429172437815,0.6907667310062802,0.0,0.30000000000000016,0.0,0.0,0.0,0.30000000000000016,0.0,0.0,0.0,0.30000000000000016,0.0,0.0
60,-0.5,0.3,0.85,0.33914000194777966,0.33887004315045344,0.6202974532430737,0.6207916095069478,0.880144608505712,0,0.880144608505712,0,0.880144608505712,0,0.880144608505712,0,0,0,-0.5,2.2,0.1505842917243781,-0.6910065596697561,-0.15058429172437815,0.6907667310062802,0.0,0.30500000000000016,0.0,0.0,0.0,0.30500000000000016,0.0,0.0,0.0,0.30500000000000016,0.0,0.0
61,-0.5,0.3,0.85,0.33914000194777966,0.33887004315045344,0.6202974532430737,0.6207916095069478,0.880144608505712,0,0.880144608505712,0,0.880144608505712,0,0.880144608505712,0,0,0,-0.5,2.2,0.1505842917243781,-0.6910065596697561,-0.15058429172437815,0.6907667310062802,0.0,0.31000000000000016,0.0,0.0,0.0,0.31000000000000016,0.0,0.0,0.0,0.31000000000000016,0.0,0.0
62,-0.5,0.3,0.85,0.33914000194777966,0.33887004315045344,0.6202974532430737,0.6207916095069478,0.880144608505712,0,0.880144608505712,0,0.880144608505712,0,0.880144608505712,0,0,0,-0.5,2.2,0.1505842917243781,-0.6910065596697561,-0.15058429172437815,0.6907667310062802,0.0,0.31500000000000017,0.0,0.0,0.0,0.31500000000000017,0.0,0.0,0.0,0.31500000000000017,0.0,0.0
63,-0.5,0.3,0.85,0.33914000194777966,0.33887004315045344,0.6202974532430737,0.6207916095069478,0.880144608505712,0,0.880144608505712,0,0.880144608505712,0,0.880144608505712,0,0,0,-0.5,2.2,0.1505842917243781,-0.6910065596697561,-0.15058429172437815,0.6907667310062802,0.0,0.3200000000000002,0.0,0.0,0.0,0.3200000000000002,0.0,0.0,0.0,0.3200000000000002,0.0,0.0
64,-0.5,0.3,0.85,0.33914000194777966,0.33887004315045344,0.6202974532430737,0.6207916095069478,0.880144608505712,0,0.880144608505712,0,0.880144608505712,0,0.880144608505712,0,0,0,-0.5,2.2,0.1505842917243781,-0.6910065596697561,-0.15058429172437815,0.6907667310062802,0.0,0.3250000000000002,0.0,0.0,0.0,0.3250000000000002,0.0,0.0,0.0,0.3250000000000002,0.0,0.0
65,-0.5,0.3,0.85,0.33914000194777966,0.33887004315045344,0.6202974532430737,0.6207916095069478,0.880144608505712,0,0.880144608505712,0,0.880144608505712,0,0.880144608505712,0,0,0,-0.5,2.2,0.1505842917243781,-0.6910065596697561,-0.15058429172437815,0.6907667310062802,0.0,0.3300000000000002,0.0,0.0,0.0,0.3300000000000002,0.0,0.0,0.0,0.3300000000000002,0.0,0.0
66,-0.5,0.3,0.85,0.33914000194777966,0.33887004315045344,0.6202974532430737,0.6207916095069478,0.880144608505712,0,0.880144608505712,0,0.880144608505712,0,0.880144608505712,0,0,0,-0.5,2.2,0.1505842917243781,-0.6910065596697561,-0.15058429172437815,0.6907667310062802,0.0,0.3350000000000002,0.0,0.0,0.0,0.3350000000000002,0.0,0.0,0.0,0.3350000000000002,0.0,0.0
67,-0.5,0.3,0.85,0.33914000194777966,0.33887004315045344,0.6202974532430737,0.6207916095069478,0.880144608505712,0,0.880144608505712,0,0.880144608505712,0,0.880144608505712,0,0,0,-0.5,2.2,0.1505842917243781,-0.6910065596697561,-0.15058429172437815,0.6907667310062802,0.0,0.3400000000000002,0.0,0.0,0.0,0.3400000000000002,0.0,0.0,0.0,0.3400000000000002,0.0,0.0
68,-0.5,0.3,0.85,0.33914000194777966,0.33887004315045344,0.6202974532430737,0.6207916095069478,0.880144608505712,0,0.880144608505712,0,0.880144608505712,0,0.880144608505712,0,0,0,-0.5,2.2,0.1505842917243781,-0.6910065596697561,-0.15058429172437815,0.6907667310062802,0.0,0.3450000000000002,0.0,0.0,0.0,0.3450000000000002,0.0,0.0,0.0,0.3450000000000002,0.0,0.0
69,-0.5,0.3,0.85,0.33914000194777966,0.33887004315045344,0.6202974532430737,0.6207916095069478,0.880144608505712,0,0.880144608505712,0,0.880144608505712,0,0.880144608505712,0,0,0,-0.5,2.2,0.1505842917243781,-0.6910065596697561,-0.15058429172437815,0.6907667310062802,0.0,0.3500000000000002,0.0,0.0,0.0,0.3500000000000002,0.0,0.0,0.0,0.3500000000000002,0.0,0.0
70,-0.5,0.3,0.85,0.33914000194777966,0.33887004315045344,0.6202974532430737,0.6207916095069478,0.880144608505712,0,0.880144608505712,0,0.880144608505712,0,0.880144608505712,0,0,0,-0.5,2.2,0.1505842917243781,-0.6910065596697561,-0.15058429172437815,0.6907667310062802,0.0,0.3550000000000002,0.0,0.0,0.0,0.3550000000000002,0.0,0.0,0.0,0.3550000000000002,0.0,0.0
71,-0.5,0.3,0.85,0.33914000194777966,0.33887004315045344,0.6202974532430737,0.6207916095069478,0.880144608505712,0,0.880144608505712,0,0.880144608505712,0,0.880144608505712,0,0,0,-0.5,2.2,0.1505842917243781,-0.6910065596697561,-0.15058429172437815,0.6907667310062802,0.0,0.3600000000000002,0.0,0.0,0.0,0.3600000000000002,0.0,0.0,0.0,0.3600000000000002,0.0,0.0
72,-0.5,0.3,0.85,0.33914000194777966,0.33887004315045344,0.6202974532430737,0.6207916095069478,0.880144608505712,0,0.880144608505712,0,0.880144608505712,0,0.880144608505712,0,0,0,-0.5,2.2,0.1505842917243781,-0.6910065596697561,-0.15058429172437815,0.6907667310062802,0.0,0.3650000000000002,0.0,0.0,0.0,0.3650000000000002,0.0,0.0,0.0,0.3650000000000002,0.0,0.0
73,-0.5,0.3,0.85,0.33914000194777966,0.33887004315045344,0.6202974532430737,0.6207916095069478,0.880144608505712,0,0.880144608505712,0,0.880144608505712,0,0.880144608505712,0,0,0,-0.5,2.2,0.1505842917243781,-0.6910065596697561,-0.15058429172437815,0.6907667310062802,0.0,0.3700000000000002,0.0,0.0,0.0,0.3700000000000002,0.0,0.0,0.0,0.3700000000000002,0.0,0.0
74,-0.5,0.3,0.85,0.33914000194777966,0.33887004315045344,0.6202974532430737,0.6207916095069478,0.880144608505712,0,0.880144608505712,0,0.880144608505712,0,0.880144608505712,0,0,0,-0.5,2.2,0.1505842917243781,-0.6910065596697561,-0.15058429172437815,0.6907667310062802,0.0,0.3750000000000002,0.0,0.0,0.0,0.3750000000000002,0.0,0.0,0.0,0.3750000000000002,0.0,0.0
75,-0.5,0.3,0.85,0.33914000194777966,0.33887004315045344,0.6202974532430737,0.6207916095069478,0.880144608505712,0,0.880144608505712,0,0.880144608505712,0,0.880144608505712,0,0,0,-0.5,2.2,0.1505842917243781,-0.6910065596697561,-0.15058429172437815,0.6907667310062802,0.0,0.3800000000000002,0.0,0.0,0.0,0.3800000000000002,0.0,0.0,0.0,0.3800000000000002,0.0,0.0
76,-0.5,0.3,0.85,0.33914000194777966,0.33887004315045344,0.6202974532430737,0.6207916095069478,0.880144608505712,0,0.880144608505712,0,0.880144608505712,0,0.880144608505712,0,0,0,-0.5,2.2,0.1505842917243781,-0.6910065596697561,-0.15058429172437815,0.6907667310062802,0.0,0.38500000000000023,0.0,0.0,0.0,0.38500000000000023,0.0,0.0,0.0,0.38500000000000023,0.0,0.0
77,-0.5,0.3,0.85,0.33914000194777966,0.33887004315045344,0.6202974532430737,0.6207916095069478,0.880144608505712,0,0.880144608505712,0,0.880144608505712,0,0.880144608505712,0,0,0,-0.5,2.2,0.1505842917243781,-0.6910065596697561,-0.15058429172437815,0.6907667310062802,0.0,0.39000000000000024,0.0,0.0,0.0,0.39000000000000024,0.0,0.0,0.0,0.39000000000000024,0.0,0.0
78,-0.5,0.3,0.85,0.33914000194777966,0.33887004315045344,0.6202974532430737,0.6207916095069478,0.880144608505712,0,0.880144608505712,0,0.880144608505712,0,0.880144608505712,0,0,0,-0.5,2.2,0.1505842917243781,-0.6910065596697561,-0.15058429172437815,0.6907667310062802,0.0,0.39500000000000024,0.0,0.0,0.0,0.39500000000000024,0.0,0.0,0.0,0.39500000000000024,0.0,0.0
79,-0.5,0.3,0.85,0.33914000194777966,0.33887004315045344,0.6202974532430737,0.6207916095069478,0.880144608505712,0,0.880144608505712,0,0.880144608505712,0,0.880144608505712,0,0,0,-0.5,2.2,0.1505842917243781,-0.6910065596697561,-0.15058429172437815,0.6907667310062802,0.0,0.40000000000000024,0.0,0.0,0.0,0.40000000000000024,0.0,0.0,0.0,0.40000000000000024,0.0,0.0
80,-0.5,0.3,0.85,0.33914000194777966,0.33887004315045344,0.6202974532430737,0.6207916095069478,0.880144608505712,0,0.880144608505712,0,0.880144608505712,0,0.880144608505712,0,0,0,-0.5,2.2,0.1505842917243781,-0.6910065596697561,-0.15058429172437815,0.6907667310062802,0.0,0.40500000000000025,0.0,0.0,0.0,0.40500000000000025,0.0,0.0,0.0,0.40500000000000025,0.0,0.0
81,-0.5,0.3,0.85,0.33914000194777966,0.33887004315045344,0.6202974532430737,0.6207916095069478,0.880144608505712,0,0.880144608505712,0,0.880144608505712,0,0.880144608505712,0,0,0,-0.5,2.2,0.1505842917243781,-0.6910065596697561,-0.15058429172437815,0.6907667310062802,0.0,0.41000000000000025,0.0,0.0,0.0,0.41000000000000025,0.0,0.0,0.0,0.41000000000000025,0.0,0.0
82,-0.5,0.3,0.85,0.33914000194777966,0.33887004315045344,0.6202974532430737,0.6207916095069478,0.880144608505712,0,0.880144608505712,0,0.880144608505712,0,0.880144608505712,0,0,0,-0.5,2.2,0.1505842917243781,-0.6910065596697561,-0.15058429172437815,0.6907667310062802,0.0,0.41500000000000026,0.0,0.0,0.0,0.41500000000000026,0.0,0.0,0.0,0.41500000000000026,0.0,0.0
83,-0.5,0.3,0.85,0.33914000194777966,0.33887004315045344,0.6202974532430737,0.6207916095069478,0.880144608505712,0,0.880144608505712,0,0.880144608505712,0,0.880144608505712,0,0,0,-0.5,2.2,0.1505842917243781,-0.6910065596697561,-0.15058429172437815,0.6907667310062802,0.0,0.42000000000000026,0.0,0.0,0.0,0.42000000000000026,0.0,0.0,0.0,0.42000000000000026,0.0,0.0
84,-0.5,0.3,0.85,0.33914000194777966,0.33887004315045344,0.6202974532430737,0.6207916095069478,0.880144608505712,0,0.880144608505712,0,0.880144608505712,0,0.880144608505712,0,0,0,-0.5,2.2,0.1505842917243781,-0.6910065596697561,-0.15058429172437815,0.6907667310062802,0.0,0.42500000000000027,0.0,0.0,0.0,0.42500000000000027,0.0,0.0,0.0,0.42500000000000027,0.0,0.0
85,-0.5,0.3,0.85,0.33914000194777966,0.33887004315045344,0.6202974532430737,0.6207916095069478,0.880144608505712,0,0.880144608505712,0,0.880144608505712,0,0.880144608505712,0,0,0,-0.5,2.2,0.1505842917243781,-0.6910065596697561,-0.15058429172437815,0.6907667310062802,0.0,0.43000000000000027,0.0,0.0,0.0,0.43000000000000027,0.0,0.0,0.0,0.43000000000000027,0.0,0.0
86,-0.5,0.3,0.85,0.33914000194777966,0.33887004315045344,0.6202974532430737,0.6207916095069478,0.880144608505712,0,0.880144608505712,0,0.880144608505712,0,0.880144608505712,0,0,0,-0.5,2.2,0.1505842917243781,-0.6910065596697561,-0.15058429172437815,0.6907667310062802,0.0,0.4350000000000003,0.0,0.0,0.0,0.4350000000000003,0.0,0.0,0.0,0.4350000000000003,0.0,0.0
87,-0.5,0.3,0.85,0.33914000194777966,0.33887004315045344,0.6202974532430737,0.6207916095069478,0.880144608505712,0,0.880144608505712,0,0.880144608505712,0,0.880144608505712,0,0,0,-0.5,2.2,0.1505842917243781,-0.6910065596697561,-0.15058429172437815,0.6907667310062802,0.0,0.4400000000000003,0.0,0.0,0.0,0.4400000000000003,0.0,0.0,0.0,0.4400000000000003,0.0,0.0
88,-0.5,0.3,0.85,0.33914000194777966,0.33887004315045344,0.6202974532430737,0.6207916095069478,0.880144608505712,0,0.880144608505712,0,0.880144608505712,0,0.880144608505712,0,0,0,-0.5,2.2,0.1505842917243781,-0.6910065596697561,-0.15058429172437815,0.6907667310062802,0.0,0.4450000000000003,0.0,0.0,0.0,0.4450000000000003,0.0,0.0,0.0,0.4450000000000003,0.0,0.0
89,-0.5,0.3,0.85,0.33914000194777966,0.33887004315045344,0.6202974532430737,0.6207916095069478,0.880144608505712,0,0.880144608505712,0,0.880144608505712,0,0.880144608505712,0,0,0,-0.5,2.2,0.1505842917243781,-0.6910065596697561,-0.15058429172437815,0.6907667310062802,0.0,0.4500000000000003,0.0,0.0,0.0,0.4500000000000003,0.0,0.0,0.0,0.4500000000000003,0.0,0.0
90,-0.5,0.3,0.85,0.33914000194777966,0.33887004315045344,0.6202974532430737,0.6207916095069478,0.880144608505712,0,0.880144608505712,0,0.880144608505712,0,0.880144608505712,0,0,0,-0.5,2.2,0.1505842917243781,-0.6910065596697561,-0.15058429172437815,0.6907667310062802,0.0,0.4550000000000003,0.0,0.0,0.0,0.4550000000000003,0.0,0.0,0.0,0.4550000000000003,0.0,0.0
91,-0.5,0.3,0.85,0.33914000194777966,0.33887004315045344,0.6202974532430737,0.6207916095069478,0.880144608505712,0,0.880144608505712,0,0.880144608505712,0,0.880144608505712,0,0,0,-0.5,2.2,0.1505842917243781,-0.6910065596697561,-0.15058429172437815,0.6907667310062802,0.0,0.4600000000000003,0.0,0.0,0.0,0.4600000000000003,0.0,0.0,0.0,0.4600000000000003,0.0,0.0
92,-0.5,0.3,0.85,0.33914000194777966,0.33887004315045344,0.6202974532430737,0.6207916095069478,0.880144608505712,0,0.880144608505712,0,0.880144608505712,0,0.880144608505712,0,0,0,-0.5,2.2,0.1505842917243781,-0.6910065596697561,-0.15058429172437815,0.6907667310062802,0.0,0.4650000000000003,0.0,0.0,0.0,0.4650000000000003,0.0,0.0,0.0,0.4650000000000003,0.0,0.0
93,-0.5,0.3,0.85,0.33914000194777966,0.33887004315045344,0.6202974532430737,0.6207916095069478,0.880144608505712,0,0.880144608505712,0,0.880144608505712,0,0.880144608505712,0,0,0,-0.5,2.2,0.1505842917243781,-0.6910065596697561,-0.15058429172437815,0.6907667310062802,0.0,0.4700000000000003,0.0,0.0,0.0,0.4700000000000003,0.0,0.0,0.0,0.4700000000000003,0.0,0.0
94,-0.5,0.3,0.85,0.33914000194777966,0.33887004315045344,0.6202974532430737,0.6207916095069478,0.880144608505712,0,0.880144608505712,0,0.880144608505712,0,0.880144608505712,0,0,0,-0.5,2.2,0.1505842917243781,-0.6910065596697561,-0.15058429172437815,0.6907667310062802,0.0,0.4750000000000003,0.0,0.0,0.0,0.4750000000000003,0.0,0.0,0.0,0.4750000000000003,0.0,0.0
95,-0.5,0.3,0.85,0.33914000194777966,0.33887004315045344,0.6202974532430737,0.6207916095069478,0.880144608505712,0,0.880144608505712,0,0.880144608505712,0,0.880144608505712,0,0,0,-0.5,2.2,0.1505842917243781,-0.6910065596697561,-0.15058429172437815,0.6907667310062802,0.0,0.4800000000000003,0.0,0.0,0.0,0.4800000000000003,0.0,0.0,0.0,0.4800000000000003,0.0,0.0
96,-0.5,0.3,0.85,0.33914000194777966,0.33887004315045344,0.6202974532430737,0.6207916095069478,0.880144608505712,0,0.880144608505712,0,0.880144608505712,0,0.880144608505712,0,0,0,-0.5,2.2,0.1505842917243781,-0.6910065596697561,-0.15058429172437815,0.6907667310062802,0.0,0.4850000000000003,0.0,0.0,0.0,0.4850000000000003,0.0,0.0,0.0,0.4850000000000003,0.0,0.0
97,-0.5,0.3,0.85,0.33914000194777966,0.33887004315045344,0.6202974532430737,0.6207916095069478,0.880144608505712,0,0.880144608505712,0,0.880144608505712,0,0.880144608505712,0,0,0,-0.5,2.2,0.1505842917243781,-0.6910065596697561,-0.15058429172437815,0.6907667310062802,0.0,0.4900000000000003,0.0,0.0,0.0,0.4900000000000003,0.0,0.0,0.0,0.4900000000000003,0.0,0.0
98,-0.5,0.3,0.85,0.33914000194777966,0.33887004315045344,0.6202974532430737,0.6207916095069478,0.880144608505712,0,0.880144608505712,0,0.880144608505712,0,0.880144608505712,0,0,0,-0.5,2.2,0.1505842917243781,-0.6910065596697561,-0.15058429172437815,0.6907667310062802,0.0,0.49500000000000033,0.0,0.0,0.0,0.49500000000000033,0.0,0.0,0.0,0.49500000000000033,0.0,0.0
99,-0.5,0.3,0.85,0.33914000194777966,0.33887004315045344,0.6202974532430737,0.6207916095069478,0.880144608505712,0,0.880144608505712,0,0.880144608505712,0,0.880144608505712,0,0,0,-0.5,2.2,0.1505842917243781,-0.6910065596697561,-0.15058429172437815,0.6907667310062802,0.0,0.5000000000000003,0.0,0.0,0.0,0.5000000000000003,0.0,0.0,0.0,0.5000000000000003,0.0,0.0
100,-0.5,0.3,0.85,0.33914000194777966,0.33887004315045344,0.6202974532430737,0.6207916095069478,0.880144608505712,0,0.880144608505712,0,0.880144608505712,0,0.880144608505712,0,0,0,-0.5,2.2,0.1505842917243781,-0.6910065596697561,-0.15058429172437815,0.6907667310062802,0.0,0.5050000000000003,0.0,0.0,0.0,0.5050000000000003,0.0,0.0,0.0,0.5050000000000003,0.0,0.0
101,-0.5,0.3,0.85,0.33914000194777966,0.33887004315045344,0.6202974532430737,0.6207916095069478,0.880144608505712,0,0.880144608505712,0,0.880144608505712,0,0.880144608505712,0,0,0,-0.5,2.2,0.1505842917243781,-0.6910065596697561,-0.15058429172437815,0.6907667310062802,0.0,0.5100000000000003,0.0,0.0,0.0,0.5100000000000003,0.0,0.0,0.0,0.5100000000000003,0.0,0.0
102,-0.5,0.3,0.85,0.33914000194777966,0.33887004315045344,0.6202974532430737,0.6207916095069478,0.880144608505712,0,0.880144608505712,0,0.880144608505712,0,0.880144608505712,0,0,0,-0.5,2.2,0.1505842917243781,-0.6910065596697561,-0.15058429172437815,0.6907667310062802,0.0,0.5150000000000003,0.0,0.0,0.0,0.5150000000000003,0.0,0.0,0.0,0.5150000000000003,0.0,0.0
103,-0.5,0.3,0.85,0.33914000194777966,0.33887004315045344,0.6202974532430737,0.6207916095069478,0.880144608505712,0,0.880144608505712,0,0.880144608505712,0,0.880144608505712,0,0,0,-0.5,2.2,0.1505842917243781,-0.6910065596697561,-0.15058429172437815,0.6907667310062802,0.0,0.5200000000000004,0.0,0.0,0.0,0.5200000000000004,0.0,0.0,0.0,0.5200000000000004,0.0,0.0
104,-0.5,0.3,0.85,0.33914000194777966,0.33887004315045344,0.6202974532430737,0.6207916095069478,0.880144608505712,0,0.880144608505712,0,0.880144608505712,0,0.880144608505712,0,0,0,-0.5,2.2,0.1505842917243781,-0.6910065596697561,-0.15058429172437815,0.6907667310062802,0.0,0.5250000000000004,0.0,0.0,0.0,0.5250000000000004,0.0,0.0,0.0,0.5250000000000004,0.0,0.0
105,-0.5,0.3,0.85,0.33914000194777966,0.33887004315045344,0.6202974532430737,0.6207916095069478,0.880144608505712,0,0.880144608505712,0,0.880144608505712,0,0.880144608505712,0,0,0,-0.5,2.2,0.1505842917243781,-0.6910065596697561,-0.15058429172437815,0.6907667310062802,0.0,0.5300000000000004,0.0,0.0,0.0,0.5300000000000004,0.0,0.0,0.0,0.5300000000000004,0.0,0.0
106,-0.5,0.3,0.85,0.33914000194777966,0.33887004315045344,0.6202974532430737,0.6207916095069478,0.880144608505712,0,0.880144608505712,0,0.880144608505712,0,0.880144608505712,0,0,0,-0.5,2.2,0.1505842917243781,-0.6910065596697561,-0.15058429172437815,0.6907667310062802,0.0,0.5350000000000004,0.0,0.0,0.0,0.5350000000000004,0.0,0.0,0.0,0.5350000000000004,0.0,0.0
107,-0.5,0.3,0.85,0.33914000194777966,0.33887004315045344,0.6202974532430737,0.6207916095069478,0.880144608505712,0,0.880144608505712,0,0.880144608505712,0,0.880144608505712,0,0,0,-0.5,2.2,0.1505842917243781,-0.6910065596697561,-0.15058429172437815,0.6907667310062802,0.0,0.5400000000000004,0.0,0.0,0.0,0.5400000000000004,0.0,0.0,0.0,0.5400000000000004,0.0,0.0
108,-0.5,0.3,0.85,0.33914000194777966,0.33887004315045344,0.6202974532430737,0.6207916095069478,0.880144608505712,0,0.880144608505712,0,0.880144608505712,0,0.880144608505712,0,0,0,-0.5,2.2,0.1505842917243781,-0.6910065596697561,-0.15058429172437815,0.6907667310062802,0.0,0.5450000000000004,0.0,0.0,0.0,0.5450000000000004,0.0,0.0,0.0,0.5450000000000004,0.0,0.0
109,-0.5,0.3,0.85,0.33914000194777966,0.33887004315045344,0.6202974532430737,0.6207916095069478,0.880144608505712,0,0.880144608505712,0,0.880144608505712,0,0.880144608505712,0,0,0,-0.5,2.2,0.1505842917243781,-0.6910065596697561,-0.15058429172437815,0.6907667310062802,0.0,0.5500000000000004,0.0,0.0,0.0,0.5500000000000004,0.0,0.0,0.0,0.5500000000000004,0.0,0.0
110,-0.5,0.3,0.85,0.33914000194777966,0.33887004315045344,0.6202974532430737,0.6207916095069478,0.880144608505712,0,0.880144608505712,0,0.880144608505712,0,0.880144608505712,0,0,0,-0.5,2.2,0.1505842917243781,-0.6910065596697561,-0.15058429172437815,0.6907667310062802,0.0,0.5550000000000004,0.0,0.0,0.0,0.5550000000000004,0.0,0.0,0.0,0.5550000000000004,0.0,0.0
111,-0.5,0.3,0.85,0.33914000194777966,0.33887004315045344,0.6202974532430737,0.6207916095069478,0.880144608505712,0,0.880144608505712,0,0.880144608505712,0,0.880144608505712,0,0,0,-0.5,2.2,0.1505842917243781,-0.6910065596697561,-0.15058429172437815,0.6907667310062802,0.0,0.5600000000000004,0.0,0.0,0.0,0.5600000000000004,0.0,0.0,0.0,0.5600000000000004,0.0,0.0
112,-0.5,0.3,0.85,0.33914000194777966,0.33887004315045344,0.6202974532430737,0.6207916095069478,0.880144608505712,0,0.880144608505712,0,0.880144608505712,0,0.880144608505712,0,0,0,-0.5,2.2,0.1505842917243781,-0.6910065596697561,-0.15058429172437815,0.6907667310062802,0.0,0.5650000000000004,0.0,0.0,0.0,0.5650000000000004,0.0,0.0,0.0,0.5650000000000004,0.0,0.0
113,-0.5,0.3,0.85,0.33914000194777966,0.33887004315045344,0.6202974532430737,0.6207916095069478,0.880144608505712,0,0.880144608505712,0,0.880144608505712,0,0.880144608505712,0,0,0,-0.5,2.2,0.1505842917243781,-0.6910065596697561,-0.15058429172437815,0.6907667310062802,0.0,0.5700000000000004,0.0,0.0,0.0,0.5700000000000004,0.0,0.0,0.0,0.5700000000000004,0.0,0.0
114,-0.5,0.3,0.85,0.33914000194777966,0.33887004315045344,0.6202974532430737,0.6207916095069478,0.880144608505712,0,0.880144608505712,0,0.880144608505712,0,0.880144608505712,0,0,0,-0.5,2.2,0.1505842917243781,-0.6910065596697561,-0.15058429172437815,0.6907667310062802,0.0,0.5750000000000004,0.0,0.0,0.0,0.5750000000000004,0.0,0.0,0.0,0.5750000000000004,0.0,0.0
115,-0.5,0.3,0.85,0.33914000194777966,0.33887004315045344,0.6202974532430737,0.6207916095069478,0.880144608505712,0,0.880144608505712,0,0.880144608505712,0,0.880144608505712,0,0,0,-0.5,2.2,0.1505842917243781,-0.6910065596697561,-0.15058429172437815,0.6907667310062802,0.0,0.5800000000000004,0.0,0.0,0.0,0.5800000000000004,0.0,0.0,0.0,0.5800000000000004,0.0,0.0
116,-0.5,0.3,0.85,0.33914000194777966,0.33887004315045344,0.6202974532430737,0.6207916095069478,0.880144608505712,0,0.880144608505712,0,0.880144608505712,0,0.880144608505712,0,0,0,-0.5,2.2,0.1505842917243781,-0.6910065596697561,-0.15058429172437815,0.6907667310062802,0.0,0.5850000000000004,0.0,0.0,0.0,0.5850000000000004,0.0,0.0,0.0,0.5850000000000004,0.0,0.0
117,-0.5,0.3,0.85,0.33914000194777966,0.33887004315045344,0.6202974532430737,0.6207916095069478,0.880144608505712,0,0.880144608505712,0,0.880144608505712,0,0.880144608505712,0,0,0,-0.5,2.2,0.1505842917243781,-0.6910065596697561,-0.15058429172437815,0.6907667310062802,0.0,0.5900000000000004,0.0,0.0,0.0,0.5900000000000004,0.0,0.0,0.0,0.5900000000000004,0.0,0.0
118,-0.5,0.3,0.85,0.33914000194777966,0.33887004315045344,0.6202974532430737,0.6207916095069478,0.880144608505712,0,0.880144608505712,0,0.880144608505712,0,0.880144608505712,0,0,0,-0.5,2.2,0.1505842917243781,-0.6910065596697561,-0.15058429172437815,0.6907667310062802,0.0,0.5950000000000004,0.0,0.0,0.0,0.5950000000000004,0.0,0.0,0.0,0.5950000000000004,0.0,0.0
119,-0.5,0.3,0.85,0.33914000194777966,0.33887004315045344,0.6202974532430737,0.6207916095069478,0.880144608505712,0,0.880144608505712,0,0.880144608505712,0,0.880144608505712,0,0,0,-0.5,2.2,0.1505842917243781,-0.6910065596697561,-0.15058429172437815,0.6907667310062802,0.0,0.6000000000000004,0.0,0.0,0.0,0.6000000000000004,0.0,0.0,0.0,0.6000000000000004,0.0,0.0
120,-0.5,0.3,0.85,0.33914000194777966,0.33887004315045344,0.6202974532430737,0.6207916095069478,0.880144608505712,0,0.880144608505712,0,0.880144608505712,0,0.880144608505712,0,0,0,-0.5,2.2,0.1505842917243781,-0.6910065596697561,-0.15058429172437815,0.6907667310062802,0.0,0.6050000000000004,0.0,0.0,0.0,0.6050000000000004,0.0,0.0,0.0,0.6050000000000004,0.0,0.0
121,-0.5,0.3,0.85,0.33914000194777966,0.33887004315045344,0.6202974532430737,0.6207916095069478,0.880144608505712,0,0.880144608505712,0,0.880144608505712,0,0.880144608505712,0,0,0,-0.5,2.2,0.1505842917243781,-0.6910065596697561,-0.15058429172437815,0.6907667310062802,0.0,0.6100000000000004,0.0,0.0,0.0,0.6100000000000004,0.0,0.0,0.0,0.6100000000000004,0.0,0.0
122,-0.5,0.3,0.85,0.33914000194777966,0.33887004315045344,0.6202974532430737,0.6207916095069478,0.880144608505712,0,0.880144608505712,0,0.880144608505712,0,0.880144608505712,0,0,0,-0.5,2.2,0.1505842917243781,-0.6910065596697561,-0.15058429172437815,0.6907667310062802,0.0,0.6150000000000004,0.0,0.0,0.0,0.6150000000000004,0.0,0.0,0.0,0.6150000000000004,0.0,0.0
123,-0.5,0.3,0.85,0.33914000194777966,0.33887004315045344,0.6202974532430737,0.6207916095069478,0.880144608505712,0,0.880144608505712,0,0.880144608505712,0,0.880144608505712,0,0,0,-0.5,2.2,0.1505842917243781,-0.6910065596697561,-0.15058429172437815,0.6907667310062802,0.0,0.6200000000000004,0.0,0.0,0.0,0.6200000000000004,0.0,0.0,0.0,0.6200000000000004,0.0,0.0
124,-0.5,0.3,0.85,0.33914000194777966,0.33887004315045344,0.6202974532430737,0.6207916095069478,0.880144608505712,0,0.880144608505712,0,0.880144608505712,0,0.880144608505712,0,0,0,-0.5,2.2,0.1505842917243781,-0.6910065596697561,-0.15058429172437815,0.6907667310062802,0.0,0.6250000000000004,0.0,0.0,0.0,0.6250000000000004,0.0,0.0,0.0,0.6250000000000004,0.0,0.0
125,-0.5,0.3,0.85,0.33914000194777966,0.33887004315045344,0.6202974532430737,0.6207916095069478,0.880144608505712,0,0.880144608505712,0,0.880144608505712,0,0.880144608505712,0,0,0,-0.5,2.2,0.1505842917243781,-0.6910065596697561,-0.15058429172437815,0.6907667310062802,0.0,0.6300000000000004,0.0,0.0,0.0,0.6300000000000004,0.0,0.0,0.0,0.6300000000000004,0.0,0.0
126,-0.5,0.3,0.85,0.33914000194777966,0.33887004315045344,0.6202974532430737,0.6207916095069478,0.880144608505712,0,0.880144608505712,0,0.880144608505712,0,0.880144608505712,0,0,0,-0.5,2.2,0.1505842917243781,-0.6910065596697561,-0.15058429172437815,0.6907667310062802,0.0,0.6350000000000005,0.0,0.0,0.0,0.6350000000000005,0.0,0.0,0.0,0.6350000000000005,0.0,0.0
127,-0.5,0.3,0.85,0.33914000194777966,0.33887004315045344,0.6202974532430737,0.6207916095069478,0.880144608505712,0,0.880144608505712,0,0.880144608505712,0,0.880144608505712,0,0,0,-0.5,2.2,0.1505842917243781,-0.6910065596697561,-0.15058429172437815,0.6907667310062802,0.0,0.6400000000000005,0.0,0.0,0.0,0.6400000000000005,0.0,0.0,0.0,0.6400000000000005,0.0,0.0
128,-0.5,0.3,0.85,0.33914000194777966,0.33887004315045344,0.6202974532430737,0.6207916095069478,0.880144608505712,0,0.880144608505712,0,0.880144608505712,0,0.880144608505712,0,0,0,-0.5,2.2,0.1505842917243781,-0.6910065596697561,-0.15058429172437815,0.6907667310062802,0.0,0.6450000000000005,0.0,0.0,0.0,0.6450000000000005,0.0,0.0,0.0,0.6450000000000005,0.0,0.0
129,-0.5,0.3,0.85,0.33914000194777966,0.33887004315045344,0.6202974532430737,0.6207916095069478,0.880144608505712,0,0.880144608505712,0,0.880144608505712,0,0.880144608505712,0,0,0,-0.5,2.2,0.1505842917243781,-0.6910065596697561,-0.15058429172437815,0.6907667310062802,0.0,0.6500000000000005,0.0,0.0,0.0,0.6500000000000005,0.0,0.0,0.0,0.6500000000000005,0.0,0.0
130,-0.5,0.3,0.85,0.33914000194777966,0.33887004315045344,0.6202974532430737,0.6207916095069478,0.880144608505712,0,0.880144608505712,0,0.880144608505712,0,0.880144608505712,0,0,0,-0.5,2.2,0.1505842917243781,-0.6910065596697561,-0.15058429172437815,0.6907667310062802,0.0,0.6550000000000005,0.0,0.0,0.0,0.6550000000000005,0.0,0.0,0.0,0.6550000000000005,0.0,0.0
131,-0.5,0.3,0.85,0.33914000194777966,0.33887004315045344,0.6202974532430737,0.6207916095069478,0.880144608505712,0,0.880144608505712,0,0.880144608505712,0,0.880144608505712,0,0,0,-0.5,2.2,0.1505842917243781,-0.6910065596697561,-0.15058429172437815,0.6907667310062802,0.0,0.6600000000000005,0.0,0.0,0.0,0.6600000000000005,0.0,0.0,0.0,0.6600000000000005,0.0,0.0
132,-0.5,0.3,0.85,0.33914000194777966,0.33887004315045344,0.6202974532430737,0.6207916095069478,0.880144608505712,0,0.880144608505712,0,0.880144608505712,0,0.880144608505712,0,0,0,-0.5,2.2,0.1505842917243781,-0.6910065596697561,-0.15058429172437815,0.6907667310062802,0.0,0.6650000000000005,0.0,0.0,0.0,0.6650000000000005,0.0,0.0,0.0,0.6650000000000005,0.0,0.0
133,-0.5,0.3,0.85,0.33914000194777966,0.33887004315045344,0.6202974532430737,0.6207916095069478,0.880144608505712,0,0.880144608505712,0,0.880144608505712,0,0.880144608505712,0,0,0,-0.5,2.2,0.1505842917243781,-0.6910065596697561,-0.15058429172437815,0.6907667310062802,0.0,0.6700000000000005,0.0,0.0,0.0,0.6700000000000005,0.0,0.0,0.0,0.6700000000000005,0.0,0.0
134,-0.5,0.3,0.85,0.33914000194777966,0.33887004315045344,0.6202974532430737,0.6207916095069478,0.880144608505712,0,0.880144608505712,0,0.880144608505712,0,0.880144608505712,0,0,0,-0.5,2.2,0.1505842917243781,-0.6910065596697561,-0.15058429172437815,0.6907667310062802,0.0,0.6750000000000005,0.0,0.0,0.0,0.6750000000000005,0.0,0.0,0.0,0.6750000000000005,0.0,0.0
135,-0.5,0.3,0.85,0.33914000194777966,0.33887004315045344,0.6202974532430737,0.6207916095069478,0.880144608505712,0,0.880144608505712,0,0.880144608505712,0,0.880144608505712,0,0,0,-0.5,2.2,0.1505842917243781,-0.6910065596697561,-0.15058429172437815,0.6907667310062802,0.0,0.6800000000000005,0.0,0.0,0.0,0.6800000000000005,0.0,0.0,0.0,0.6800000000000005,0.0,0.0
136,-0.5,0.3,0.85,0.33914000194777966,0.33887004315045344,0.6202974532430737,0.6207916095069478,0.880144608505712,0,0.880144608505712,0,0.880144608505712,0,0.880144608505712,0,0,0,-0.5,2.2,0.1505842917243781,-0.6910065596697561,-0.15058429172437815,0.6907667310062802,0.0,0.6850000000000005,0.0,0.0,0.0,0.6850000000000005,0.0,0.0,0.0,0.6850000000000005,0.0,0.0
137,-0.5,0.3,0.85,0.33914000194777966,0.33887004315045344,0.6202974532430737,0.6207916095069478,0.880144608505712,0,0.880144608505712,0,0.880144608505712,0,0.880144608505712,0,0,0,-0.5,2.2,0.1505842917243781,-0.6910065596697561,-0.15058429172437815,0.6907667310062802,0.0,0.6900000000000005,0.0,0.0,0.0,0.6900000000000005,0.0,0.0,0.0,0.6900000000000005,0.0,0.0
138,-0.5,0.3,0.85,0.33914000194777966,0.33887004315045344,0.6202974532430737,0.6207916095069478,0.880144608505712,0,0.880144608505712,0,0.880144608505712,0,0.880144608505712,0,0,0,-0.5,2.2,0.1505842917243781,-0.6910065596697561,-0.15058429172437815,0.6907667310062802,0.0,0.6950000000000005,0.0,0.0,0.0,0.6950000000000005,0.0,0.0,0.0,0.6950000000000005,0.0,0.0
139,-0.5,0.3,0.85,0.33914000194777966,0.33887004315045344,0.6202974532430737,0.6207916095069478,0.880144608505712,0,0.880144608505712,0,0.880144608505712,0,0.880144608505712,0,0,0,-0.5,2.2,0.1505842917243781,-0.6910065596697561,-0.15058429172437815,0.6907667310062802,0.0,0.7000000000000005,0.0,0.0,0.0,0.7000000000000005,0.0,0.0,0.0,0.7000000000000005,0.0,0.0
140,-0.5,0.3,0.85,0.33914000194777966,0.33887004315045344,0.6202974532430737,0.6207916095069478,0.880144608505712,0,0.880144608505712,0,0.880144608505712,0,0.880144608505712,0,0,0,-0.5,2.2,0.1505842917243781,-0.6910065596697561,-0.15058429172437815,0.6907667310062802,0.0,0.7050000000000005,0.0,0.0,0.0,0.7050000000000005,0.0,0.0,0.0,0.7050000000000005,0.0,0.0
141,-0.5,0.3,0.85,0.33914000194777966,0.33887004315045344,0.6202974532430737,0.6207916095069478,0.880144608505712,0,0.880144608505712,0,0.880144608505712,0,0.880144608505712,0,0,0,-0.5,2.2,0.1505842917243781,-0.6910065596697561,-0.15058429172437815,0.6907667310062802,0.0,0.7100000000000005,0.0,0.0,0.0,0.7100000000000005,0.0,0.0,0.0,0.7100000000000005,0.0,0.0
142,-0.5,0.3,0.85,0.33914000194777966,0.33887004315045344,0.6202974532430737,0.6207916095069478,0.880144608505712,0,0.880144608505712,0,0.880144608505712,0,0.880144608505712,0,0,0,-0.5,2.2,0.1505842917243781,-0.6910065596697561,-0.15058429172437815,0.6907667310062802,0.0,0.7150000000000005,0.0,0.0,0.0,0.7150000000000005,0.0,0.0,0.0,0.7150000000000005,0.0,0.0
143,-0.5,0.3,0.85,0.33914000194777966,0.33887004315045344,0.6202974532430737,0.6207916095069478,0.880144608505712,0,0.880144608505712,0,0.880144608505712,0,0.880144608505712,0,0,0,-0.5,2.2,0.1505842917243781,-0.6910065596697561,-0.15058429172437815,0.6907667310062802,0.0,0.7200000000000005,0.0,0.0,0.0,0.7200000000000005,0.0,0.0,0.0,0.7200000000000005,0.0,0.0
144,-0.5,0.3,0.85,0.33914000194777966,0.33887004315045344,0.6202974532430737,0.6207916095069478,0.880144608505712,0,0.880144608505712,0,0.880144608505712,0,0.880144608505712,0,0,0,-0.5,2.2,0.1505842917243781,-0.6910065596697561,-0.15058429172437815,0.6907667310062802,0.0,0.7250000000000005,0.0,0.0,0.0,0.7250000000000005,0.0,0.0,0.0,0.7250000000000005,0.0,0.0
145,-0.5,0.3,0.85,0.33914000194777966,0.33887004315045344,0.6202974532430737,0.6207916095069478,0.880144608505712,0,0.880144608505712,0,0.880144608505712,0,0.880144608505712,0,0,0,-0.5,2.2,0.1505842917243781,-0.6910065596697561,-0.15058429172437815,0.6907667310062802,0.0,0.7300000000000005,0.0,0.0,0.0,0.7300000000000005,0.0,0.0,0.0,0.7300000000000005,0.0,0.0
146,-0.5,0.3,0.85,0.33914000194777966,0.33887004315045344,0.6202974532430737,0.6207916095069478,0.880144608505712,0,0.880144608505712,0,0.880144608505712,0,0.880144608505712,0,0,0,-0.5,2.2,0.1505842917243781,-0.6910065596697561,-0.15058429172437815,0.6907667310062802,0.0,0.7350000000000005,0.0,0.0,0.0,0.7350000000000005,0.0,0.0,0.0,0.7350000000000005,0.0,0.0
147,-0.5,0.3,0.85,0.33914000194777966,0.33887004315045344,0.6202974532430737,0.6207916095069478,0.880144608505712,0,0.880144608505712,0,0.880144608505712,0,0.880144608505712,0,0,0,-0.5,2.2,0.1505842917243781,-0.6910065596697561,-0.15058429172437815,0.6907667310062802,0.0,0.7400000000000005,0.0,0.0,0.0,0.7400000000000005,0.0,0.0,0.0,0.7400000000000005,0.0,0.0
148,-0.5,0.3,0.85,0.33914000194777966,0.33887004315045344,0.6202974532430737,0.6207916095069478,0.880144608505712,0,0.880144608505712,0,0.880144608505712,0,0.880144608505712,0,0,0,-0.5,2.2,0.1505842917243781,-0.6910065596697561,-0.15058429172437815,0.6907667310062802,0.0,0.7450000000000006,0.0,0.0,0.0,0.7450000000000006,0.0,0.0,0.0,0.7450000000000006,0.0,0.0
149,-0.5,0.3,0.85,0.33914000194777966,0.33887004315045344,0.6202974532430737,0.6207916095069478,0.880144608505712,0,0.880144608505712,0,0.880144608505712,0,0.880144608505712,0,0,0,-0.5,2.2,0.1505842917243781,-0.6910065596697561,-0.15058429172437815,0.6907667310062802,0.0,0.7500000000000006,0.0,0.0,0.0,0.7500000000000006,0.0,0.0,0.0,0.7500000000000006,0.0,0.0
150,-0.5,0.2975,0.842,0.33914000194777966,0.33887004315045344,0.6202974532430737,0.6207916095069478,0.880144608505712,0,0.880144608505712,0,0.880144608505712,0,0.880144608505712,0,0,0,-0.5,2.2,0.14712799168670304,-0.6917480898199478,-0.14712799168670299,0.6915137658462979,0.0,0.7500000000000006,0.0,0.0,0.0,0.7500000000000006,0.0,0.0,0.0,0.7500000000000006,0.0,0.0
151,-0.5,0.295,0.834,0.33914000194777966,0.33887004315045344,0.6202974532430737,0.6207916095069478,0.880144608505712,0,0.880144608505712,0,0.880144608505712,0,0.880144608505712,0,0,0,-0.5,2.2,0.14366801345689856,-0.6924723263039225,-0.1436680134568986,0.6922435128781856,0.0,0.7500000000000006,0.0,0.0,0.0,0.7500000000000006,0.0,0.0,0.0,0.7500000000000006,0.0,0.0
152,-0.5,0.2925,0.826,0.33914000194777966,0.33887004315045344,0.6202974532430737,0.6207916095069478,0.880144608505712,0,0.880144608505712,0,0.880144608505712,0,0.880144608505712,0,0,0,-0.5,2.2,0.14020444353424044,-0.6931792510158059,-0.14020444353424044,0.6929559538583059,0.0,0.7500000000000006,0.0,0.0,0.0,0.7500000000000006,0.0,0.0,0.0,0.7500000000000006,0.0,0.0
153,-0.5,0.29,0.818,0.33914000194777966,0.33887004315045344,0.6202974532430737,0.6207916095069478,0.880144608505712,0,0.880144608505712,0,0.880144608505712,0,0.880144608505712,0,0,0,-0.5,2.2,0.13673736850779628,-0.6938688462825169,-0.13673736850779633,0.6936510709756709,0.0,0.7500000000000006,0.0,0.0,0.0,0.7500000000000006,0.0,0.0,0.0,0.7500000000000006,0.0,0.0
154,-0.5,0.2875,0.8099999999999999,0.33914000194777966,0.33887004315045344,0.6202974532430737,0.6207916095069478,0.880144608505712,0,0.880144608505712,0,0.880144608505712,0,0.880144608505712,0,0,0,-0.5,2.2,0.1332668750542611,-0.6945410948642098,-0.13326687505426116,0.6943288468523894,0.0,0.7500000000000006,0.0,0.0,0.0,0.7500000000000006,0.0,0.0,0.0,0.7500000000000006,0.0,0.0
155,-0.5,0.285,0.8019999999999999,0.33914000194777966,0.33887004315045344,0.6202974532430737,0.6207916095069478,0.880144608505712,0,0.880144608505712,0,0.880144608505712,0,0.880144608505712,0,0,0,-0.5,2.2,0.12979304993579055,-0.6951959799547052,-0.12979304993579066,0.6949892645440994,0.0,0.7500000000000006,0.0,0.0,0.0,0.7500000000000006,0.0,0.0,0.0,0.7500000000000006,0.0,0.0
156,-0.5,0.2825,0.7939999999999999,0.33914000194777966,0.33887004315045344,0.6202974532430737,0.6207916095069478,0.880144608505712,0,0.880144608505712,0,0.880144608505712,0,0.880144608505712,0,0,0,-0.5,2.2,0.1263159799978316,-0.6958334851819096,-0.12631597999783165,0.6956323075403931,0.0,0.7500000000000006,0.0,0.0,0.0,0.7500000000000006,0.0,0.0,0.0,0.7500000000000006,0.0,0.0
157,-0.5,0.27999999999999997,0.7859999999999999,0.33914000194777966,0.33887004315045344,0.6202974532430737,0.6207916095069478,0.880144608505712,0,0.880144608505712,0,0.880144608505712,0,0.880144608505712,0,0,0,-0.5,2.2,0.12283575216695186,-0.6964535946082258,-0.12283575216695192,0.6962579597652292,0.0,0.7500000000000006,0.0,0.0,0.0,0.7500000000000006,0.0,0.0,0.0,0.7500000000000006,0.0,0.0
158,-0.5,0.27749999999999997,0.7779999999999999,0.33914000194777966,0.33887004315045344,0.6202974532430737,0.6207916095069478,0.880144608505712,0,0.880144608505712,0,0.880144608505712,0,0.880144608505712,0,0,0,-0.5,2.2,0.11935245344866552,-0.6970562927309505,-0.11935245344866552,0.6968662055773345,0.0,0.7500000000000006,0.0,0.0,0.0,0.7500000000000006,0.0,0.0,0.0,0.7500000000000006,0.0,0.0
159,-0.5,0.27499999999999997,0.7699999999999999,0.33914000194777966,0.33887004315045344,0.6202974532430737,0.6207916095069478,0.880144608505712,0,0.880144608505712,0,0.880144608505712,0,0.880144608505712,0,0,0,-0.5,2.2,0.1158661709252592,-0.6976415644826619,-0.1158661709252592,0.6974570297705955,0.0,0.7500000000000006,0.0,0.0,0.0,0.7500000000000006,0.0,0.0,0.0,0.7500000000000006,0.0,0.0
160,-0.5,0.27249999999999996,0.7619999999999999,0.33914000194777966,0.33887004315045344,0.6202974532430737,0.6207916095069478,0.880144608505712,0,0.880144608505712,0,0.880144608505712,0,0.880144608505712,0,0,0,-0.5,2.2,0.11237699175361443,-0.6982093952315966,-0.11237699175361443,0.6980304175744381,0.0,0.7500000000000006,0.0,0.0,0.0,0.7500000000000006,0.0,0.0,0.0,0.7500000000000006,0.0,0.0
161,-0.5,0.26999999999999996,0.7539999999999999,0.33914000194777966,0.33887004315045344,0.6202974532430737,0.6207916095069478,0.880144608505712,0,0.880144608505712,0,0.880144608505712,0,0.880144608505712,0,0,0,-0.5,2.2,0.10888500316302882,-0.6987597707820156,-0.10888500316302882,0.6985863546541969,0.0,0.7500000000000006,0.0,0.0,0.0,0.7500000000000006,0.0,0.0,0.0,0.7500000000000006,0.0,0.0
162,-0.5,0.26749999999999996,0.7459999999999999,0.33914000194777966,0.33887004315045344,0.6202974532430737,0.6207916095069478,0.880144608505712,0,0.880144608505712,0,0.880144608505712,0,0.880144608505712,0,0,0,-0.5,2.2,0.10539029245303523,-0.6992926773745589,-0.10539029245303523,0.6991248271114742,0.0,0.7500000000000006,0.0,0.0,0.0,0.7500000000000006,0.0,0.0,0.0,0.7500000000000006,0.0,0.0
163,-0.5,0.26499999999999996,0.7379999999999999,0.33914000194777966,0.33887004315045344,0.6202974532430737,0.6207916095069478,0.880144608505712,0,0.880144608505712,0,0.880144608505712,0,0.880144608505712,0,0,0,-0.5,2.2,0.10189294699121934,-0.699808101686589,-0.1018929469912194,0.6996458214844864,0.0,0.7500000000000006,0.0,0.0,0.0,0.7500000000000006,0.0,0.0,0.0,0.7500000000000006,0.0,0.0
164,-0.5,0.26249999999999996,0.7299999999999999,0.33914000194777966,0.33887004315045344,0.6202974532430737,0.6207916095069478,0.880144608505712,0,0.880144608505712,0,0.880144608505712,0,0.880144608505712,0,0,0,-0.5,2.2,0.09839305421103572,-0.7003060308325255,-0.09839305421103578,0.7001493247484013,0.0,0.7500000000000006,0.0,0.0,0.0,0.7500000000000006,0.0,0.0,0.0,0.7500000000000006,0.0,0.0
165,-0.5,0.25999999999999995,0.7219999999999999,0.33914000194777966,0.33887004315045344,0.6202974532430737,0.6207916095069478,0.880144608505712,0,0.880144608505712,0,0.880144608505712,0,0.880144608505712,0,0,0,-0.5,2.2,0.09489070160962143,-0.7007864523641654,-0.09489070160962143,0.7006353243156636,0.0,0.7500000000000006,0.0,0.0,0.0,0.7500000000000006,0.0,0.0,0.0,0.7500000000000006,0.0,0.0
166,-0.5,0.25749999999999995,0.7139999999999999,0.33914000194777966,0.33887004315045344,0.6202974532430737,0.6207916095069478,0.880144608505712,0,0.880144608505712,0,0.880144608505712,0,0.880144608505712,0,0,0,-0.5,2.2,0.09138597674560894,-0.7012493542709953,-0.091385976745609,0.7011038080363093,0.0,0.7500000000000006,0.0,0.0,0.0,0.7500000000000006,0.0,0.0,0.0,0.7500000000000006,0.0,0.0
167,-0.5,0.25499999999999995,0.7059999999999998,0.33914000194777966,0.33887004315045344,0.6202974532430737,0.6207916095069478,0.880144608505712,0,0.880144608505712,0,0.880144608505712,0,0.880144608505712,0,0,0,-0.5,2.2,0.08787896723693756,-0.701694724980492,-0.08787896723693761,0.70155476419827,0.0,0.7500000000000006,0.0,0.0,0.0,0.7500000000000006,0.0,0.0,0.0,0.7500000000000006,0.0,0.0
168,-0.5,0.25249999999999995,0.6979999999999998,0.33914000194777966,0.33887004315045344,0.6202974532430737,0.6207916095069478,0.880144608505712,0,0.880144608505712,0,0.880144608505712,0,0.880144608505712,0,0,0,-0.5,2.2,0.08436976075866243,-0.7021225533584107,-0.08436976075866243,0.701988181527665,0.0,0.7500000000000006,0.0,0.0,0.0,0.7500000000000006,0.0,0.0,0.0,0.7500000000000006,0.0,0.0
169,-0.5,0.24999999999999994,0.6899999999999998,0.33914000194777966,0.33887004315045344,0.6202974532430737,0.6207916095069478,0.880144608505712,0,0.880144608505712,0,0.880144608505712,0,0.880144608505712,0,0,0,-0.5,2.2,0.0808584450407625,-0.7025328287090642,-0.0808584450407624,0.7024040491890837,0.0,0.7500000000000006,0.0,0.0,0.0,0.7500000000000006,0.0,0.0,0.0,0.7500000000000006,0.0,0.0
170,-0.5,0.24749999999999994,0.6819999999999998,0.33914000194777966,0.33887004315045344,0.6202974532430737,0.6207916095069478,0.880144608505712,0,0.880144608505712,0,0.880144608505712,0,0.880144608505712,0,0,0,-0.5,2.2,0.07734510786594789,-0.7029255407755903,-0.07734510786594784,0.7028023567858561,0.0,0.7500000000000006,0.0,0.0,0.0,0.7500000000000006,0.0,0.0,0.0,0.7500000000000006,0.0,0.0
171,-0.5,0.24499999999999994,0.6739999999999998,0.33914000194777966,0.33887004315045344,0.6202974532430737,0.6207916095069478,0.880144608505712,0,0.880144608505712,0,0.880144608505712,0,0.880144608505712,0,0,0,-0.5,2.2,0.07382983706746503,-0.7033006797402076,-0.07382983706746503,0.7031830943603131,0.0,0.7500000000000006,0.0,0.0,0.0,0.7500000000000006,0.0,0.0,0.0,0.7500000000000006,0.0,0.0
172,-0.5,0.24249999999999994,0.6659999999999998,0.33914000194777966,0.33887004315045344,0.6202974532430737,0.6207916095069478,0.880144608505712,0,0.880144608505712,0,0.880144608505712,0,0.880144608505712,0,0,0,-0.5,2.2,0.0703127205269008,-0.7036582362244617,-0.0703127205269008,0.7035462523940355,0.0,0.7500000000000006,0.0,0.0,0.0,0.7500000000000006,0.0,0.0,0.0,0.7500000000000006,0.0,0.0
173,-0.5,0.23999999999999994,0.6579999999999998,0.33914000194777966,0.33887004315045344,0.6202974532430737,0.6207916095069478,0.880144608505712,0,0.880144608505712,0,0.880144608505712,0,0.880144608505712,0,0,0,-0.5,2.2,0.06679384617198542,-0.703998201289459,-0.06679384617198547,0.7038918218080907,0.0,0.7500000000000006,0.0,0.0,0.0,0.7500000000000006,0.0,0.0,0.0,0.7500000000000006,0.0,0.0
174,-0.5,0.23749999999999993,0.6499999999999998,0.33914000194777966,0.33887004315045344,0.6202974532430737,0.6207916095069478,0.880144608505712,0,0.880144608505712,0,0.880144608505712,0,0.880144608505712,0,0,0,-0.5,2.2,0.06327330197439474,-0.7043205664360905,-0.06327330197439474,0.7042197939632617,0.0,0.7500000000000006,0.0,0.0,0.0,0.7500000000000006,0.0,0.0,0.0,0.7500000000000006,0.0,0.0
175,-0.5,0.23499999999999993,0.6419999999999998,0.33914000194777966,0.33887004315045344,0.6202974532430737,0.6207916095069478,0.880144608505712,0,0.880144608505712,0,0.880144608505712,0,0.880144608505712,0,0,0,-0.5,2.2,0.05975117594755003,-0.7046253236052445,-0.059751175947550084,0.7045301606602619,0.0,0.7500000000000006,0.0,0.0,0.0,0.7500000000000006,0.0,0.0,0.0,0.7500000000000006,0.0,0.0
176,-0.5,0.23249999999999993,0.6339999999999998,0.33914000194777966,0.33887004315045344,0.6202974532430737,0.6207916095069478,0.880144608505712,0,0.880144608505712,0,0.880144608505712,0,0.880144608505712,0,0,0,-0.5,2.2,0.05622755614441882,-0.7049124651780077,-0.05622755614441877,0.7048229141399396,0.0,0.7500000000000006,0.0,0.0,0.0,0.7500000000000006,0.0,0.0,0.0,0.7500000000000006,0.0,0.0
177,-0.5,0.22999999999999993,0.6259999999999998,0.33914000194777966,0.33887004315045344,0.6202974532430737,0.6207916095069478,0.880144608505712,0,0.880144608505712,0,0.880144608505712,0,0.880144608505712,0,0,0,-0.5,2.2,0.0527025306553125,-0.7051819839758554,-0.0527025306553125,0.7050980470834736,0.0,0.7500000000000006,0.0,0.0,0.0,0.7500000000000006,0.0,0.0,0.0,0.7500000000000006,0.0,0.0
178,-0.5,0.22749999999999992,0.6179999999999998,0.33914000194777966,0.33887004315045344,0.6202974532430737,0.6207916095069478,0.880144608505712,0,0.880144608505712,0,0.880144608505712,0,0.880144608505712,0,0,0,-0.5,2.2,0.04917618760568471,-0.7054338732608318,-0.04917618760568471,0.7053555526125541,0.0,0.7500000000000006,0.0,0.0,0.0,0.7500000000000006,0.0,0.0,0.0,0.7500000000000006,0.0,0.0
179,-0.5,0.22499999999999992,0.6099999999999998,0.33914000194777966,0.33887004315045344,0.6202974532430737,0.6207916095069478,0.880144608505712,0,0.880144608505712,0,0.880144608505712,0,0.880144608505712,0,0,0,-0.5,2.2,0.04564861515392793,-0.7056681267357183,-0.045648615153927874,0.7055954242895566,0.0,0.7500000000000006,0.0,0.0,0.0,0.7500000000000006,0.0,0.0,0.0,0.7500000000000006,0.0,0.0
180,-0.5,0.22249999999999992,0.6019999999999998,0.33914000194777966,0.33887004315045344,0.6202974532430737,0.6207916095069478,0.880144608505712,0,0.880144608505712,0,0.880144608505712,0,0.880144608505712,0,0,0,-0.5,2.2,0.04211990148916983,-0.7058847385441899,-0.04211990148916983,0.7058176561177016,0.0,0.7500000000000006,0.0,0.0,0.0,0.7500000000000006,0.0,0.0,0.0,0.7500000000000006,0.0,0.0
181,-0.5,0.21999999999999992,0.5939999999999998,0.33914000194777966,0.33887004315045344,0.6202974532430737,0.6207916095069478,0.880144608505712,0,0.880144608505712,0,0.880144608505712,0,0.880144608505712,0,0,0,-0.5,2.2,0.03859013482906837,-0.7060837032709626,-0.03859013482906837,0.7060222425412049,0.0,0.7500000000000006,0.0,0.0,0.0,0.7500000000000006,0.0,0.0,0.0,0.7500000000000006,0.0,0.0
182,-0.5,0.21749999999999992,0.5859999999999997,0.33914000194777966,0.33887004315045344,0.6202974532430737,0.6207916095069478,0.880144608505712,0,0.880144608505712,0,0.880144608505712,0,0.880144608505712,0,0,0,-0.5,2.2,0.03505940341760605,-0.7062650159419286,-0.03505940341760605,0.7062091784454168,0.0,0.7500000000000006,0.0,0.0,0.0,0.7500000000000006,0.0,0.0,0.0,0.7500000000000006,0.0,0.0
183,-0.5,0.2149999999999999,0.5779999999999997,0.33914000194777966,0.33887004315045344,0.6202974532430737,0.6207916095069478,0.880144608505712,0,0.880144608505712,0,0.880144608505712,0,0.880144608505712,0,0,0,-0.5,2.2,0.03152779552288426,-0.7064286720242808,-0.031527795522884206,0.7063784591569491,0.0,0.7500000000000006,0.0,0.0,0.0,0.7500000000000006,0.0,0.0,0.0,0.7500000000000006,0.0,0.0
184,-0.5,0.2124999999999999,0.5699999999999997,0.33914000194777966,0.33887004315045344,0.6202974532430737,0.6207916095069478,0.880144608505712,0,0.880144608505712,0,0.880144608505712,0,0.880144608505712,0,0,0,-0.5,2.2,0.027995399434916468,-0.7065746674266256,-0.027995399434916468,0.7065300804437931,0.0,0.7500000000000006,0.0,0.0,0.0,0.7500000000000006,0.0,0.0,0.0,0.7500000000000006,0.0,0.0
185,-0.5,0.2099999999999999,0.5619999999999997,0.33914000194777966,0.33887004315045344,0.6202974532430737,0.6207916095069478,0.880144608505712,0,0.880144608505712,0,0.880144608505712,0,0.880144608505712,0,0,0,-0.5,2.2,0.024462303463420924,-0.7067029984990852,-0.02446230346342087,0.7066640385154243,0.0,0.7500000000000006,0.0,0.0,0.0,0.7500000000000006,0.0,0.0,0.0,0.7500000000000006,0.0,0.0
186,-0.5,0.2074999999999999,0.5539999999999997,0.33914000194777966,0.33887004315045344,0.6202974532430737,0.6207916095069478,0.880144608505712,0,0.880144608505712,0,0.880144608505712,0,0.880144608505712,0,0,0,-0.5,2.2,0.02092859593561286,-0.7068136620333899,-0.02092859593561286,0.7067803300228981,0.0,0.7500000000000006,0.0,0.0,0.0,0.7500000000000006,0.0,0.0,0.0,0.7500000000000006,0.0,0.0
187,-0.5,0.2049999999999999,0.5459999999999997,0.33914000194777966,0.33887004315045344,0.6202974532430737,0.6207916095069478,0.880144608505712,0,0.880144608505712,0,0.880144608505712,0,0.880144608505712,0,0,0,-0.5,2.2,0.017394365193996397,-0.706906655262957,-0.017394365193996397,0.7068789520589327,0.0,0.7500000000000006,0.0,0.0,0.0,0.7500000000000006,0.0,0.0,0.0,0.7500000000000006,0.0,0.0
188,-0.5,0.2024999999999999,0.5379999999999997,0.33914000194777966,0.33887004315045344,0.6202974532430737,0.6207916095069478,0.880144608505712,0,0.880144608505712,0,0.880144608505712,0,0.880144608505712,0,0,0,-0.5,2.2,0.013859699594156063,-0.7069819758629604,-0.013859699594156118,0.7069599021579825,0.0,0.7500000000000006,0.0,0.0,0.0,0.7500000000000006,0.0,0.0,0.0,0.7500000000000006,0.0,0.0
189,-0.5,0.1999999999999999,0.5299999999999997,0.33914000194777966,0.33887004315045344,0.6202974532430737,0.6207916095069478,0.880144608505712,0,0.880144608505712,0,0.880144608505712,0,0.880144608505712,0,0,0,-0.5,2.2,0.010324687502547836,-0.7070396219503894,-0.010324687502547891,0.707023178296299,0.0,0.7500000000000006,0.0,0.0,0.0,0.7500000000000006,0.0,0.0,0.0,0.7500000000000006,0.0,0.0
190,-0.5,0.1974999999999999,0.5219999999999997,0.33914000194777966,0.33887004315045344,0.6202974532430737,0.6207916095069478,0.880144608505712,0,0.880144608505712,0,0.880144608505712,0,0.880144608505712,0,0,0,-0.5,2.2,0.0067894172942896125,-0.7070795920840942,-0.006789417294289668,0.7070687788919823,0.0,0.7500000000000006,0.0,0.0,0.0,0.7500000000000006,0.0,0.0,0.0,0.7500000000000006,0.0,0.0
191,-0.5,0.1949999999999999,0.5139999999999997,0.33914000194777966,0.33887004315045344,0.6202974532430737,0.6207916095069478,0.880144608505712,0,0.880144608505712,0,0.880144608505712,0,0.880144608505712,0,0,0,-0.5,2.2,0.003253977350952786,-0.7071018852648243,-0.0032539773509528414,0.7070967028050197,0.0,0.7500000000000006,0.0,0.0,0.0,0.7500000000000006,0.0,0.0,0.0,0.7500000000000006,0.0,0.0
192,-0.5,0.1924999999999999,0.5059999999999997,0.33914000194777966,0.33887004315045344,0.6202974532430737,0.6207916095069478,0.880144608505712,0,0.880144608505712,0,0.880144608505712,0,0.880144608505712,0,0,0,-0.5,2.2,-0.0002815439416484211,-0.7071065009352508,0.0002815439416484766,0.707106949337315,0.0,0.7500000000000006,0.0,0.0,0.0,0.7500000000000006,0.0,0.0,0.0,0.7500000000000006,0.0,0.0
193,-0.5,0.1899999999999999,0.49799999999999967,0.33914000194777966,0.33887004315045344,0.6202974532430737,0.6207916095069478,0.880144608505712,0,0.880144608505712,0,0.880144608505712,0,0.880144608505712,0,0,0,-0.5,2.2,-0.00381705819566569,-0.7070934389799823,0.003817058195665801,0.7070995182327052,0.0,0.7500000000000006,0.0,0.0,0.0,0.7500000000000006,0.0,0.0,0.0,0.7500000000000006,0.0,0.0
194,-0.5,0.1874999999999999,0.48999999999999966,0.33914000194777966,0.33887004315045344,0.6202974532430737,0.6207916095069478,0.880144608505712,0,0.880144608505712,0,0.880144608505712,0,0.880144608505712,0,0,0,-0.5,2.2,-0.0073524770234268955,-0.7070626997255672,0.00735247702342684,0.7070744096769677,0.0,0.7500000000000006,0.0,0.0,0.0,0.7500000000000006,0.0,0.0,0.0,0.7500000000000006,0.0,0.0
195,-0.5,0.1849999999999999,0.48199999999999965,0.33914000194777966,0.33887004315045344,0.6202974532430737,0.6207916095069478,0.880144608505712,0,0.880144608505712,0,0.880144608505712,0,0.880144608505712,0,0,0,-0.5,2.2,-0.010887712039645447,-0.7070142839404852,0.010887712039645503,0.7070316242978151,0.0,0.7500000000000006,0.0,0.0,0.0,0.7500000000000006,0.0,0.0,0.0,0.7500000000000006,0.0,0.0
196,-0.5,0.18249999999999988,0.47399999999999964,0.33914000194777966,0.33887004315045344,0.6202974532430737,0.6207916095069478,0.880144608505712,0,0.880144608505712,0,0.880144608505712,0,0.880144608505712,0,0,0,-0.5,2.2,-0.014422674863630192,-0.7069481928351281,0.01442267486363008,0.7069711631648796,0.0,0.7500000000000006,0.0,0.0,0.0,0.7500000000000006,0.0,0.0,0.0,0.7500000000000006,0.0,0.0
197,-0.5,0.17999999999999988,0.46599999999999964,0.33914000194777966,0.33887004315045344,0.6202974532430737,0.6207916095069478,0.880144608505712,0,0.880144608505712,0,0.880144608505712,0,0.880144608505712,0,0,0,-0.5,2.2,-0.017957277121494305,-0.7068644280617703,0.01795727712149436,0.7068930277896862,0.0,0.7500000000000006,0.0,0.0,0.0,0.7500000000000006,0.0,0.0,0.0,0.7500000000000006,0.0,0.0
198,-0.5,0.17749999999999988,0.45799999999999963,0.33914000194777966,0.33887004315045344,0.6202974532430737,0.6207916095069478,0.880144608505712,0,0.880144608505712,0,0.880144608505712,0,0.880144608505712,0,0,0,-0.5,2.2,-0.021491430448365875,-0.706762991714527,0.021491430448365875,0.7067972201256154,0.0,0.7500000000000006,0.0,0.0,0.0,0.7500000000000006,0.0,0.0,0.0,0.7500000000000006,0.0,0.0
199,-0.5,0.17499999999999988,0.4499999999999996,0.33914000194777966,0.33887004315045344,0.6202974532430737,0.6207916095069478,0.880144608505712,0,0.880144608505712,0,0.880144608505712,0,0.880144608505712,0,0,0,-0.5,2.2,-0.025025046490595504,-0.7066438863293012,0.025025046490595337,0.7066837425678538,0.0,0.7500000000000006,0.0,0.0,0.0,0.7500000000000006,0.0,0.0,0.0,0.7500000000000006,0.0,0.0
200,-0.5,0.17249999999999988,0.4419999999999996,0.33914000194777966,0.33887004315045344,0.6202974532430737,0.6207916095069478,0.880144608505712,0,0.880144608505712,0,0.880144608505712,0,0.880144608505712,0,0,0,-0.5,2.2,-0.028558036907966156,-0.7065071148837215,0.028558036907966156,0.7065525979533347,0.0,0.7500000000000006,0.0,0.0,0.0,0.7500000000000006,0.0,0.0,0.0,0.7500000000000006,0.0,0.0
201,-0.5,0.16999999999999987,0.4339999999999996,0.33914000194777966,0.33887004315045344,0.6202974532430737,0.6207916095069478,0.880144608505712,0,0.880144608505712,0,0.880144608505712,0,0.880144608505712,0,0,0,-0.5,2.2,-0.03209031337590157,-0.706352680797067,0.032090313375901514,0.7064037895606661,0.0,0.7500000000000006,0.0,0.0,0.0,0.7500000000000006,0.0,0.0,0.0,0.7500000000000006,0.0,0.0
202,-0.5,0.16749999999999987,0.4259999999999996,0.33914000194777966,0.33887004315045344,0.6202974532430737,0.6207916095069478,0.880144608505712,0,0.880144608505712,0,0.880144608505712,0,0.880144608505712,0,0,0,-0.5,2.2,-0.035621787587673925,-0.7061805879301817,0.03562178758767398,0.7062373211100503,0.0,0.7500000000000006,0.0,0.0,0.0,0.7500000000000006,0.0,0.0,0.0,0.7500000000000006,0.0,0.0
203,-0.5,0.16499999999999987,0.4179999999999996,0.33914000194777966,0.33887004315045344,0.6202974532430737,0.6207916095069478,0.880144608505712,0,0.880144608505712,0,0.880144608505712,0,0.880144608505712,0,0,0,-0.5,2.2,-0.03915237125661197,-0.7059908405853783,0.03915237125661197,0.70605319676319,0.0,0.7500000000000006,0.0,0.0,0.0,0.7500000000000006,0.0,0.0,0.0,0.7500000000000006,0.0,0.0
204,-0.5,0.16249999999999987,0.4099999999999996,0.33914000194777966,0.33887004315045344,0.6202974532430737,0.6207916095069478,0.880144608505712,0,0.880144608505712,0,0.880144608505712,0,0.880144608505712,0,0,0,-0.5,2.2,-0.04268197611830771,-0.7057834435063308,0.04268197611830776,0.7058514211231841,0.0,0.7500000000000006,0.0,0.0,0.0,0.7500000000000006,0.0,0.0,0.0,0.7500000000000006,0.0,0.0
205,-0.5,0.15999999999999986,0.4019999999999996,0.33914000194777966,0.33887004315045344,0.6202974532430737,0.6207916095069478,0.880144608505712,0,0.880144608505712,0,0.880144608505712,0,0.880144608505712,0,0,0,-0.5,2.2,-0.04621051393282355,-0.705558401877955,0.04621051393282355,0.7056319992344132,0.0,0.7500000000000006,0.0,0.0,0.0,0.7500000000000006,0.0,0.0,0.0,0.7500000000000006,0.0,0.0
206,-0.5,0.15749999999999986,0.3939999999999996,0.33914000194777966,0.33887004315045344,0.6202974532430737,0.6207916095069478,0.880144608505712,0,0.880144608505712,0,0.880144608505712,0,0.880144608505712,0,0,0,-0.5,2.2,-0.049737896486897845,-0.7053157213262801,0.049737896486897845,0.705394936582413,0.0,0.7500000000000006,0.0,0.0,0.0,0.7500000000000006,0.0,0.0,0.0,0.7500000000000006,0.0,0.0
207,-0.5,0.15499999999999986,0.38599999999999957,0.33914000194777966,0.33887004315045344,0.6202974532430737,0.6207916095069478,0.880144608505712,0,0.880144608505712,0,0.880144608505712,0,0.880144608505712,0,0,0,-0.5,2.2,-0.053264035596150505,-0.7050554079183071,0.05326403559615045,0.7051402390937377,0.0,0.7500000000000006,0.0,0.0,0.0,0.7500000000000006,0.0,0.0,0.0,0.7500000000000006,0.0,0.0
208,-0.5,0.15249999999999986,0.37799999999999956,0.33914000194777966,0.33887004315045344,0.6202974532430737,0.6207916095069478,0.880144608505712,0,0.880144608505712,0,0.880144608505712,0,0.880144608505712,0,0,0,-0.5,2.2,-0.056788843107287434,-0.7047774681618579,0.056788843107287434,0.7048679131358111,0.0,0.7500000000000006,0.0,0.0,0.0,0.7500000000000006,0.0,0.0,0.0,0.7500000000000006,0.0,0.0
209,-0.5,0.14999999999999986,0.36999999999999955,0.33914000194777966,0.33887004315045344,0.6202974532430737,0.6207916095069478,0.880144608505712,0,0.880144608505712,0,0.880144608505712,0,0.880144608505712,0,0,0,-0.5,2.2,-0.060312230900304464,-0.7044819090054117,0.060312230900304464,0.7045779655167679,0.0,0.7500000000000006,0.0,0.0,0.0,0.7500000000000006,0.0,0.0,0.0,0.7500000000000006,0.0,0.0
210,-0.5,0.14749999999999985,0.36199999999999954,0.33914000194777966,0.33887004315045344,0.6202974532430737,0.6207916095069478,0.880144608505712,0,0.880144608505712,0,0.880144608505712,0,0.880144608505712,0,0,0,-0.5,2.2,-0.06383411089069019,-0.7041687378379321,0.06383411089069013,0.7042704034852834,0.0,0.7500000000000006,0.0,0.0,0.0,0.7500000000000006,0.0,0.0,0.0,0.7500000000000006,0.0,0.0
211,-0.5,0.14499999999999985,0.35399999999999954,0.33914000194777966,0.33887004315045344,0.6202974532430737,0.6207916095069478,0.880144608505712,0,0.880144608505712,0,0.880144608505712,0,0.880144608505712,0,0,0,-0.5,2.2,-0.06735439503162827,-0.703837962488682,0.06735439503162832,0.7039452347303926,0.0,0.7500000000000006,0.0,0.0,0.0,0.7500000000000006,0.0,0.0,0.0,0.7500000000000006,0.0,0.0
212,-0.5,0.14249999999999985,0.34599999999999953,0.33914000194777966,0.33887004315045344,0.6202974532430737,0.6207916095069478,0.880144608505712,0,0.880144608505712,0,0.880144608505712,0,0.880144608505712,0,0,0,-0.5,2.2,-0.07087299531619873,-0.7034895912270279,0.07087299531619873,0.7036024673812973,0.0,0.7500000000000006,0.0,0.0,0.0,0.7500000000000006,0.0,0.0,0.0,0.7500000000000006,0.0,0.0
213,-0.5,0.13999999999999985,0.3379999999999995,0.33914000194777966,0.33887004315045344,0.6202974532430737,0.6207916095069478,0.880144608505712,0,0.880144608505712,0,0.880144608505712,0,0.880144608505712,0,0,0,-0.5,2.2,-0.07438982377957754,-0.7031236327622332,0.07438982377957754,0.7032421100071633,0.0,0.7500000000000006,0.0,0.0,0.0,0.7500000000000006,0.0,0.0,0.0,0.7500000000000006,0.0,0.0
214,-0.5,0.13749999999999984,0.3299999999999995,0.33914000194777966,0.33887004315045344,0.6202974532430737,0.6207916095069478,0.880144608505712,0,0.880144608505712,0,0.880144608505712,0,0.880144608505712,0,0,0,-0.5,2.2,-0.07790479250123616,-0.7027400962432403,0.07790479250123628,0.7028641716169064,0.0,0.7500000000000006,0.0,0.0,0.0,0.7500000000000006,0.0,0.0,0.0,0.7500000000000006,0.0,0.0
215,-0.5,0.13499999999999984,0.3219999999999995,0.33914000194777966,0.33887004315045344,0.6202974532430737,0.6207916095069478,0.880144608505712,0,0.880144608505712,0,0.880144608505712,0,0.880144608505712,0,0,0,-0.5,2.2,-0.08141781360714,-0.7023389912584425,0.08141781360714,0.7024686616589665,0.0,0.7500000000000006,0.0,0.0,0.0,0.7500000000000006,0.0,0.0,0.0,0.7500000000000006,0.0,0.0
216,-0.5,0.13249999999999984,0.3139999999999995,0.33914000194777966,0.33887004315045344,0.6202974532430737,0.6207916095069478,0.880144608505712,0,0.880144608505712,0,0.880144608505712,0,0.880144608505712,0,0,0,-0.5,2.2,-0.08492879927194413,-0.7019203278354431,0.08492879927194419,0.7020555900210721,0.0,0.7500000000000006,0.0,0.0,0.0,0.7500000000000006,0.0,0.0,0.0,0.7500000000000006,0.0,0.0
217,-0.5,0.12999999999999984,0.3059999999999995,0.33914000194777966,0.33887004315045344,0.6202974532430737,0.6207916095069478,0.880144608505712,0,0.880144608505712,0,0.880144608505712,0,0.880144608505712,0,0,0,-0.5,2.2,-0.08843766172118982,-0.7014841164408064,0.08843766172118982,0.7016249670299924,0.0,0.7500000000000006,0.0,0.0,0.0,0.7500000000000006,0.0,0.0,0.0,0.7500000000000006,0.0,0.0
218,-0.5,0.12749999999999984,0.2979999999999995,0.33914000194777966,0.33887004315045344,0.6202974532430737,0.6207916095069478,0.880144608505712,0,0.880144608505712,0,0.880144608505712,0,0.880144608505712,0,0,0,-0.5,2.2,-0.09194431323349866,-0.7010303679797942,0.09194431323349861,0.70117680345128,0.0,0.7500000000000006,0.0,0.0,0.0,0.7500000000000006,0.0,0.0,0.0,0.7500000000000006,0.0,0.0
219,-0.5,0.12499999999999983,0.2899999999999995,0.33914000194777966,0.33887004315045344,0.6202974532430737,0.6207916095069478,0.880144608505712,0,0.880144608505712,0,0.880144608505712,0,0.880144608505712,0,0,0,-0.5,2.2,-0.09544866614276526,-0.7005590937960945,0.09544866614276531,0.7007111104890009,0.0,0.7500000000000006,0.0,0.0,0.0,0.7500000000000006,0.0,0.0,0.0,0.7500000000000006,0.0,0.0
220,-0.5,0.12249999999999983,0.2819999999999995,0.33914000194777966,0.33887004315045344,0.6202974532430737,0.6207916095069478,0.880144608505712,0,0.880144608505712,0,0.880144608505712,0,0.880144608505712,0,0,0,-0.5,2.2,-0.09895063284034977,-0.7000703056715373,0.09895063284034977,0.7002278997854549,0.0,0.7500000000000006,0.0,0.0,0.0,0.7500000000000006,0.0,0.0,0.0,0.7500000000000006,0.0,0.0
221,-0.5,0.11999999999999983,0.27399999999999947,0.33914000194777966,0.33887004315045344,0.6202974532430737,0.6207916095069478,0.880144608505712,0,0.880144608505712,0,0.880144608505712,0,0.880144608505712,0,0,0,-0.5,2.2,-0.10245012577726681,-0.6995640158258003,0.10245012577726681,0.6997271834208845,0.0,0.7500000000000006,0.0,0.0,0.0,0.7500000000000006,0.0,0.0,0.0,0.7500000000000006,0.0,0.0
222,-0.5,0.11749999999999983,0.26599999999999946,0.33914000194777966,0.33887004315045344,0.6202974532430737,0.6207916095069478,0.880144608505712,0,0.880144608505712,0,0.880144608505712,0,0.880144608505712,0,0,0,-0.5,2.2,-0.10594705746637534,-0.6990402369161033,0.1059470574663754,0.6992089739131725,0.0,0.7500000000000006,0.0,0.0,0.0,0.7500000000000006,0.0,0.0,0.0,0.7500000000000006,0.0,0.0
223,-0.5,0.11499999999999982,0.25799999999999945,0.33914000194777966,0.33887004315045344,0.6202974532430737,0.6207916095069478,0.880144608505712,0,0.880144608505712,0,0.880144608505712,0,0.880144608505712,0,0,0,-0.5,2.2,-0.1094413404845653,-0.6984989820368915,0.10944134048456536,0.6986732842175298,0.0,0.7500000000000006,0.0,0.0,0.0,0.7500000000000006,0.0,0.0,0.0,0.7500000000000006,0.0,0.0
224,-0.5,0.11249999999999982,0.24999999999999944,0.33914000194777966,0.33887004315045344,0.6202974532430737,0.6207916095069478,0.880144608505712,0,0.880144608505712,0,0.880144608505712,0,0.880144608505712,0,0,0,-0.5,2.2,-0.11293288747494323,-0.697940264719509,0.11293288747494329,0.698120127726171,0.0,0.7500000000000006,0.0,0.0,0.0,0.7500000000000006,0.0,0.0,0.0,0.7500000000000006,0.0,0.0
225,-0.5,0.10999999999999982,0.24199999999999944,0.33914000194777966,0.33887004315045344,0.6202974532430737,0.6207916095069478,0.880144608505712,0,0.880144608505712,0,0.880144608505712,0,0.880144608505712,0,0,0,-0.5,2.2,-0.11642161114901634,-0.6973640989318597,0.11642161114901628,0.6975495182679794,0.0,0.7500000000000006,0.0,0.0,0.0,0.7500000000000006,0.0,0.0,0.0,0.7500000000000006,0.0,0.0
226,-0.5,0.10749999999999982,0.23399999999999943,0.33914000194777966,0.33887004315045344,0.6202974532430737,0.6207916095069478,0.880144608505712,0,0.880144608505712,0,0.880144608505712,0,0.880144608505712,0,0,0,-0.5,2.2,-0.11990742428887419,-0.6967704990780579,0.11990742428887419,0.6969614701081617,0.0,0.7500000000000006,0.0,0.0,0.0,0.7500000000000006,0.0,0.0,0.0,0.7500000000000006,0.0,0.0
227,-0.5,0.10499999999999982,0.22599999999999942,0.33914000194777966,0.33887004315045344,0.6202974532430737,0.6207916095069478,0.880144608505712,0,0.880144608505712,0,0.880144608505712,0,0.880144608505712,0,0,0,-0.5,2.2,-0.12339023974937008,-0.6961594799980694,0.12339023974937008,0.6963559979478914,0.0,0.7500000000000006,0.0,0.0,0.0,0.7500000000000006,0.0,0.0,0.0,0.7500000000000006,0.0,0.0
228,-0.5,0.10249999999999981,0.21799999999999942,0.33914000194777966,0.33887004315045344,0.6202974532430737,0.6207916095069478,0.880144608505712,0,0.880144608505712,0,0.880144608505712,0,0.880144608505712,0,0,0,-0.5,2.2,-0.12686997046029874,-0.6955310569673392,0.12686997046029874,0.6957331169239409,0.0,0.7500000000000006,0.0,0.0,0.0,0.7500000000000006,0.0,0.0,0.0,0.7500000000000006,0.0,0.0
229,-0.5,0.09999999999999981,0.2099999999999994,0.33914000194777966,0.33887004315045344,0.6202974532430737,0.6207916095069478,0.880144608505712,0,0.880144608505712,0,0.880144608505712,0,0.880144608505712,0,0,0,-0.5,2.2,-0.13034652942857367,-0.6948852456964103,0.13034652942857372,0.6950928426083034,0.0,0.7500000000000006,0.0,0.0,0.0,0.7500000000000006,0.0,0.0,0.0,0.7500000000000006,0.0,0.0
230,-0.5,0.09749999999999981,0.2019999999999994,0.33914000194777966,0.33887004315045344,0.6202974532430737,0.6207916095069478,0.880144608505712,0,0.880144608505712,0,0.880144608505712,0,0.880144608505712,0,0,0,-0.5,2.2,-0.13381982974040185,-0.6942220623305309,0.13381982974040185,0.6944351910078034,0.0,0.7500000000000006,0.0,0.0,0.0,0.7500000000000006,0.0,0.0,0.0,0.7500000000000006,0.0,0.0
231,-0.5,0.0949999999999998,0.1939999999999994,0.33914000194777966,0.33887004315045344,0.6202974532430737,0.6207916095069478,0.880144608505712,0,0.880144608505712,0,0.880144608505712,0,0.880144608505712,0,0,0,-0.5,2.2,-0.13728978456345625,-0.6935415234492506,0.13728978456345625,0.6937601785636967,0.0,0.7500000000000006,0.0,0.0,0.0,0.7500000000000006,0.0,0.0,0.0,0.7500000000000006,0.0,0.0
232,-0.5,0.0924999999999998,0.1859999999999994,0.33914000194777966,0.33887004315045344,0.6202974532430737,0.6207916095069478,0.880144608505712,0,0.880144608505712,0,0.880144608505712,0,0.880144608505712,0,0,0,-0.5,2.2,-0.1407563071490471,-0.692843646066006,0.1407563071490471,0.6930678221512591,0.0,0.7500000000000006,0.0,0.0,0.0,0.7500000000000006,0.0,0.0,0.0,0.7500000000000006,0.0,0.0
233,-0.5,0.0899999999999998,0.17799999999999938,0.33914000194777966,0.33887004315045344,0.6202974532430737,0.6207916095069478,0.880144608505712,0,0.880144608505712,0,0.880144608505712,0,0.880144608505712,0,0,0,-0.5,2.2,-0.14421931083429018,-0.6921284476276954,0.14421931083429018,0.692358139079365,0.0,0.7500000000000006,0.0,0.0,0.0,0.7500000000000006,0.0,0.0,0.0,0.7500000000000006,0.0,0.0
234,-0.5,0.0874999999999998,0.16999999999999937,0.33914000194777966,0.33887004315045344,0.6202974532430737,0.6207916095069478,0.880144608505712,0,0.880144608505712,0,0.880144608505712,0,0.880144608505712,0,0,0,-0.5,2.2,-0.14767870904427388,-0.6913959460142425,0.14767870904427388,0.6916311470900542,0.0,0.7500000000000006,0.0,0.0,0.0,0.7500000000000006,0.0,0.0,0.0,0.7500000000000006,0.0,0.0
235,-0.5,0.0849999999999998,0.16199999999999937,0.33914000194777966,0.33887004315045344,0.6202974532430737,0.6207916095069478,0.880144608505712,0,0.880144608505712,0,0.880144608505712,0,0.880144608505712,0,0,0,-0.5,2.2,-0.151134415294223,-0.6906461595381492,0.151134415294223,0.6908868643580888,0.0,0.7500000000000006,0.0,0.0,0.0,0.7500000000000006,0.0,0.0,0.0,0.7500000000000006,0.0,0.0
236,-0.5,0.0824999999999998,0.15399999999999936,0.33914000194777966,0.33887004315045344,0.6202974532430737,0.6207916095069478,0.880144608505712,0,0.880144608505712,0,0.880144608505712,0,0.880144608505712,0,0,0,-0.5,2.2,-0.1545863431916615,-0.6898791069440386,0.15458634319166145,0.6901253094904979,0.0,0.7500000000000006,0.0,0.0,0.0,0.7500000000000006,0.0,0.0,0.0,0.7500000000000006,0.0,0.0
237,-0.5,0.0799999999999998,0.14599999999999935,0.33914000194777966,0.33887004315045344,0.6202974532430737,0.6207916095069478,0.880144608505712,0,0.880144608505712,0,0.880144608505712,0,0.880144608505712,0,0,0,-0.5,2.2,-0.15803440643857147,-0.6890948074081857,0.15803440643857142,0.6893465015261138,0.0,0.7500000000000006,0.0,0.0,0.0,0.7500000000000006,0.0,0.0,0.0,0.7500000000000006,0.0,0.0
238,-0.5,0.07749999999999979,0.13799999999999935,0.33914000194777966,0.33887004315045344,0.6202974532430737,0.6207916095069478,0.880144608505712,0,0.880144608505712,0,0.880144608505712,0,0.880144608505712,0,0,0,-0.5,2.2,-0.16147851883355135,-0.688293280538038,0.16147851883355135,0.6885504599350949,0.0,0.7500000000000006,0.0,0.0,0.0,0.7500000000000006,0.0,0.0,0.0,0.7500000000000006,0.0,0.0
239,-0.5,0.07499999999999979,0.12999999999999934,0.33914000194777966,0.33887004315045344,0.6202974532430737,0.6207916095069478,0.880144608505712,0,0.880144608505712,0,0.880144608505712,0,0.880144608505712,0,0,0,-0.5,2.2,-0.16491859427397096,-0.6874745463717252,0.1649185942739709,0.6877372046184397,0.0,0.7500000000000006,0.0,0.0,0.0,0.7500000000000006,0.0,0.0,0.0,0.7500000000000006,0.0,0.0
240,-0.5,0.07249999999999979,0.12199999999999933,0.33914000194777966,0.33887004315045344,0.6202974532430737,0.6207916095069478,0.880144608505712,0,0.880144608505712,0,0.880144608505712,0,0.880144608505712,0,0,0,-0.5,2.2,-0.168354546758123,-0.6866386253775592,0.168354546758123,0.6869067559074885,0.0,0.7500000000000006,0.0,0.0,0.0,0.7500000000000006,0.0,0.0,0.0,0.7500000000000006,0.0,0.0
241,-0.5,0.06999999999999978,0.11399999999999932,0.33914000194777966,0.33887004315045344,0.6202974532430737,0.6207916095069478,0.880144608505712,0,0.880144608505712,0,0.880144608505712,0,0.880144608505712,0,0,0,-0.5,2.2,-0.1717862903873747,-0.685785538453521,0.17178629038737459,0.6860591345634162,0.0,0.7500000000000006,0.0,0.0,0.0,0.7500000000000006,0.0,0.0,0.0,0.7500000000000006,0.0,0.0
242,-0.5,0.06749999999999978,0.10599999999999932,0.33914000194777966,0.33887004315045344,0.6202974532430737,0.6207916095069478,0.880144608505712,0,0.880144608505712,0,0.880144608505712,0,0.880144608505712,0,0,0,-0.5,2.2,-0.1752137393683138,-0.6849153069267395,0.17521373936831375,0.6851943617767118,0.0,0.7500000000000006,0.0,0.0,0.0,0.7500000000000006,0.0,0.0,0.0,0.7500000000000006,0.0,0.0
243,-0.5,0.06499999999999978,0.09799999999999931,0.33914000194777966,0.33887004315045344,0.6202974532430737,0.6207916095069478,0.880144608505712,0,0.880144608505712,0,0.880144608505712,0,0.880144608505712,0,0,0,-0.5,2.2,-0.1786368080148944,-0.6840279525529576,0.17863680801489434,0.6843124591666503,0.0,0.7500000000000006,0.0,0.0,0.0,0.7500000000000006,0.0,0.0,0.0,0.7500000000000006,0.0,0.0
244,-0.5,0.06249999999999978,0.0899999999999993,0.33914000194777966,0.33887004315045344,0.6202974532430737,0.6207916095069478,0.880144608505712,0,0.880144608505712,0,0.880144608505712,0,0.880144608505712,0,0,0,-0.5,2.2,-0.18205541075057863,-0.6831234975159881,0.18205541075057863,0.6834134487807508,0.0,0.7500000000000006,0.0,0.0,0.0,0.7500000000000006,0.0,0.0,0.0,0.7500000000000006,0.0,0.0
245,-0.5,0.059999999999999776,0.0819999999999993,0.33914000194777966,0.33887004315045344,0.6202974532430737,0.6207916095069478,0.880144608505712,0,0.880144608505712,0,0.880144608505712,0,0.880144608505712,0,0,0,-0.5,2.2,-0.18546946211047613,-0.6822019644271602,0.18546946211047619,0.6824973530942264,0.0,0.7500000000000006,0.0,0.0,0.0,0.7500000000000006,0.0,0.0,0.0,0.7500000000000006,0.0,0.0
246,-0.5,0.057499999999999774,0.07399999999999929,0.33914000194777966,0.33887004315045344,0.6202974532430737,0.6207916095069478,0.880144608505712,0,0.880144608505712,0,0.880144608505712,0,0.880144608505712,0,0,0,-0.5,2.2,-0.18887887674348078,-0.6812633763247529,0.18887887674348078,0.6815641950094212,0.0,0.7500000000000006,0.0,0.0,0.0,0.7500000000000006,0.0,0.0,0.0,0.7500000000000006,0.0,0.0
247,-0.5,0.05499999999999977,0.06599999999999928,0.33914000194777966,0.33887004315045344,0.6202974532430737,0.6207916095069478,0.880144608505712,0,0.880144608505712,0,0.880144608505712,0,0.880144608505712,0,0,0,-0.5,2.2,-0.19228356941440433,-0.6803077566734199,0.19228356941440428,0.6806139978552388,0.0,0.7500000000000006,0.0,0.0,0.0,0.7500000000000006,0.0,0.0,0.0,0.7500000000000006,0.0,0.0
248,-0.5,0.05249999999999977,0.05799999999999928,0.33914000194777966,0.33887004315045344,0.6202974532430737,0.6207916095069478,0.880144608505712,0,0.880144608505712,0,0.880144608505712,0,0.880144608505712,0,0,0,-0.5,2.2,-0.19568345500610715,-0.6793351293636026,0.19568345500610715,0.6796467853865588,0.0,0.7500000000000006,0.0,0.0,0.0,0.7500000000000006,0.0,0.0,0.0,0.7500000000000006,0.0,0.0
249,-0.5,0.04999999999999977,0.04999999999999928,0.33914000194777966,0.33887004315045344,0.6202974532430737,0.6207916095069478,0.880144608505712,0,0.880144608505712,0,0.880144608505712,0,0.880144608505712,0,0,0,-0.5,2.2,-0.19907844852162676,-0.6783455187109334,0.19907844852162673,0.6786625817836422,0.0,0.7500000000000006,0.0,0.0,0.0,0.7500000000000006,0.0,0.0,0.0,0.7500000000000006,0.0,0.0
250,-0.5,0.047499999999999765,0.04199999999999928,0.33914000194777966,0.33887004315045344,0.6202974532430737,0.6207916095069478,0.880144608505712,0,0.880144608505712,0,0.880144608505712,0,0.880144608505712,0,0,0,-0.5,2.2,-0.20246846508630187,-0.6773389494556268,0.2024684650863019,0.677661411651528,0.0,0.7500000000000006,0.0,0.0,0.0,0.7500000000000006,0.0,0.0,0.0,0.7500000000000006,0.0,0.0
251,-0.5,0.04499999999999976,0.03399999999999928,0.33914000194777966,0.33887004315045344,0.6202974532430737,0.6207916095069478,0.880144608505712,0,0.880144608505712,0,0.880144608505712,0,0.880144608505712,0,0,0,-0.5,2.2,-0.20585341994989514,-0.676315446761862,0.2058534199498951,0.6766433000194174,0.0,0.7500000000000006,0.0,0.0,0.0,0.7500000000000006,0.0,0.0,0.0,0.7500000000000006,0.0,0.0
252,-0.5,0.04249999999999976,0.02599999999999928,0.33914000194777966,0.33887004315045344,0.6202974532430737,0.6207916095069478,0.880144608505712,0,0.880144608505712,0,0.880144608505712,0,0.880144608505712,0,0,0,-0.5,2.2,-0.20923322848871112,-0.6752750362171527,0.20923322848871115,0.6756082723400483,0.0,0.7500000000000006,0.0,0.0,0.0,0.7500000000000006,0.0,0.0,0.0,0.7500000000000006,0.0,0.0
253,-0.5,0.03999999999999976,0.01799999999999928,0.33914000194777966,0.33887004315045344,0.6202974532430737,0.6207916095069478,0.880144608505712,0,0.880144608505712,0,0.880144608505712,0,0.880144608505712,0,0,0,-0.5,2.2,-0.21260780620771252,-0.6742177438317085,0.21260780620771255,0.6745563544890585,0.0,0.7500000000000006,0.0,0.0,0.0,0.7500000000000006,0.0,0.0,0.0,0.7500000000000006,0.0,0.0
254,-0.5,0.037499999999999756,0.00999999999999928,0.33914000194777966,0.33887004315045344,0.6202974532430737,0.6207916095069478,0.880144608505712,0,0.880144608505712,0,0.880144608505712,0,0.880144608505712,0,0,0,-0.5,2.2,-0.21597706874263198,-0.6731435960377841,0.21597706874263198,0.6734875727643395,0.0,0.7500000000000006,0.0,0.0,0.0,0.7500000000000006,0.0,0.0,0.0,0.7500000000000006,0.0,0.0
255,-0.5,0.034999999999999754,0.00199999999999928,0.33914000194777966,0.33887004315045344,0.6202974532430737,0.6207916095069478,0.880144608505712,0,0.880144608505712,0,0.880144608505712,0,0.880144608505712,0,0,0,-0.5,2.2,-0.21934093186208173,-0.6720526196890183,0.21934093186208176,0.6724019538853788,0.0,0.7500000000000006,0.0,0.0,0.0,0.7500000000000006,0.0,0.0,0.0,0.7500000000000006,0.0,0.0
256,-0.5,0.03249999999999975,-0.00600000000000072,0.33914000194777966,0.33887004315045344,0.6202974532430737,0.6207916095069478,0.880144608505712,0,0.880144608505712,0,0.880144608505712,0,0.880144608505712,0,0,0,-0.5,2.2,-0.22269931146965888,-0.6709448420597629,0.22269931146965885,0.6712995249925919,0.0,0.7500000000000006,0.0,0.0,0.0,0.7500000000000006,0.0,0.0,0.0,0.7500000000000006,0.0,0.0
257,-0.5,0.029999999999999753,-0.01400000000000072,0.33914000194777966,0.33887004315045344,0.6202974532430737,0.6207916095069478,0.880144608505712,0,0.880144608505712,0,0.880144608505712,0,0.880144608505712,0,0,0,-0.5,2.2,-0.2260521236060483,-0.6698202908444011,0.2260521236060482,0.6701803136466438,0.0,0.7500000000000006,0.0,0.0,0.0,0.7500000000000006,0.0,0.0,0.0,0.7500000000000006,0.0,0.0
258,-0.5,0.027499999999999754,-0.02200000000000072,0.33914000194777966,0.33887004315045344,0.6202974532430737,0.6207916095069478,0.880144608505712,0,0.880144608505712,0,0.880144608505712,0,0.880144608505712,0,0,0,-0.5,2.2,-0.22939928445112096,-0.6686789941566545,0.22939928445112098,0.6690443478277597,0.0,0.7500000000000006,0.0,0.0,0.0,0.7500000000000006,0.0,0.0,0.0,0.7500000000000006,0.0,0.0
259,-0.5,0.024999999999999755,-0.03000000000000072,0.33914000194777966,0.33887004315045344,0.6202974532430737,0.6207916095069478,0.880144608505712,0,0.880144608505712,0,0.880144608505712,0,0.880144608505712,0,0,0,-0.5,2.2,-0.23274071032603025,-0.6675209805288812,0.23274071032603025,0.6678916559350259,0.0,0.7500000000000006,0.0,0.0,0.0,0.7500000000000006,0.0,0.0,0.0,0.7500000000000006,0.0,0.0
260,-0.5,0.022499999999999756,-0.03800000000000072,0.33914000194777966,0.33887004315045344,0.6202974532430737,0.6207916095069478,0.880144608505712,0,0.880144608505712,0,0.880144608505712,0,0.880144608505712,0,0,0,-0.5,2.2,-0.23607631769530335,-0.6663462789113612,0.23607631769530327,0.6667222667856796,0.0,0.7500000000000006,0.0,0.0,0.0,0.7500000000000006,0.0,0.0,0.0,0.7500000000000006,0.0,0.0
261,-0.5,0.019999999999999758,-0.04600000000000072,0.33914000194777966,0.33887004315045344,0.6202974532430737,0.6207916095069478,0.880144608505712,0,0.880144608505712,0,0.880144608505712,0,0.880144608505712,0,0,0,-0.5,2.2,-0.23940602316892962,-0.665154918671574,0.2394060231689296,0.6655362096143889,0.0,0.7500000000000006,0.0,0.0,0.0,0.7500000000000006,0.0,0.0,0.0,0.7500000000000006,0.0,0.0
262,-0.5,0.01749999999999976,-0.05400000000000072,0.33914000194777966,0.33887004315045344,0.6202974532430737,0.6207916095069478,0.880144608505712,0,0.880144608505712,0,0.880144608505712,0,0.880144608505712,0,0,0,-0.5,2.2,-0.24272974350444573,-0.6639469295934634,0.24272974350444576,0.6643335140725211,0.0,0.7500000000000006,0.0,0.0,0.0,0.7500000000000006,0.0,0.0,0.0,0.7500000000000006,0.0,0.0
263,-0.5,0.014999999999999758,-0.06200000000000072,0.33914000194777966,0.33887004315045344,0.6202974532430737,0.6207916095069478,0.880144608505712,0,0.880144608505712,0,0.880144608505712,0,0.880144608505712,0,0,0,-0.5,2.2,-0.2460473956090165,-0.6627223418766937,0.24604739560901645,0.6631142102274021,0.0,0.7500000000000006,0.0,0.0,0.0,0.7500000000000006,0.0,0.0,0.0,0.7500000000000006,0.0,0.0
264,-0.5,0.012499999999999758,-0.07000000000000073,0.33914000194777966,0.33887004315045344,0.6202974532430737,0.6207916095069478,0.880144608505712,0,0.880144608505712,0,0.880144608505712,0,0.880144608505712,0,0,0,-0.5,2.2,-0.24935889654151192,-0.6614811861358935,0.24935889654151192,0.6618783285615647,0.0,0.7500000000000006,0.0,0.0,0.0,0.7500000000000006,0.0,0.0,0.0,0.7500000000000006,0.0,0.0
265,-0.5,0.009999999999999757,-0.07800000000000074,0.33914000194777966,0.33887004315045344,0.6202974532430737,0.6207916095069478,0.880144608505712,0,0.880144608505712,0,0.880144608505712,0,0.880144608505712,0,0,0,-0.5,2.2,-0.2526641635145812,-0.6602234933998923,0.25266416351458115,0.6606258999719861,0.0,0.7500000000000006,0.0,0.0,0.0,0.7500000000000006,0.0,0.0,0.0,0.7500000000000006,0.0,0.0
