yifeidong0/3D-Soft-Fixture/results/4blender/ShovelFish_17-05-2023-15-46-51_dynamics/data.csv
index,obj_pos_x,obj_pos_y,obj_pos_z,obj_qtn_x,obj_qtn_y,obj_qtn_z,obj_qtn_w,obj_joint_0_pos,obj_joint_1_pos,obj_joint_2_pos,obj_joint_3_pos,obj_joint_4_pos,obj_joint_5_pos,obj_joint_6_pos,obj_joint_7_pos,obj_joint_8_pos,obs_pos_x,obs_pos_y,obs_pos_z,obs_qtn_x,obs_qtn_y,obs_qtn_z,obs_qtn_w
0,0.0,-1.3,1.7,-0.0007956920697244818,0.0007969603417828076,-0.0007956920697244819,0.9999990493007851,0.0,0.0,0.0,0.0,0.0,0.0,0.0,0.0,0.0,0,5.9999,1.75,-3.9799747470500266e-05,-0.04997915342387482,0.9987499437230536,0.0007953315097043137
100,-0.04088719328400183,-1.289414732793332,1.2534514866593403,-0.24046556547656198,-0.0993446531955905,-0.03142735685299329,0.965048844848135,0.4136621500115515,0.2125806750657123,0.014276529483537484,-0.005549034316692781,-0.07745692270903407,-0.11248250649992841,0.06671545566441126,0.15001370572113895,0.100000546709841,0,5.9899000000000235,1.75,-3.9799747470500266e-05,-0.04997915342387482,0.9987499437230536,0.0007953315097043137
200,-0.02098312308745594,-1.3008063574545852,1.2358111344792142,-0.21870268809944376,-0.06204896774136752,-0.01953958389223514,0.9736206984661051,0.42807442856310873,0.16491067809200724,-0.023123678715666427,-0.008033885904420182,-0.05160704231269004,-0.1065847323112877,0.05732429296630737,0.1500696293716829,0.10000159526600208,0,5.979900000000047,1.75,-3.9799747470500266e-05,-0.04997915342387482,0.9987499437230536,0.0007953315097043137
300,-0.02123130877598872,-1.3018566586839062,1.2362251717919184,-0.21971847326498128,-0.06243684051016316,-0.019721660090580604,0.9733634930366383,0.4296338021871382,0.165479733143721,-0.02292620217481958,-0.00939644862396425,-0.05261510080870999,-0.10087536595976672,0.05851610552421552,0.1500004645517135,0.10000087097515489,0,5.96990000000007,1.75,-3.9799747470500266e-05,-0.04997915342387482,0.9987499437230536,0.0007953315097043137
400,-0.020556051948485525,-1.3027946420799923,1.2383702730393678,-0.22128044544984432,-0.0599853923329192,-0.019191376761185014,0.973174397642167,0.43125427033081154,0.1662732715663973,-0.022776970226211845,-0.010363808135646998,-0.052814964328688936,-0.09642091375982247,0.05907582678209541,0.1500004796389799,0.09999957676435643,0,5.9599000000000935,1.75,-3.9799747470500266e-05,-0.04997915342387482,0.9987499437230536,0.0007953315097043137
500,-0.023435655894641458,-1.3037560920872815,1.233276273321747,-0.22403556060631744,-0.06840735557498177,-0.021999910560914795,0.9719282407782803,0.4444610317236989,0.16173085527396197,-0.022537906517926608,-0.009237309122237223,-0.05970942540226388,-0.09395002539697574,0.06020271471905876,0.15000066105616328,0.09994798902712333,0,5.949900000000117,1.75,-3.9799747470500266e-05,-0.04997915342387482,0.9987499437230536,0.0007953315097043137
600,-0.02333615802126968,-1.306515115771193,1.2347333186663938,-0.2253533869335464,-0.06661873423731304,-0.02186143760916031,0.9717509314592183,0.4464253272487446,0.16143184532918683,-0.022114223660319867,-0.009173360302090504,-0.0619200378203243,-0.08791564710982218,0.06086386003440145,0.15000028081845748,0.0998901852109121,0,5.93990000000014,1.75,-3.9799747470500266e-05,-0.04997915342387482,0.9987499437230536,0.0007953315097043137
700,-0.024153892696618547,-1.3084512344481691,1.237651246949506,-0.22838311201620776,-0.06341122372635462,-0.02182030253401208,0.9712590000863017,0.4510726379099392,0.1616391704937686,-0.021955062270919718,-0.009065333122419802,-0.06230049750757948,-0.08446317562854584,0.061221411069951395,0.15000092363067516,0.09989927887885934,0,5.929900000000163,1.75,-3.9799747470500266e-05,-0.04997915342387482,0.9987499437230536,0.0007953315097043137
800,-0.02508235841766962,-1.3100388363355928,1.2409374073125978,-0.23141526537014798,-0.059065300713012615,-0.02163060482760256,0.9708194384849005,0.45591170327921804,0.1616912034452358,-0.021914436334565583,-0.009384288342072795,-0.06199062477228852,-0.08194378264677461,0.06109356566049796,0.15000084881862982,0.09980365839963416,0,5.919900000000187,1.75,-3.9799747470500266e-05,-0.04997915342387482,0.9987499437230536,0.0007953315097043137
900,-0.02561409881620434,-1.312316434211311,1.2429398465495975,-0.2348598490606843,-0.05711253419654141,-0.021838879786544762,0.9701041557825172,0.46301131621290553,0.16177415215231977,-0.023202573777365624,-0.009980337215663476,-0.061857094490462915,-0.07750470406317664,0.06108317836701996,0.1500000191942054,0.09980153688836087,0,5.90990000000021,1.75,-3.9799747470500266e-05,-0.04997915342387482,0.9987499437230536,0.0007953315097043137
1000,-0.02559117027781011,-1.3148103881085695,1.2445089275980021,-0.23804587352559103,-0.056244909722461524,-0.021843321479736943,0.9693779147135978,0.4694929581036434,0.16193118701992723,-0.023769121870324483,-0.010926489879166522,-0.06249395318575835,-0.07206497478113905,0.06149413678360563,0.1500103227658898,0.09986123091241622,0,5.899900000000233,1.75,-3.9799747470500266e-05,-0.04997915342387482,0.9987499437230536,0.0007953315097043137
1100,-0.02713664417908594,-1.3153534516650618,1.2434684650141568,-0.23816260190969116,-0.05833080238046263,-0.022749669176810493,0.9692051099213226,0.4702479726081183,0.16217537988611577,-0.02358941342172594,-0.011004309916173367,-0.06294522131888398,-0.07361181119859887,0.06494215691592617,0.15001907979567997,0.10000128247178915,0,5.889900000000257,1.75,-3.9799747470500266e-05,-0.04997915342387482,0.9987499437230536,0.0007953315097043137
1200,-0.028267201075284267,-1.316438193055306,1.2442099403208704,-0.23929731913166205,-0.058197091285587456,-0.023155868484535946,0.9689239894733865,0.47168924637657833,0.16262158633398038,-0.0231527337398452,-0.010645886584212411,-0.06337174158944123,-0.07355987411272395,0.0682848888018118,0.1500510116269166,0.09999993531712215,0,5.87990000000028,1.75,-3.9799747470500266e-05,-0.04997915342387482,0.9987499437230536,0.0007953315097043137
1300,-0.028804020993116235,-1.318313224453233,1.2460653122051617,-0.24191530967603414,-0.05655105612161135,-0.02324750935310354,0.9683689969762334,0.4763404799208145,0.1628896192520893,-0.023283451191031958,-0.010915382526251355,-0.06281262446886857,-0.07251125659229221,0.07110580565923087,0.15000113536837595,0.10000040272743843,0,5.869900000000303,1.75,-3.9799747470500266e-05,-0.04997915342387482,0.9987499437230536,0.0007953315097043137
1400,-0.029495282768870153,-1.32038794494961,1.2475051867401838,-0.24472910269708986,-0.0555449571740615,-0.023587357961952677,0.9677117652328009,0.48199939671255143,0.16307890404435474,-0.023924663911022763,-0.010921571739641037,-0.06239643154189071,-0.07193937814620978,0.07436205675819746,0.1500009250332729,0.09999982117419823,0,5.8599000000003265,1.75,-3.9799747470500266e-05,-0.04997915342387482,0.9987499437230536,0.0007953315097043137
1500,-0.03061937894620214,-1.3225917780121952,1.2486178599187636,-0.2474489460656943,-0.05526376831166706,-0.0241976557434033,0.9670208934968754,0.48742228257651116,0.16323158328123194,-0.0239965324577696,-0.010919775095208703,-0.06235261927136509,-0.07187552085251064,0.07835069379324913,0.15000063010447534,0.09999776883568214,0,5.84990000000035,1.75,-3.9799747470500266e-05,-0.04997915342387482,0.9987499437230536,0.0007953315097043137
1600,-0.03153242019211831,-1.3248009193497883,1.2498615407739693,-0.2502639580198094,-0.054723603738938614,-0.024712822084610866,0.9663139008286578,0.4930750551763085,0.16338531732105366,-0.02427034623220768,-0.010916563428963317,-0.0621791661944275,-0.07163448360713764,0.08207662612705073,0.15000181278796787,0.09998880869980413,0,5.839900000000373,1.75,-3.9799747470500266e-05,-0.04997915342387482,0.9987499437230536,0.0007953315097043137
1700,-0.033770734702508846,-1.3271088858787965,1.2497391358914494,-0.2524740465216189,-0.056587482948878456,-0.026041181279845733,0.9655964837778046,0.4978349011908881,0.16372196563529737,-0.023900219980209587,-0.010876822686016644,-0.06277819702068634,-0.07310364645921087,0.08901801912593402,0.1500006810815277,0.09887659711795616,0,5.829900000000396,1.75,-3.9799747470500266e-05,-0.04997915342387482,0.9987499437230536,0.0007953315097043137
1800,-0.03412636173846051,-1.3285888969021962,1.252072425370048,-0.25452457424682673,-0.05429674540789788,-0.02586118891265774,0.9651944381577244,0.5001179908102006,0.16505506987616073,-0.02431397425846805,-0.01072443884459765,-0.0625432961614294,-0.07138098271236938,0.0912357807321712,0.14998283948223573,0.0989232708287271,0,5.81990000000042,1.75,-3.9799747470500266e-05,-0.04997915342387482,0.9987499437230536,0.0007953315097043137
1900,-0.034261241768200126,-1.3292546093513604,1.2536179045427078,-0.25538067026427286,-0.05278856523501093,-0.025627572329239744,0.9650581890084707,0.5000723674208698,0.16701277144257168,-0.025448115571861305,-0.010635561155465304,-0.06197506004142352,-0.07031286203763731,0.09494863539464804,0.150011954809019,0.09896716547467856,0,5.809900000000443,1.75,-3.9799747470500266e-05,-0.04997915342387482,0.9987499437230536,0.0007953315097043137
2000,-0.034254586295175644,-1.3301881174181729,1.256086185865347,-0.25670063792433484,-0.05021472506346257,-0.02514853759380105,0.9648579247396653,0.5000733711608424,0.16999449096745703,-0.027414771831726567,-0.010087943440765792,-0.061767005256312055,-0.06808491736235171,0.0970833604579821,0.15000302801140486,0.09901366614789654,0,5.799900000000466,1.75,-3.9799747470500266e-05,-0.04997915342387482,0.9987499437230536,0.0007953315097043137
2100,-0.03410354944624938,-1.3309833748306699,1.2583992350261577,-0.2579034024317976,-0.047710176389930026,-0.024651006020250145,0.964677097263708,0.5000747436335311,0.17273882160282378,-0.029333442389512413,-0.009787921983975894,-0.06109452040527224,-0.06615196524757705,0.0994272052109134,0.15000310991140237,0.09907933110043864,0,5.78990000000049,1.75,-3.9799747470500266e-05,-0.04997915342387482,0.9987499437230536,0.0007953315097043137
2200,-0.03424237703354808,-1.331750891027019,1.259984809480055,-0.2588404201323269,-0.04628488255750938,-0.024436664471773246,0.9645010088029209,0.5000728651591886,0.17481849155850557,-0.030407440408889184,-0.009479576144227196,-0.06100126068311791,-0.06492312223665696,0.10326957320403021,0.15002212288910313,0.09916289169269749,0,5.779900000000513,1.75,-3.9799747470500266e-05,-0.04997915342387482,0.9987499437230536,0.0007953315097043137
2300,-0.03435937811290832,-1.3325307706640863,1.261577000595547,-0.25978541836790664,-0.0448662212080168,-0.02421555978195949,0.9643195348339529,0.5000734117766695,0.17691264818591482,-0.03147373494843304,-0.009174044162188456,-0.060910129868066605,-0.06369904749033126,0.10717625277816076,0.150000497246523,0.09928665521221296,0,5.769900000000536,1.75,-3.9799747470500266e-05,-0.04997915342387482,0.9987499437230536,0.0007953315097043137
2400,-0.034471900255639,-1.3333136545752595,1.2631205919923305,-0.26071693233110166,-0.04352746138596028,-0.024008272472128656,0.9641346607990284,0.5000780675808393,0.17897091526018122,-0.03248108156876759,-0.008979533843630315,-0.06062991078924675,-0.06264781619320774,0.11122649959040441,0.15000198716116342,0.09938790775457235,0,5.75990000000056,1.75,-3.9799747470500266e-05,-0.04997915342387482,0.9987499437230536,0.0007953315097043137
2500,-0.035112264216649924,-1.3345326065317338,1.2641606886718626,-0.2616916277703803,-0.04356588524527532,-0.024242604005535903,0.9638629579710567,0.5000435855152551,0.18100439542134727,-0.032403227073915034,-0.009055430407408391,-0.06052733769392364,-0.06279633479974588,0.116572923165912,0.14999863640930433,0.09941018894919514,0,5.749900000000583,1.75,-3.9799747470500266e-05,-0.04997915342387482,0.9987499437230536,0.0007953315097043137
2600,-0.03513941426899252,-1.3349652774478185,1.2645245001882686,-0.26204067330546377,-0.04360483104777431,-0.024278788284483876,0.9637654510732119,0.5000498229969352,0.18171930804789801,-0.03237022635963644,-0.009061508818548062,-0.06053538923725042,-0.06283702520890838,0.12197078308806124,0.14998497245755218,0.09941067806164318,0,5.739900000000606,1.75,-3.9799747470500266e-05,-0.04997915342387482,0.9987499437230536,0.0007953315097043137
2700,-0.03519281889215029,-1.3357789140182361,1.2651893238752596,-0.26268656044207056,-0.04368830355393334,-0.024352637760787568,0.9635839621588695,0.5000703549130492,0.18302575178318198,-0.03228760662703935,-0.009076620322946215,-0.060560445759222994,-0.06292104149124074,0.12727986557542284,0.1499677519661719,0.0994107447402677,0,5.7299000000006295,1.75,-3.9799747470500266e-05,-0.04997915342387482,0.9987499437230536,0.0007953315097043137
2800,-0.035326207072040296,-1.3368777962234502,1.2659855757450982,-0.263526319769177,-0.04396030762715419,-0.02450808400044365,0.9633383226887979,0.5000961760074886,0.18470736710057878,-0.0320524928898976,-0.00910198931754071,-0.06066535413851955,-0.06314859543261529,0.13258542725112119,0.1499292564800785,0.09941675625113092,0,5.719900000000653,1.75,-3.9799747470500266e-05,-0.04997915342387482,0.9987499437230536,0.0007953315097043137
2900,-0.03550115155631771,-1.3381898607682514,1.2669677263501395,-0.2645375051078042,-0.0442388639635087,-0.024692905342190055,0.9630436603458424,0.5001113459788826,0.18675228844512548,-0.03180404582543667,-0.00913034300630062,-0.06077317472943943,-0.06338989111441765,0.13787609935157077,0.14986744152128395,0.09943115215282479,0,5.709900000000676,1.75,-3.9799747470500266e-05,-0.04997915342387482,0.9987499437230536,0.0007953315097043137
3000,-0.03648744618100491,-1.340853482373521,1.2699531463218765,-0.26693509603036925,-0.04321548367181457,-0.024924680747708323,0.9624223796067366,0.5000950496809158,0.1920026232648394,-0.032849828616750454,-0.00908262544555054,-0.06005331617427036,-0.06295615654958252,0.14420264891472176,0.1490623460211841,0.09944415573870108,0,5.699900000000699,1.75,-3.9799747470500266e-05,-0.04997915342387482,0.9987499437230536,0.0007953315097043137
3100,-0.03722169902317858,-1.3418585666088167,1.2719786076375093,-0.2681666259991066,-0.04141464462211141,-0.024878222682144607,0.962160361866595,0.5000805071733729,0.19474746766016407,-0.03417722218583591,-0.009329138433599483,-0.05871025648290684,-0.061314240289416705,0.14600488798741373,0.1489395269173877,0.09945713138554582,0,5.689900000000723,1.75,-3.9799747470500266e-05,-0.04997915342387482,0.9987499437230536,0.0007953315097043137
3200,-0.03874767955234977,-1.3432099804333322,1.2719115206157292,-0.2688382333618384,-0.0432484431174157,-0.025770329918214974,0.9618687366510629,0.5000823239165132,0.19637138065983462,-0.033587565652922646,-0.00939873403925106,-0.058751615256785385,-0.06134144196838872,0.1493379754211819,0.14884737177208707,0.09949490296932285,0,5.679900000000746,1.75,-3.9799747470500266e-05,-0.04997915342387482,0.9987499437230536,0.0007953315097043137
3300,-0.040136410623116174,-1.3444677839502837,1.2719058937952283,-0.2694774700680983,-0.0448671734686921,-0.026565278196266525,0.9615940494122156,0.5000669001488918,0.1979019572020659,-0.033033552984843916,-0.009469851869370846,-0.058799052419461685,-0.06137483330817262,0.15314323452491463,0.14877699395840494,0.09952452620386461,0,5.669900000000769,1.75,-3.9799747470500266e-05,-0.04997915342387482,0.9987499437230536,0.0007953315097043137
3400,-0.0415798503646072,-1.3457949945929224,1.2718504082290827,-0.27013314187136384,-0.04662344471015854,-0.0273857185898594,0.9613034705457905,0.5000811813801945,0.19941885910017634,-0.03236772839621516,-0.009369184386695102,-0.059269604007303536,-0.06131775604729189,0.15705325307237908,0.14872350540931117,0.09955719232927229,0,5.659900000000793,1.75,-3.9799747470500266e-05,-0.04997915342387482,0.9987499437230536,0.0007953315097043137
3500,-0.04304855896987855,-1.347288570549441,1.2718698988185415,-0.2708932809965703,-0.04848732120384027,-0.028238155400937156,0.9609726409076075,0.5000754842964855,0.20110904107039806,-0.03149561264756512,-0.009114665101006857,-0.0602656134516709,-0.061161260352994316,0.16110336493248692,0.14866391162755171,0.09960301366226623,0,5.649900000000816,1.75,-3.9799747470500266e-05,-0.04997915342387482,0.9987499437230536,0.0007953315097043137
3600,-0.04465919121648444,-1.34873554552231,1.2719139931571621,-0.27165115178079546,-0.05023328213666823,-0.029141425428493906,0.9606419970134247,0.5000896872409178,0.2025183672018184,-0.030232823114143357,-0.00900995431665722,-0.06126531663336433,-0.061122210498511784,0.1656849838944467,0.1479602041428728,0.09964153415760375,0,5.639900000000839,1.75,-3.9799747470500266e-05,-0.04997915342387482,0.9987499437230536,0.0007953315097043137
3700,-0.04624164695288786,-1.3502200470909793,1.2719875953041488,-0.2724426251389004,-0.05199380640337605,-0.030050313264123402,0.9602961203586323,0.500096685021316,0.2040703051880783,-0.029065168211985973,-0.008891609666637372,-0.06224354059752726,-0.06104201791658662,0.17040691969244878,0.14712386427634716,0.09968337236697992,0,5.6299000000008625,1.75,-3.9799747470500266e-05,-0.04997915342387482,0.9987499437230536,0.0007953315097043137
3800,-0.04759963243490512,-1.3515119478643698,1.2721773726025623,-0.2731734688195181,-0.053338119924651546,-0.03080607169283387,0.9599907743529993,0.5000789556303182,0.20563260725223043,-0.028351693882682334,-0.008706783941569807,-0.06300502481491708,-0.06087876054056474,0.17484649334201444,0.1470181165144896,0.0997376008692871,0,5.619900000000886,1.75,-3.9799747470500266e-05,-0.04997915342387482,0.9987499437230536,0.0007953315097043137
3900,-0.04892996153361722,-1.3527657814886336,1.2723749582422712,-0.27389009439692524,-0.054607625708931636,-0.03153966985233804,0.9596913423759131,0.5000762176377836,0.20713767621313078,-0.027655351284634207,-0.008538683973212873,-0.06372910613412482,-0.060741183147093626,0.17942865110331618,0.14643740088246598,0.09978709483531761,0,5.609900000000909,1.75,-3.9799747470500266e-05,-0.04997915342387482,0.9987499437230536,0.0007953315097043137
4000,-0.05020798194551266,-1.3540365987392042,1.272624254347791,-0.27463550809734943,-0.05581951740166464,-0.03225116627486903,0.9593848974437041,0.5000814679163549,0.2086694369714549,-0.02693912850765751,-0.00840203326186231,-0.06441948388378287,-0.06066654205799113,0.18463749766975013,0.14480778782922726,0.09982304343438027,0,5.5999000000009325,1.75,-3.9799747470500266e-05,-0.04997915342387482,0.9987499437230536,0.0007953315097043137
4100,-0.05141394857679934,-1.355275316638175,1.2728970157804536,-0.2753714894188802,-0.05695692983559152,-0.032927474657889394,0.9590840590748994,0.5000798841655514,0.21019775496271667,-0.026283570344581335,-0.008261417881263437,-0.06506998914736835,-0.060614120660264566,0.19011709471290192,0.14279434434520485,0.09985259396047776,0,5.589900000000956,1.75,-3.9799747470500266e-05,-0.04997915342387482,0.9987499437230536,0.0007953315097043137
4200,-0.052627666226458834,-1.3563317234810282,1.2730235947118822,-0.2759637110564981,-0.05808201323701132,-0.033599709583421594,0.9588230125701881,0.5000536516378833,0.2114803301926624,-0.02569274227938204,-0.008099242477918465,-0.06570792359068474,-0.06057525751581623,0.1963395636284032,0.13865285423010393,0.09987500257345398,0,5.579900000000979,1.75,-3.9799747470500266e-05,-0.04997915342387482,0.9987499437230536,0.0007953315097043137
4300,-0.05375278670299679,-1.3573805686855804,1.2732756563719252,-0.27660382402868827,-0.058984029560661705,-0.03420109150328203,0.9585622014921502,0.5000852586015391,0.2127575030784536,-0.02513604000214612,-0.0079970064068928,-0.0663341374334101,-0.05871251452358048,0.20000302260875347,0.13416690193402214,0.0998938350717461,0,5.569900000001002,1.75,-3.9799747470500266e-05,-0.04997915342387482,0.9987499437230536,0.0007953315097043137
4400,-0.05485749850708285,-1.3585619857422795,1.273628394182445,-0.2773397059373826,-0.059925346221892044,-0.034814347175771906,0.9582690653576778,0.5000800059316972,0.21425930323070813,-0.024527332926619922,-0.007910503848947134,-0.06709344040061527,-0.05479905920110888,0.2000016015847106,0.1311853318767438,0.0999226892147012,0,5.559900000001026,1.75,-3.9799747470500266e-05,-0.04997915342387482,0.9987499437230536,0.0007953315097043137
4500,-0.05601936515046543,-1.3596898974316212,1.2739119089051483,-0.2780297377066756,-0.060902894025129245,-0.035466209717893146,0.9579835334797605,0.500065707503016,0.2156816264787695,-0.023917446036131315,-0.0078034386289869044,-0.06788467797723093,-0.05092340162651105,0.2000010316321951,0.12879993064310344,0.0999484807698996,0,5.549900000001049,1.75,-3.9799747470500266e-05,-0.04997915342387482,0.9987499437230536,0.0007953315097043137
4600,-0.056964106353351196,-1.3606065324351644,1.2741690893914697,-0.2785997687934669,-0.06164585264225033,-0.03598704741734887,0.9577509541098971,0.500060604105432,0.21685747631972016,-0.023463674966126512,-0.007715004545922235,-0.0685794849400625,-0.04657153823779455,0.20000198911065178,0.12358690949030547,0.09996201044795257,0,5.539900000001072,1.75,-3.9799747470500266e-05,-0.04997915342387482,0.9987499437230536,0.0007953315097043137
4700,-0.05776843594363712,-1.3612954096184673,1.274385830765467,-0.2790425500214346,-0.06217435764245772,-0.03642255595658255,0.9575714082755774,0.5000433201149411,0.21776692187041327,-0.02311071164652894,-0.00765814648722537,-0.0691980768236037,-0.041736598590798264,0.2000013065503342,0.1160735162937135,0.0999712795022887,0,5.529900000001096,1.75,-3.9799747470500266e-05,-0.04997915342387482,0.9987499437230536,0.0007953315097043137
4800,-0.058400721689161744,-1.3617144347923922,1.2745396255638064,-0.27933202166617305,-0.06245986069825158,-0.03675781007442963,0.9574556130035354,0.5000319442232636,0.21834968789931963,-0.02289580695205673,-0.007622136935324348,-0.06973940998282042,-0.03642569385584175,0.20004135282569757,0.10519723547504603,0.09996009771195129,0,5.519900000001119,1.75,-3.9799747470500266e-05,-0.04997915342387482,0.9987499437230536,0.0007953315097043137
4900,-0.05883160204365092,-1.361832853353941,1.27481571914925,-0.27950349252969564,-0.0621706920837648,-0.03689421667399916,0.9574191451425755,0.500021817023702,0.21862442096919638,-0.02289218691517426,-0.007718266912911273,-0.07002843049011843,-0.030028900724981128,0.20000326273508082,0.08657062847978284,0.09995388758831912,0,5.509900000001142,1.75,-3.9799747470500266e-05,-0.04997915342387482,0.9987499437230536,0.0007953315097043137
5000,-0.05894882695042762,-1.3617318380270922,1.2752602790917185,-0.27962448789140076,-0.06138932721850864,-0.03682571398717172,0.9574368715818635,0.5000048606493563,0.21872596640084707,-0.02301828730167347,-0.007932831508832387,-0.07009961233188575,-0.023399311334494407,0.20002303900008883,0.062438685424617085,0.09993285099941714,0,5.4999000000011655,1.75,-3.9799747470500266e-05,-0.04997915342387482,0.9987499437230536,0.0007953315097043137
5100,-0.058052252346701846,-1.361411081630379,1.2776612024143683,-0.28030706831723196,-0.05743680249976729,-0.03587351337629704,0.9575186954874783,0.5000191480836963,0.21910605815877016,-0.023255509237908437,-0.008636560315022801,-0.07006090309836434,-0.012450978749655393,0.19999977009528278,-0.001904797759745316,0.0999122113248574,0,5.489900000001189,1.75,-3.9799747470500266e-05,-0.04997915342387482,0.9987499437230536,0.0007953315097043137
5200,-0.0583122565838478,-1.3611791411569851,1.279085814996143,-0.28070722084798955,-0.054981346912612285,-0.03555720308504636,0.9575574097484922,0.5000023476598184,0.21924175917912297,-0.023253760196807277,-0.00912120887528243,-0.06959988405808697,-0.004117742328791941,0.20000243604931853,-0.062283856989439675,0.09956445166526001,0,5.479900000001212,1.75,-3.9799747470500266e-05,-0.04997915342387482,0.9987499437230536,0.0007953315097043137
5300,-0.05919952552058308,-1.3613354696070152,1.278740852507056,-0.28068702837913384,-0.05561314210239413,-0.035980710273824636,0.95751102292004,0.5000327369496593,0.21931692766182861,-0.023196980772944496,-0.009162068256426537,-0.06942876498973063,-0.0006526732726490237,0.2000010480129356,-0.07020152834089664,0.09956888808795103,0,5.469900000001235,1.75,-3.9799747470500266e-05,-0.04997915342387482,0.9987499437230536,0.0007953315097043137
5400,-0.060085779411882985,-1.3615306488621166,1.2783513445406536,-0.28066592052885125,-0.056398337273310346,-0.036432233259930946,0.9574542082972911,0.5000105794879329,0.21948134282890772,-0.023131855368657018,-0.009157437662198469,-0.06932171862601741,0.0023450571574710824,0.20004372823344688,-0.07749173639191513,0.09956397209755832,0,5.459900000001259,1.75,-3.9799747470500266e-05,-0.04997915342387482,0.9987499437230536,0.0007953315097043137
5500,-0.06094801479667521,-1.3616566834802397,1.2779332330141364,-0.28060345009289367,-0.05712603045021829,-0.036866085699017295,0.9574127700037212,0.5000084780361267,0.21955471544785612,-0.023127262614265665,-0.009237060056222116,-0.06900142213050643,0.005506668033865282,0.20000158625975417,-0.08554675184415955,0.0995503917899742,0,5.449900000001282,1.75,-3.9799747470500266e-05,-0.04997915342387482,0.9987499437230536,0.0007953315097043137
5600,-0.0617487024128256,-1.361758097191013,1.2775029622164453,-0.28052472976937176,-0.05784332915874942,-0.037279425158683606,0.9573767647689658,0.5000093603351126,0.21953837553714373,-0.02303344909659767,-0.009092416399802801,-0.06921618240176515,0.008882709961224214,0.20000184731642537,-0.09359616579701287,0.09955570600718308,0,5.439900000001305,1.75,-3.9799747470500266e-05,-0.04997915342387482,0.9987499437230536,0.0007953315097043137
5700,-0.06256362710932513,-1.3618219018347393,1.2770048646087528,-0.2804053382268479,-0.05861549772131091,-0.0377016762198485,0.9573482403655337,0.5000138793604626,0.2194184381224304,-0.022884850505799095,-0.00885256659224901,-0.06966014320973463,0.012420294850735617,0.2000026876831666,-0.10274414823960892,0.09956080922199219,0,5.429900000001329,1.75,-3.9799747470500266e-05,-0.04997915342387482,0.9987499437230536,0.0007953315097043137
5800,-0.06344507536046479,-1.3618553677835274,1.2763383328105964,-0.28020724728646546,-0.059597525369040345,-0.038177825912899956,0.9573267400143968,0.499995947093703,0.21923410691920694,-0.02276173847920062,-0.008548207281898111,-0.0701869754358474,0.01601035533568585,0.20000098065201793,-0.1136088455631834,0.09956504626671354,0,5.419900000001352,1.75,-3.9799747470500266e-05,-0.04997915342387482,0.9987499437230536,0.0007953315097043137
5900,-0.06439798617422234,-1.3618655845988035,1.275540200742726,-0.2799507654321611,-0.06074458613182137,-0.03870197628061994,0.9573086342562649,0.4999643635239432,0.21898946770484018,-0.022659313759336316,-0.008141296565757987,-0.0708267341563054,0.019941293313508007,0.20005938833020484,-0.12778802156610375,0.09956609044824823,0,5.409900000001375,1.75,-3.9799747470500266e-05,-0.04997915342387482,0.9987499437230536,0.0007953315097043137
6000,-0.06676366925703474,-1.3669727481594336,1.2784597600251,-0.2835421971503628,-0.0627464779471587,-0.040098451422460595,0.9560642322218168,0.5000041976438209,0.22567893635154856,-0.0199611401713657,-0.00860762319718877,-0.07204720734605231,0.024078281717932075,0.19967363561776794,-0.15000287680701563,0.09950681302203175,0,5.399900000001399,1.75,-3.9799747470500266e-05,-0.04997915342387482,0.9987499437230536,0.0007953315097043137
6100,-0.06855839301561861,-1.3748225906587583,1.284954630031897,-0.28965183397085736,-0.06283244542006527,-0.04093423558488081,0.9541898591144924,0.5000036286279114,0.238197140656267,-0.019251421745112737,-0.008795474118463263,-0.07227805202587526,0.024023372080342966,0.19969946024921906,-0.15000313832503426,0.09950035889721635,0,5.389900000001422,1.75,-3.9799747470500266e-05,-0.04997915342387482,0.9987499437230536,0.0007953315097043137
6200,-0.07037276385636644,-1.3826220529368507,1.2913955045529746,-0.29569774072062466,-0.06285315192485688,-0.04173864031418423,0.9522973345182439,0.5000038219053099,0.2505965317539064,-0.018556038837158333,-0.008999976002126696,-0.07247313546950669,0.02398308715422882,0.19972252231133414,-0.15000224049643604,0.09949093259094681,0,5.379900000001445,1.75,-3.9799747470500266e-05,-0.04997915342387482,0.9987499437230536,0.0007953315097043137
6300,-0.07225020203627797,-1.3903419346851655,1.2977213048895058,-0.3016514313645656,-0.06286895374885572,-0.042551767111843074,0.9503911067165415,0.5000034496867238,0.26281900457546703,-0.017844969000099284,-0.009207153103827267,-0.07267628789133132,0.023971040247698253,0.19975105199225054,-0.15000264553474446,0.09948139249072098,0,5.3699000000014685,1.75,-3.9799747470500266e-05,-0.04997915342387482,0.9987499437230536,0.0007953315097043137
6400,-0.07447789575249103,-1.3982022794048412,1.3031442546967404,-0.3068125503852383,-0.06293486791853439,-0.04339945688692304,0.9486947604304043,0.5000029546315373,0.27347512776088784,-0.017282204353960554,-0.009328007328554992,-0.07289842400362118,0.02401333614919546,0.199688219356621,-0.1500020811497369,0.09947796837025946,0,5.359900000001492,1.75,-3.9799747470500266e-05,-0.04997915342387482,0.9987499437230536,0.0007953315097043137
6500,-0.07645048115893475,-1.4054296931759667,1.3103526591057484,-0.31360043517472563,-0.06287679047218273,-0.04426142177380278,0.9464365815101937,0.5000260046477518,0.2874831581090878,-0.016575233811797874,-0.009544248049307221,-0.07308735027459216,0.02404370731974947,0.19972438284495478,-0.15000210144761503,0.09946814130735401,0,5.349900000001515,1.75,-3.9799747470500266e-05,-0.04997915342387482,0.9987499437230536,0.0007953315097043137
6600,-0.07787172741045721,-1.4130554079551843,1.316338757174649,-0.31927638728149865,-0.062885846406391,-0.04498892029360233,0.9445019618280537,0.5000511383986072,0.2992222805989877,-0.015957360576070084,-0.00971259697333799,-0.07327861247089253,0.023978555782534623,0.1997470831325826,-0.15000163509438105,0.09945779728404763,0,5.339900000001538,1.75,-3.9799747470500266e-05,-0.04997915342387482,0.9987499437230536,0.0007953315097043137
6700,-0.07989986472449312,-1.4204951162990844,1.3223545566119368,-0.32499548450179144,-0.06290139332156422,-0.04583340771012409,0.942507638435535,0.5000035363133489,0.31109718383102103,-0.015231489699670071,-0.009917253141916821,-0.07349496463364838,0.023956436487639718,0.1997857721723608,-0.15000314884507418,0.09945344220122006,0,5.329900000001562,1.75,-3.9799747470500266e-05,-0.04997915342387482,0.9987499437230536,0.0007953315097043137
6800,-0.08120709675882556,-1.426968486422759,1.3304901186131135,-0.3326724005407921,-0.06280428449147923,-0.04663148726047263,0.9397926367895295,0.5000051262490878,0.3272749374380776,-0.014812984030545592,-0.009997710470868122,-0.0736744394219861,0.024267707407033177,0.19970865595769757,-0.15000134020517716,0.09944150984201607,0,5.319900000001585,1.75,-3.9799747470500266e-05,-0.04997915342387482,0.9987499437230536,0.0007953315097043137
6900,-0.08233942282323832,-1.4332071648310092,1.33933057715208,-0.341036785324212,-0.0626968397959714,-0.04744048503277929,0.936756327822332,0.5000056058362642,0.3450416383007938,-0.014514640093007247,-0.01000858688144472,-0.07386683407621594,0.024275076081569546,0.19945567596580885,-0.1500011632352167,0.09943024186418237,0,5.309900000001608,1.75,-3.9799747470500266e-05,-0.04997915342387482,0.9987499437230536,0.0007953315097043137
7000,-0.08355772213649233,-1.439342208387357,1.3478853555508576,-0.34915863239830897,-0.06255957571131396,-0.04824765633024582,0.9337273223844322,0.5000064425506965,0.36226783306960736,-0.014078672785632849,-0.010096433593290707,-0.0740468643381235,0.02426920261632819,0.1994249623055962,-0.15000203304970688,0.09941631794537811,0,5.299900000001632,1.75,-3.9799747470500266e-05,-0.04997915342387482,0.9987499437230536,0.0007953315097043137
7100,-0.08484398838790931,-1.4453961238468807,1.3561958867518833,-0.35707714389255585,-0.06239674195075494,-0.049052471082128034,0.9306967363132863,0.5000049295767593,0.37908933993119387,-0.013604808591365527,-0.010210127551581908,-0.07421589280228875,0.024274885408812008,0.19942389291203447,-0.1500017954596721,0.09939980622767648,0,5.289900000001655,1.75,-3.9799747470500266e-05,-0.04997915342387482,0.9987499437230536,0.0007953315097043137
7200,-0.08620632634762634,-1.451381138307857,1.3642404274444733,-0.3648012846738873,-0.06227303500555239,-0.04987928612425778,0.9276605783513779,0.500005045702072,0.3955294688989086,-0.013073112362404219,-0.010335401374527837,-0.07440953313612676,0.02425110512411222,0.19942705109425649,-0.15000202867971005,0.09938351477508099,0,5.279900000001678,1.75,-3.9799747470500266e-05,-0.04997915342387482,0.9987499437230536,0.0007953315097043137
7300,-0.08680122156388075,-1.4547098837601957,1.369261928614057,-0.36881583394000234,-0.06237781264283366,-0.05040560673922732,0.926036264913144,0.5007751175818798,0.4000420041628577,-0.00861581058526862,-0.011174323996223643,-0.07461509538886654,0.02455781382047157,0.20001317821482453,-0.15007806325359047,0.09919133543520764,0,5.269900000001702,1.75,-3.9799747470500266e-05,-0.04997915342387482,0.9987499437230536,0.0007953315097043137
7400,-0.08724691147137499,-1.4546031520563825,1.3689460427155011,-0.3686903105392903,-0.062460234932391695,-0.05057015260155675,0.9260717216460544,0.5007566636483973,0.400009776705012,-0.008766442378272165,-0.011173477712273595,-0.07468710795257001,0.026505727878964838,0.20000224260661362,-0.15000406983799683,0.0991364918814659,0,5.259900000001725,1.75,-3.9799747470500266e-05,-0.04997915342387482,0.9987499437230536,0.0007953315097043137
7500,-0.08761180769304344,-1.454472162992231,1.3696971440873402,-0.3688302709551924,-0.06138792483325657,-0.050463354183645885,0.9260935178459688,0.5007743084341637,0.3999967281264233,-0.00919039581739107,-0.011164205260581433,-0.0741515796817893,0.030165711423294595,0.20000569462764656,-0.150010677790431,0.09904799712525343,0,5.249900000001748,1.75,-3.9799747470500266e-05,-0.04997915342387482,0.9987499437230536,0.0007953315097043137
7600,-0.08827605542608934,-1.4543695625513215,1.369574330622382,-0.36882642331594506,-0.06119993721627392,-0.05066771121456911,0.9260963341839598,0.5007829112283967,0.40025045274372684,-0.009564893091211788,-0.0111520027859837,-0.07411705023200661,0.0327503956546199,0.20000394798260504,-0.15000385022868867,0.09902193083201888,0,5.2399000000017715,1.75,-3.9799747470500266e-05,-0.04997915342387482,0.9987499437230536,0.0007953315097043137
7700,-0.08896213414627331,-1.4543671120819983,1.3696383205214004,-0.3689098916366976,-0.061100227154621205,-0.05091915117743301,0.9260558806776313,0.5008529305151912,0.4002907202049951,-0.00952827772415634,-0.01115879320144974,-0.0740621815249789,0.035581161119730316,0.20000210773552382,-0.1500192612499025,0.09894540120325132,0,5.229900000001795,1.75,-3.9799747470500266e-05,-0.04997915342387482,0.9987499437230536,0.0007953315097043137
7800,-0.09045693679823485,-1.4547847815480184,1.3695386137092622,-0.36920160963180404,-0.06237186120442574,-0.051844401289508665,0.9258034782987765,0.5008185875458769,0.4001771444594535,-0.007785113846914312,-0.011181422099177246,-0.07347931984516516,0.037447565231775545,0.19983313534915123,-0.15002066442304182,0.09895118689287344,0,5.219900000001818,1.75,-3.9799747470500266e-05,-0.04997915342387482,0.9987499437230536,0.0007953315097043137
7900,-0.09197028173450343,-1.4552341500234744,1.3693075910640289,-0.3694869775563068,-0.06368812512350282,-0.0527955761208806,0.9255462296809505,0.5008246208461,0.40017878480780505,-0.006177262443665319,-0.011205545666608497,-0.072200100238387,0.03816805369372085,0.19989336413181874,-0.1500201016386632,0.09901686928765294,0,5.209900000001841,1.75,-3.9799747470500266e-05,-0.04997915342387482,0.9987499437230536,0.0007953315097043137
8000,-0.09327116798726579,-1.4556899001048924,1.369235986861519,-0.36979204191331494,-0.06481910112317517,-0.05362628175774353,0.9252980880624383,0.5008022660416698,0.40021014344633593,-0.004663678622358124,-0.011228061958847903,-0.07158137511368434,0.04180046297568693,0.19642750570009507,-0.15000546720137875,0.09904470298187211,0,5.199900000001865,1.75,-3.9799747470500266e-05,-0.04997915342387482,0.9987499437230536,0.0007953315097043137
8100,-0.09378198042245728,-1.455919109279379,1.3694182979987999,-0.36997257617584883,-0.06518017678100033,-0.05396001059646852,0.9251811469593575,0.5008544104940592,0.4000092390068812,-0.0038369543625531802,-0.011237139271663896,-0.07174786243144513,0.05362820911826322,0.179830754423905,-0.15000310263977848,0.09885006070081664,0,5.189900000001888,1.75,-3.9799747470500266e-05,-0.04997915342387482,0.9987499437230536,0.0007953315097043137
8200,-0.09426001370770637,-1.4559163347255182,1.3693124691850838,-0.36996044090841934,-0.0653667167792001,-0.05421818404949542,0.9251577449379813,0.5007673388845623,0.40000211273048414,-0.0036193189966989073,-0.011235517997158977,-0.07190508715504462,0.06671489846068898,0.16078576858187846,-0.1500716218439399,0.0986100962574712,0,5.179900000001911,1.75,-3.9799747470500266e-05,-0.04997915342387482,0.9987499437230536,0.0007953315097043137
8300,-0.09471033055454772,-1.4558437791973555,1.3690845872672261,-0.3698933539061138,-0.06549074315923402,-0.05444806073948833,0.9251622981824577,0.5007268158595295,0.40000116814912867,-0.0036281253121649374,-0.011218118957999611,-0.07197015042010081,0.07960824703764897,0.1417046959590945,-0.15006587464762475,0.09840158936639695,0,5.169900000001935,1.75,-3.9799747470500266e-05,-0.04997915342387482,0.9987499437230536,0.0007953315097043137
8400,-0.09512756799773812,-1.4557631971134928,1.368841217425635,-0.3698311735124996,-0.0656101216928715,-0.05467260768435007,0.9251654560124947,0.500722679189536,0.40000495707931566,-0.0036734146195076737,-0.01120181638100994,-0.07199900466404616,0.09190939308489125,0.12352401042567118,-0.15001360334731415,0.09823953863008468,0,5.159900000001958,1.75,-3.9799747470500266e-05,-0.04997915342387482,0.9987499437230536,0.0007953315097043137
8500,-0.09541087184807902,-1.4556618600282498,1.3688539667420807,-0.3697761339454657,-0.06544416527546927,-0.054788211152281226,0.9251923713014906,0.5006024954845285,0.40000176351577527,-0.0037619995280250744,-0.011206143456795605,-0.0719885289241087,0.10578396907904494,0.10173971917286903,-0.1500348481466583,0.09809027095533208,0,5.149900000001981,1.75,-3.9799747470500266e-05,-0.04997915342387482,0.9987499437230536,0.0007953315097043137
8600,-0.09563353362505302,-1.4554913943074725,1.3691023408325165,-0.3697917008962791,-0.06481640625088114,-0.05479224880094951,0.9252301015965123,0.5006464857154517,0.40000553199887223,-0.004177615178604091,-0.011231301334791385,-0.07202844775578288,0.12269415434804024,0.07331713359796145,-0.15001257193233208,0.09790788482240687,0,5.1399000000020045,1.75,-3.9799747470500266e-05,-0.04997915342387482,0.9987499437230536,0.0007953315097043137
8700,-0.0960340115679309,-1.4552234040321324,1.3695176372446225,-0.36980033818096164,-0.0638715206393182,-0.054752319924187304,0.9252947218024034,0.5006496950464349,0.4000069109995422,-0.004810167777509532,-0.01119970651500385,-0.07221237981425675,0.14145176349633184,0.040748016006593855,-0.15007104067450316,0.09778552192424983,0,5.129900000002028,1.75,-3.9799747470500266e-05,-0.04997915342387482,0.9987499437230536,0.0007953315097043137
8800,-0.09654026265129649,-1.455089680218676,1.3690295584443832,-0.36969263392555507,-0.06410351494154073,-0.055046411046116545,0.9253042680244521,0.5007104691352197,0.40005770605359087,-0.004957798048565881,-0.011223695313076903,-0.07219090817562508,0.1508250838746824,0.02741537430419215,-0.1500003832617535,0.09771783926400608,0,5.119900000002051,1.75,-3.9799747470500266e-05,-0.04997915342387482,0.9987499437230536,0.0007953315097043137
8900,-0.09706492321919007,-1.4549452008036206,1.3686932503472042,-0.36959837470789225,-0.064154829335675,-0.055314687137515195,0.9253223679740341,0.5007509711122392,0.4000573864037753,-0.005133613899088185,-0.011230947068014693,-0.072420537686951,0.15956282785715284,0.016761632808713157,-0.15000672610280583,0.09756562043450966,0,5.1099000000020744,1.75,-3.9799747470500266e-05,-0.04997915342387482,0.9987499437230536,0.0007953315097043137
9000,-0.09738486655888107,-1.4548619735968193,1.3689960922163096,-0.3696484899496243,-0.06371417567774597,-0.05538365745170848,0.9253286703560739,0.5006073947462404,0.4002186362009663,-0.005322823896210065,-0.011229010186743455,-0.072589087989779,0.16905589188276507,0.006150694808081688,-0.1500277933204484,0.09751513219495049,0,5.099900000002098,1.75,-3.9799747470500266e-05,-0.04997915342387482,0.9987499437230536,0.0007953315097043137
9100,-0.09754332737130858,-1.4547812186686002,1.3691038999327825,-0.3696785663031052,-0.0632463618840421,-0.05538849064465891,0.9253484589216215,0.500882517618812,0.4000596168654575,-0.0056893043531826525,-0.011220199841758578,-0.0730941631520672,0.17934722953004545,-0.004979530110085196,-0.15000648853965887,0.09738662830500437,0,5.089900000002121,1.75,-3.9799747470500266e-05,-0.04997915342387482,0.9987499437230536,0.0007953315097043137
9200,-0.09770989363132536,-1.4546559799547023,1.369367551647964,-0.3696773319584073,-0.06276525742075247,-0.05537937452231882,0.9253822548409587,0.5008366573294041,0.4000021699931826,-0.0059099569258169084,-0.011210927766897855,-0.07356390397756601,0.1891941693750814,-0.01544248072717059,-0.1500011650187351,0.09726314547741588,0,5.079900000002144,1.75,-3.9799747470500266e-05,-0.04997915342387482,0.9987499437230536,0.0007953315097043137
9300,-0.09796938543026774,-1.4544910093075998,1.3697360317195824,-0.36971603161117156,-0.062343558956797336,-0.055435943788994656,0.9253919130630606,0.5006419605800814,0.4000601705029741,-0.005957082998118494,-0.011208648496964492,-0.07376246832655732,0.19805680693573152,-0.02505293444669453,-0.15000477453014446,0.09723521950358033,0,5.069900000002168,1.75,-3.9799747470500266e-05,-0.04997915342387482,0.9987499437230536,0.0007953315097043137
9400,-0.09829687052265296,-1.4544864023569506,1.3701686269027542,-0.3698590392341305,-0.06187899813165157,-0.05550440936556322,0.9253618434039783,0.5006479112550439,0.4001197124273541,-0.00599832622541865,-0.011211036418597189,-0.07037716989013261,0.20001193399869088,-0.03148345270835485,-0.15001201954889776,0.09727294571771679,0,5.059900000002191,1.75,-3.9799747470500266e-05,-0.04997915342387482,0.9987499437230536,0.0007953315097043137
9500,-0.09856790381652444,-1.4544894931507848,1.3707024521314428,-0.37001515438900556,-0.06139748851565897,-0.05555130620176242,0.9253286909556668,0.5006909185644461,0.4000031706045592,-0.005895230001540876,-0.01120441366551133,-0.06600670240380806,0.2000129421793352,-0.036937136587793275,-0.15001124320435297,0.09732655740143432,0,5.049900000002214,1.75,-3.9799747470500266e-05,-0.04997915342387482,0.9987499437230536,0.0007953315097043137
9600,-0.0988260134169098,-1.4544675232903814,1.371159018930749,-0.37015130500211985,-0.06093410991321076,-0.05559835781314333,0.9253020416398064,0.5006840368550526,0.4000306245725246,-0.00591852011926788,-0.011196987545671309,-0.06162151680532156,0.20001260609550553,-0.042533680362556864,-0.1500089290219934,0.09738554875287614,0,5.039900000002238,1.75,-3.9799747470500266e-05,-0.04997915342387482,0.9987499437230536,0.0007953315097043137
9700,-0.09903349919516496,-1.4544280143518642,1.3715658596903915,-0.37027116964881573,-0.0604562807826775,-0.055622534951477336,0.9252839740568274,0.5005842250754965,0.4002747641219497,-0.00611507004855611,-0.011183341915837943,-0.057231202689667846,0.20001155505668147,-0.04815565521462103,-0.15000492419984757,0.09743801742864819,0,5.029900000002261,1.75,-3.9799747470500266e-05,-0.04997915342387482,0.9987499437230536,0.0007953315097043137
9800,-0.09908213587982517,-1.4543583070019552,1.3720484477992183,-0.3703565992929048,-0.05992515725313034,-0.055576248734470056,0.9252871151512847,0.5006279919684116,0.4000586389681688,-0.006107422478436678,-0.0111802346564158,-0.052938548983249616,0.20001070378098154,-0.05336332323754997,-0.150010574817068,0.09749101857175316,0,5.019900000002284,1.75,-3.9799747470500266e-05,-0.04997915342387482,0.9987499437230536,0.0007953315097043137
9900,-0.09894999169990591,-1.454322769128311,1.372598462082764,-0.3704740441755587,-0.05927929541057474,-0.05542362433294002,0.9252908567545846,0.5006641366060789,0.4000184087417488,-0.006285479851747274,-0.011171824681262385,-0.04884523233735162,0.200012997193879,-0.05780637158567978,-0.15001082643718305,0.09754628174958203,0,5.0099000000023075,1.75,-3.9799747470500266e-05,-0.04997915342387482,0.9987499437230536,0.0007953315097043137
10000,-0.09886555612952896,-1.4543218301108152,1.373278628568763,-0.37063618661204156,-0.05860615773110222,-0.055271323507668425,0.9252779129793339,0.5006545383202631,0.40000530138254836,-0.006364798079067876,-0.011163185291345282,-0.04498891130383093,0.2000124372939329,-0.06162204857531853,-0.15000944206801833,0.09761052660994787,0,4.999900000002331,1.75,-3.9799747470500266e-05,-0.04997915342387482,0.9987499437230536,0.0007953315097043137
10100,-0.09881759302525056,-1.4543170592195336,1.3739001304787037,-0.37079384195092774,-0.05792837015446917,-0.05512061147400247,0.9252664204937134,0.5007017255550559,0.40000067808316025,-0.006521447495105737,-0.011154607996794267,-0.04110542477289565,0.20001030617738386,-0.0655144745390406,-0.15001061922229927,0.09765594683674357,0,4.989900000002354,1.75,-3.9799747470500266e-05,-0.04997915342387482,0.9987499437230536,0.0007953315097043137
10200,-0.09876004988209605,-1.4542854374640959,1.3745100036976943,-0.37096840487479105,-0.057256145504555246,-0.054972560724875746,0.9252470988627656,0.5007217411211831,0.4001355115096107,-0.006750846144683459,-0.011143054701294196,-0.03729580803423915,0.2000103356967985,-0.069271800570371,-0.15001058423494307,0.09770642275955098,0,4.979900000002377,1.75,-3.9799747470500266e-05,-0.04997915342387482,0.9987499437230536,0.0007953315097043137
10300,-0.09869239883477515,-1.4542507933279099,1.3751806209076312,-0.37110866462566333,-0.05659260960272429,-0.054817490507037,0.9252408758332187,0.5007252713815885,0.4000187300156329,-0.006779192407414886,-0.011132796023753652,-0.03346918887064183,0.20001347642487885,-0.07312194431821223,-0.150009336239043,0.09776514350716244,0,4.969900000002401,1.75,-3.9799747470500266e-05,-0.04997915342387482,0.9987499437230536,0.0007953315097043137
10400,-0.09857043773852353,-1.454213892728284,1.3759556084622957,-0.3712708025358361,-0.055871152959436295,-0.05462786906694913,0.9252308908443253,0.5006364210186911,0.4000045278454717,-0.006805293355923463,-0.011126346348992164,-0.029885070300526315,0.20001746598949158,-0.07615999602753108,-0.15002039139321052,0.09782192271895807,0,4.959900000002424,1.75,-3.9799747470500266e-05,-0.04997915342387482,0.9987499437230536,0.0007953315097043137
10500,-0.09827381708970855,-1.454203061299214,1.376887283091172,-0.37148291338998896,-0.05501102927975281,-0.05433876539115335,0.925214315870995,0.5005867604232199,0.4000021259328887,-0.006879835050387318,-0.011113078877367946,-0.026784497229478933,0.20002239415897677,-0.07746429135237133,-0.1500150307225876,0.0978681944834869,0,4.949900000002447,1.75,-3.9799747470500266e-05,-0.04997915342387482,0.9987499437230536,0.0007953315097043137
10600,-0.09794359891362722,-1.4541862595782244,1.3777266286327101,-0.3716757511771524,-0.05416510463965314,-0.05404477733071617,0.9252039988400116,0.5005940903503588,0.40000173057722876,-0.007047251196139077,-0.011098860971448302,-0.023646547403182158,0.2000198821916237,-0.07887082091614181,-0.15001380478652793,0.09791618429575488,0,4.939900000002471,1.75,-3.9799747470500266e-05,-0.04997915342387482,0.9987499437230536,0.0007953315097043137
10700,-0.09759794312155859,-1.454157065946719,1.3784874474656974,-0.37186236589935884,-0.053333702534702605,-0.053752346298728264,0.9251943483771682,0.5006314051522933,0.4000766247978288,-0.007327944114012251,-0.011081791053278823,-0.020472847176453302,0.20001027274773997,-0.08037753162131388,-0.15000661571230575,0.09796751831251409,0,4.929900000002494,1.75,-3.9799747470500266e-05,-0.04997915342387482,0.9987499437230536,0.0007953315097043137
10800,-0.09742676529489207,-1.454122498458406,1.3790617767942568,-0.3719628789214604,-0.05267917563365018,-0.05356443383054367,0.9252023414299335,0.5006362785837819,0.40000319744641477,-0.007489415349067661,-0.011068209114136907,-0.01671254645644844,0.2000109622863419,-0.08410103937798546,-0.15000116274052122,0.09802805541205242,0,4.919900000002517,1.75,-3.9799747470500266e-05,-0.04997915342387482,0.9987499437230536,0.0007953315097043137
10900,-0.097538666567498,-1.4540239591107473,1.379245260574545,-0.3719744113746224,-0.05235337145585661,-0.05356304605043917,0.925216278433052,0.5006092872852759,0.4000077281845693,-0.00765626458769843,-0.011057721627514743,-0.01176203842053909,0.20000671494799832,-0.09233057189847022,-0.1500922137988088,0.0977914357696934,0,4.909900000002541,1.75,-3.9799747470500266e-05,-0.04997915342387482,0.9987499437230536,0.0007953315097043137
11000,-0.09765061748973068,-1.4539272967543873,1.3794533045223523,-0.37198208332158167,-0.05205867530618092,-0.05356495701590056,0.9252297116894735,0.5005273713641051,0.4000048960831737,-0.007742846180376835,-0.01105149764193341,-0.006714071145603803,0.2000028210729408,-0.10112777829440812,-0.1500049921169926,0.09755133545851516,0,4.899900000002564,1.75,-3.9799747470500266e-05,-0.04997915342387482,0.9987499437230536,0.0007953315097043137
11100,-0.09775873955400805,-1.4538329152230702,1.379656629023076,-0.37199305974701824,-0.05176790156340242,-0.05356779302012559,0.9252414492545857,0.5004552552434497,0.40000607472775584,-0.007832957129654405,-0.011046213921652615,-0.002717888908196753,0.20000378838804772,-0.10728029981019552,-0.150040396901389,0.09733144293251933,0,4.889900000002587,1.75,-3.9799747470500266e-05,-0.04997915342387482,0.9987499437230536,0.0007953315097043137
11200,-0.09784124239625838,-1.4537511302795831,1.3798962299313726,-0.3720599801328052,-0.05132903176239787,-0.05353968327171676,0.9252406195131488,0.5005620331388276,0.4000013638364831,-0.008052982862388114,-0.011055455950616393,0.0004828550576323196,0.20001820311758217,-0.11068559763998533,-0.15001352724214392,0.09733855395452816,0,4.8799000000026105,1.75,-3.9799747470500266e-05,-0.04997915342387482,0.9987499437230536,0.0007953315097043137
11300,-0.09797043767622994,-1.4536317803302685,1.3801264690232675,-0.3720781076481978,-0.05092612171289636,-0.053538509496531515,0.9252556619319382,0.5005425850630862,0.4000043754790887,-0.008269985610149721,-0.0110360901405776,0.00372401817034504,0.20000557540349836,-0.11409726785158615,-0.15000038155154452,0.09740404394812069,0,4.869900000002634,1.75,-3.9799747470500266e-05,-0.04997915342387482,0.9987499437230536,0.0007953315097043137
11400,-0.09807692811641357,-1.4535306597928983,1.3803196061468652,-0.372102868541957,-0.05064051196023351,-0.05354494419454708,0.9252610078904522,0.5005157335669415,0.4000045182949073,-0.008371255095486713,-0.01103133352328932,0.007375326264720652,0.20001677774851845,-0.1191363050486457,-0.15000301396816973,0.09730790499167678,0,4.859900000002657,1.75,-3.9799747470500266e-05,-0.04997915342387482,0.9987499437230536,0.0007953315097043137
11500,-0.09800447196512603,-1.453406424529351,1.380092531598073,-0.3720172387506349,-0.05077149993664832,-0.053627212729913276,0.9252834975948488,0.5004792900189604,0.40000045062997147,-0.008422021602547916,-0.011030812294916415,0.01222884849368681,0.20000606901565066,-0.12889755935566083,-0.1500641570630298,0.097073184699406,0,4.84990000000268,1.75,-3.9799747470500266e-05,-0.04997915342387482,0.9987499437230536,0.0007953315097043137
11600,-0.09792155955696434,-1.4532594175881455,1.37974199463102,-0.3718840294245219,-0.050928621251085694,-0.05373888483933199,0.9253219312502379,0.5004432315075249,0.4000075620506922,-0.008573697594979364,-0.011028295532096843,0.01697400725854364,0.2000064394545511,-0.13856093357649127,-0.15017008557628822,0.09682587673104535,0,4.839900000002704,1.75,-3.9799747470500266e-05,-0.04997915342387482,0.9987499437230536,0.0007953315097043137
11700,-0.09782614725574906,-1.4530840642971106,1.3793306836677008,-0.3717325144818007,-0.051103749723653336,-0.053873102911580005,0.9253653512121027,0.5004196753768134,0.4000064094679072,-0.008747717407700207,-0.011037241614017677,0.02163892319767522,0.20000668452210962,-0.14824354601115888,-0.15000672652665936,0.09652371063266676,0,4.829900000002727,1.75,-3.9799747470500266e-05,-0.04997915342387482,0.9987499437230536,0.0007953315097043137
11800,-0.09771257623841795,-1.4528833854529788,1.3788595646222384,-0.3715561469530512,-0.051299305439202865,-0.054030688272210345,0.9254161742954838,0.5003909138018608,0.40000035595698297,-0.008954159325459298,-0.011040232716208374,0.02617081181140249,0.20000595720022757,-0.15771318120104932,-0.15002454195679418,0.09620105187621002,0,4.81990000000275,1.75,-3.9799747470500266e-05,-0.04997915342387482,0.9987499437230536,0.0007953315097043137
11900,-0.09733926622126467,-1.4522433422743517,1.3767885829469044,-0.3708613001594279,-0.05234464050086336,-0.054583059294261826,0.9256039240911704,0.500364432411124,0.40007192385661006,-0.009783454917707065,-0.011056965896475264,0.03221492944885632,0.20000492449017512,-0.17415858817959243,-0.15001812845149676,0.09592820247518354,0,4.809900000002774,1.75,-3.9799747470500266e-05,-0.04997915342387482,0.9987499437230536,0.0007953315097043137
12000,-0.09641927223032955,-1.450742771945353,1.3717747517678605,-0.36913953432674473,-0.05459416650240009,-0.05565205941798618,0.9260984448013501,0.5005755837237619,0.4000074219082168,-0.01212642949139627,-0.011096686387737044,0.04075825607691302,0.19923203976485424,-0.20002485767403835,-0.15002292916338528,0.0958299583636165,0,4.799900000002797,1.75,-3.9799747470500266e-05,-0.04997915342387482,0.9987499437230536,0.0007953315097043137
12100,-0.09628190419157877,-1.4506284086642676,1.3722575036424338,-0.36921186716839216,-0.053903144058486265,-0.05548040593657724,0.9261203878328952,0.5005880482623953,0.4000077178436246,-0.012444947577137797,-0.011086112303108445,0.042882558053675524,0.1991482670422115,-0.20002752643404598,-0.15002415363086824,0.09590172914403937,0,4.78990000000282,1.75,-3.9799747470500266e-05,-0.04997915342387482,0.9987499437230536,0.0007953315097043137
12200,-0.09613809883347811,-1.4505138756927551,1.372757256693759,-0.36928885856601107,-0.05320788687823465,-0.05530498808103491,0.9261403878496619,0.500595654791713,0.400006566094043,-0.012748330499318844,-0.011075717442871951,0.04505099371726082,0.1990368591008375,-0.20003049271679915,-0.1500254719219611,0.09597605886066546,0,4.7799000000028435,1.75,-3.9799747470500266e-05,-0.04997915342387482,0.9987499437230536,0.0007953315097043137
12300,-0.09617012816890812,-1.4504268902042263,1.3730625886257943,-0.3693830067125007,-0.05267852006021079,-0.05524709023202447,0.9261365595295292,0.5007477744976142,0.40001128455545043,-0.013033125307974795,-0.01107732125162089,0.04706757726414906,0.19887911255315596,-0.2000359438448072,-0.15001010574037463,0.09604150878971303,0,4.769900000002867,1.75,-3.9799747470500266e-05,-0.04997915342387482,0.9987499437230536,0.0007953315097043137
12400,-0.0967560910327553,-1.450409172475468,1.3733275363529656,-0.3695019961056411,-0.05247844075349051,-0.055497224344638406,0.9260854961719626,0.5007442410766165,0.40000444369953236,-0.012682620215208778,-0.011199507390982407,0.04972802862014185,0.1983612669675188,-0.20003560316551214,-0.15000572506207574,0.09608521691896456,0,4.75990000000289,1.75,-3.9799747470500266e-05,-0.04997915342387482,0.9987499437230536,0.0007953315097043137
12500,-0.09702094512181814,-1.4506609411521956,1.3741742794050351,-0.36997194033457137,-0.05240463459292444,-0.05572353104317473,0.9258884412964311,0.5008360750957846,0.4000731387573108,-0.011965802104166801,-0.011112118176294903,0.05255124965359795,0.19604795041092282,-0.20002663906844367,-0.15001901929221173,0.0961398797051551,0,4.7499000000029135,1.75,-3.9799747470500266e-05,-0.04997915342387482,0.9987499437230536,0.0007953315097043137
12600,-0.09774709077239105,-1.451579283687108,1.3762760318649925,-0.3711196830347591,-0.052472245833766314,-0.05622910677081823,0.9253945816964224,0.5009766252637716,0.40010991534523077,-0.009544295975402892,-0.010853555687697714,0.056045621804321086,0.19258279516786053,-0.20003178858593137,-0.150015827626433,0.09617175336595166,0,4.739900000002937,1.75,-3.9799747470500266e-05,-0.04997915342387482,0.9987499437230536,0.0007953315097043137
12700,-0.09832317440184803,-1.4517982471974802,1.377039655930454,-0.37149792982607976,-0.052408996222928626,-0.05660741690613064,0.9252233166112156,0.5009356991682844,0.40004956766864885,-0.008341887815294435,-0.01082721964345379,0.06128489423832073,0.18761610471533563,-0.20003496936952886,-0.15000753932285513,0.09621254216163215,0,4.72990000000296,1.75,-3.9799747470500266e-05,-0.04997915342387482,0.9987499437230536,0.0007953315097043137
12800,-0.09890422309319906,-1.452023390283396,1.377641984191114,-0.37186180078265135,-0.05246366286532777,-0.05699740394099454,0.9250500857474822,0.5009613571731059,0.4000068600118663,-0.0069691017608497045,-0.010654436098322593,0.06643968902618962,0.18070563198858128,-0.2000380014422499,-0.15000470067517085,0.09627206542579957,0,4.719900000002983,1.75,-3.9799747470500266e-05,-0.04997915342387482,0.9987499437230536,0.0007953315097043137
12900,-0.09945683620213444,-1.452155717604658,1.3779244682133105,-0.37210251781275927,-0.052525382486348554,-0.0573482361548838,0.9249280946333026,0.501013688561865,0.40000676742805624,-0.0053896682975777,-0.010356664201419107,0.07056364103288892,0.17351970775634126,-0.20003974268233327,-0.15000162369360467,0.09635117424340782,0,4.709900000003007,1.75,-3.9799747470500266e-05,-0.04997915342387482,0.9987499437230536,0.0007953315097043137
13000,-0.09987276592849542,-1.4521993171983034,1.3780164921691147,-0.3722197494226003,-0.052486694926198896,-0.05757257288636521,0.9248691820180543,0.5010751529124572,0.4000085660157288,-0.004135729165015241,-0.009770857529630942,0.07384304137909246,0.16715349340903052,-0.2000459228113805,-0.15000927738296704,0.09638283006460494,0,4.69990000000303,1.75,-3.9799747470500266e-05,-0.04997915342387482,0.9987499437230536,0.0007953315097043137
13100,-0.10002397803439063,-1.4523672709722055,1.3784642267571046,-0.37252154118153075,-0.05286916763306381,-0.05799783057564225,0.924699304702909,0.5009014858433978,0.4001750299320986,-0.003950526185543349,-0.00924784700009985,0.08550986789420217,0.15073221517170446,-0.20001852732136904,-0.15001112497143823,0.09637807046353936,0,4.689900000003053,1.75,-3.9799747470500266e-05,-0.04997915342387482,0.9987499437230536,0.0007953315097043137
13200,-0.10042007912145877,-1.4525286139537883,1.3786638480967135,-0.37279770080150293,-0.0537898138686261,-0.05891611858942237,0.9244768364710112,0.5007688700435171,0.3999960674215351,-0.004112256874224222,-0.008631766650602874,0.10246668295916844,0.12790978345206447,-0.20001800912905357,-0.150005552160464,0.09641968308402125,0,4.679900000003077,1.75,-3.9799747470500266e-05,-0.04997915342387482,0.9987499437230536,0.0007953315097043137
13300,-0.10183726671093565,-1.4523239521785885,1.3765528920669658,-0.3725739564298776,-0.05615209654961338,-0.06077275294042772,0.9243063677933374,0.5007138646327314,0.40029360453295937,-0.003501406656320998,-0.007511646557835625,0.13174302505145935,0.0764907470235874,-0.20001131525311597,-0.15000183895442565,0.09646607451236978,0,4.6699000000031,1.75,-3.9799747470500266e-05,-0.04997915342387482,0.9987499437230536,0.0007953315097043137
13400,-0.10168282131758442,-1.4508362843368947,1.371166590084674,-0.3708940426169241,-0.05963686677726641,-0.06284287217011228,0.9246252358062031,0.5004223338614221,0.4000789569471661,-0.0023230531401538077,-0.007172938328285651,0.17120003477447077,0.004139938952027737,-0.20013025725615186,-0.1500696885109732,0.09640414761905994,0,4.659900000003123,1.75,-3.9799747470500266e-05,-0.04997915342387482,0.9987499437230536,0.0007953315097043137
13500,-0.10089710500503593,-1.4497207422430116,1.367918850740258,-0.36972072678758555,-0.061037579048010604,-0.06357043330074798,0.9249539437926477,0.5004407268780703,0.4000040619189197,-0.0035074435683260918,-0.006870314334599621,0.1899608001634745,-0.02810626909364035,-0.20005051494204776,-0.1500531992333844,0.09639225703763611,0,4.6499000000031465,1.75,-3.9799747470500266e-05,-0.04997915342387482,0.9987499437230536,0.0007953315097043137
13600,-0.10332828814724737,-1.4521659247257974,1.3722647252701528,-0.3723644841935573,-0.06134548286238524,-0.06443266682257492,0.9238126726180897,0.5015058047942235,0.4000884084270061,-0.0007837344463999781,-0.010793906361790978,0.20889945667403448,-0.043470079553680006,-0.20011746755242385,-0.14805797347231014,0.09628983929853066,0,4.63990000000317,1.75,-3.9799747470500266e-05,-0.04997915342387482,0.9987499437230536,0.0007953315097043137
13700,-0.1033813206417627,-1.4520735791153805,1.372626207766266,-0.372230141992221,-0.06137116211031179,-0.06464052260825998,0.9238505856958753,0.5006793866711511,0.400037053577081,-0.00024737681112063425,-0.009328351214243759,0.21281725139824934,-0.0485986112338471,-0.20002368970650727,-0.1500687256983505,0.09612617640808815,0,4.629900000003193,1.75,-3.9799747470500266e-05,-0.04997915342387482,0.9987499437230536,0.0007953315097043137
13800,-0.10303548206831425,-1.4519904218310034,1.3720277350578909,-0.37202571773627324,-0.062051826127512054,-0.06480574515656426,0.9238758853935707,0.5003941240157957,0.4001975920155973,-0.00016601311066271457,-0.008784324047235443,0.2291622911884173,-0.0743102944353146,-0.20001752936018294,-0.1500508463453309,0.09618577344772752,0,4.619900000003216,1.75,-3.9799747470500266e-05,-0.04997915342387482,0.9987499437230536,0.0007953315097043137
13900,-0.10272668107182588,-1.451977545236196,1.3723100288913945,-0.3721003466756109,-0.06160058580663338,-0.06459364531910032,0.9238908814446434,0.5006294935821709,0.40002599935482935,-0.0003405247508791722,-0.008664489437860077,0.240837052452922,-0.08913228110708575,-0.2000059166137042,-0.15003665063284957,0.09627034629659671,0,4.60990000000324,1.75,-3.9799747470500266e-05,-0.04997915342387482,0.9987499437230536,0.0007953315097043137
14000,-0.10232520363675325,-1.4519489520006525,1.3727825731964318,-0.37219841279334764,-0.061074753237347706,-0.06431975927074882,0.9239053980784303,0.5006669705673399,0.40003003278885824,-0.000559094748286928,-0.007489235334498058,0.2500436200091843,-0.10210073921732928,-0.2000107838347725,-0.1500827778097308,0.09639043330690049,0,4.599900000003263,1.75,-3.9799747470500266e-05,-0.04997915342387482,0.9987499437230536,0.0007953315097043137
14100,-0.10234700689361562,-1.451888576129744,1.3730152589297315,-0.3722452570756641,-0.06071785223160624,-0.06426490571461443,0.9239138666015059,0.5006718886275915,0.4000707958354351,-0.0009299199264874053,-0.001965894012041501,0.25003981311809315,-0.11012459552183518,-0.2000245782194517,-0.1500762886383003,0.09656557270016412,0,4.589900000003286,1.75,-3.9799747470500266e-05,-0.04997915342387482,0.9987499437230536,0.0007953315097043137
14200,-0.10237550909222853,-1.451812672620949,1.373285204122356,-0.37232272626267887,-0.06031376994840991,-0.06420961860965334,0.9239129621024588,0.5007751136900982,0.40004152783560654,-0.001148912074208458,0.0029240841968291823,0.25000916206515544,-0.1172003621186705,-0.2000058239911783,-0.15004274501222659,0.09672145911696066,0,4.57990000000331,1.75,-3.9799747470500266e-05,-0.04997915342387482,0.9987499437230536,0.0007953315097043137
14300,-0.10223531146649054,-1.451757807408293,1.3737254501382985,-0.3724118060891938,-0.05976356341361265,-0.06405135760943124,0.9239237992182475,0.5007974621920134,0.40002964320583556,-0.0009670501057209663,0.00668630133261027,0.2500040291702949,-0.1228877488320489,-0.20000534954814517,-0.15003113321996642,0.09681175111261545,0,4.569900000003333,1.75,-3.9799747470500266e-05,-0.04997915342387482,0.9987499437230536,0.0007953315097043137
14400,-0.10207676938494192,-1.4517059338164566,1.3742099253779037,-0.3725080349117153,-0.059199227411991615,-0.06387968228464562,0.9239332235563609,0.500790884760319,0.4000278140440362,-0.0007506175939055507,0.010338734102802978,0.2500024149830797,-0.1283810759883708,-0.20000506394453776,-0.1500240671927842,0.09688595569570589,0,4.559900000003356,1.75,-3.9799747470500266e-05,-0.04997915342387482,0.9987499437230536,0.0007953315097043137
14500,-0.10184740130942066,-1.4516635614259705,1.3747589002923073,-0.3726205357161153,-0.058594481760889355,-0.06366723110615544,0.9239410732038508,0.5007807470541036,0.4000284942008577,-0.0005020167749597021,0.01380678517185429,0.25000240701221127,-0.1335309153977301,-0.20000586044067065,-0.15002203262902564,0.09695536455071874,0,4.54990000000338,1.75,-3.9799747470500266e-05,-0.04997915342387482,0.9987499437230536,0.0007953315097043137
14600,-0.10155807302020349,-1.451631587230685,1.3753479175568117,-0.3727415826918187,-0.05795790951333217,-0.06342145281402943,0.9239493019534136,0.5007720849434635,0.4000274969702059,-0.0002323968598433619,0.017115977904448177,0.2500014393994285,-0.13839710487535467,-0.20000530956488669,-0.15001630057444373,0.09701669254939402,0,4.539900000003403,1.75,-3.9799747470500266e-05,-0.04997915342387482,0.9987499437230536,0.0007953315097043137
14700,-0.10113709034181644,-1.4516196074577334,1.376042375124812,-0.37288840291438646,-0.057256195702757584,-0.06310162500590864,0.9239557088666206,0.5007575026374992,0.40003120814140447,8.622177090828915e-05,0.020183504801109923,0.2500036993456777,-0.14281640793429257,-0.2000081096454055,-0.15001885546019733,0.09708439766249821,0,4.529900000003426,1.75,-3.9799747470500266e-05,-0.04997915342387482,0.9987499437230536,0.0007953315097043137
14800,-0.10064528260692034,-1.4516201923906427,1.3767765296011831,-0.3730446840968453,-0.056518404683700806,-0.06274324883036321,0.9239624550409532,0.5007514993302608,0.4000306673636977,0.0004287955871485941,0.023083427078907967,0.25000303813994057,-0.14694615534263572,-0.20000749688802408,-0.15001351337835736,0.0971471253605699,0,4.5199000000034495,1.75,-3.9799747470500266e-05,-0.04997915342387482,0.9987499437230536,0.0007953315097043137
14900,-0.10013436981544241,-1.4516237638508598,1.3775199658802468,-0.3732028934750354,-0.05577386302584465,-0.06237515623199255,0.9239687312837325,0.5007461169587006,0.4000287948331864,0.0007772586214200915,0.025923871120820622,0.25000195685557713,-0.15096953766985682,-0.20000644396574657,-0.15000822245260567,0.09720035581271017,0,4.509900000003473,1.75,-3.9799747470500266e-05,-0.04997915342387482,0.9987499437230536,0.0007953315097043137
15000,-0.0990881429049008,-1.4517881207041297,1.3783303171918344,-0.3733518100749093,-0.0552642391983917,-0.06177390790024378,0.9239795853168749,0.5006190176927467,0.40000965092403795,0.001074696414608069,0.028932692977385738,0.2500044311379597,-0.1534338633156216,-0.20000480260089445,-0.15001362802058832,0.09722389727969605,0,4.499900000003496,1.75,-3.9799747470500266e-05,-0.04997915342387482,0.9987499437230536,0.0007953315097043137
15100,-0.09778568075520869,-1.4518972316966656,1.3797695688293303,-0.37368927192332624,-0.0539707093558707,-0.06096258011608078,0.9239735139096947,0.500638801205432,0.40001884817790667,0.0018621416644374424,0.029866548526702386,0.25000020823204605,-0.15422577994771253,-0.20000678234738814,-0.15001237568335324,0.09715282412997722,0,4.489900000003519,1.75,-3.9799747470500266e-05,-0.04997915342387482,0.9987499437230536,0.0007953315097043137
15200,-0.09659925004311147,-1.4519684622966635,1.3809647817047666,-0.37395937712320154,-0.052836515736594335,-0.060235281251242334,0.9239774876905971,0.5006248664875215,0.40010713187611524,0.0024237865611111144,0.03142817374238886,0.2500074333035825,-0.15622036813408827,-0.20003022658546124,-0.15000146872518072,0.09710900559254532,0,4.479900000003543,1.75,-3.9799747470500266e-05,-0.04997915342387482,0.9987499437230536,0.0007953315097043137
15300,-0.09578941058150574,-1.451962161978667,1.3815190696639248,-0.3740466376514894,-0.05219651211428892,-0.05976880653477295,0.9240088347792608,0.5006555948519165,0.40008642667431016,0.0026419620449843733,0.03474664321025617,0.25000880231459666,-0.1617885948625915,-0.20000350987064233,-0.15000083329189637,0.09712658150893591,0,4.469900000003566,1.75,-3.9799747470500266e-05,-0.04997915342387482,0.9987499437230536,0.0007953315097043137
15400,-0.09494550547810773,-1.4519533334420065,1.3820952576890788,-0.374123481202637,-0.051562172054649934,-0.05929397522021501,0.9240439317090997,0.5006575511775265,0.4000248067494715,0.002903664362723397,0.03801485750060296,0.25001235424907564,-0.16724719935838447,-0.20003617395548554,-0.15001469059279984,0.09715556613869789,0,4.459900000003589,1.75,-3.9799747470500266e-05,-0.04997915342387482,0.9987499437230536,0.0007953315097043137
15500,-0.09405230127284263,-1.4519246623600235,1.3825997767547353,-0.37419632865148583,-0.05092679108037263,-0.058809353090282415,0.9240806401841279,0.5006300546023396,0.40014028783323224,0.003118640536565074,0.04107729292356316,0.25001125992036266,-0.17260485598051423,-0.2000407396624817,-0.15001918632629763,0.09719305639396991,0,4.449900000003613,1.75,-3.9799747470500266e-05,-0.04997915342387482,0.9987499437230536,0.0007953315097043137
15600,-0.0931320852538103,-1.4518960599414283,1.383152537088255,-0.37424975554295403,-0.05029452421677723,-0.05831665922547119,0.9241248555074295,0.5006364128029496,0.40002383183431317,0.003435460220571906,0.04417884054761066,0.25001494060471524,-0.17795133156879972,-0.20002367204642538,-0.15002231261424764,0.09723402933041046,0,4.439900000003636,1.75,-3.9799747470500266e-05,-0.04997915342387482,0.9987499437230536,0.0007953315097043137
15700,-0.09217580463484992,-1.451852123933701,1.3836531208357643,-0.3742886400700504,-0.04966498073482019,-0.05781578745481157,0.9241746254491638,0.5006053590302498,0.40000793832739956,0.0036921886593321057,0.047185169061792,0.2500113121990436,-0.18318447349119116,-0.2000531903366986,-0.1500181485528232,0.09727635307218498,0,4.429900000003659,1.75,-3.9799747470500266e-05,-0.04997915342387482,0.9987499437230536,0.0007953315097043137
15800,-0.09119722422552877,-1.4517133447925625,1.3838115988360882,-0.374208335697827,-0.04921612113132883,-0.05738445198451717,0.9242580373388621,0.5005429000560783,0.40003590783622145,0.003748558243159899,0.05064791050086126,0.25000703827976745,-0.1895969508986642,-0.20001469248169704,-0.15001807336604478,0.09731927421496837,0,4.4199000000036825,1.75,-3.9799747470500266e-05,-0.04997915342387482,0.9987499437230536,0.0007953315097043137
15900,-0.09001232094464977,-1.4512911442921126,1.3828792021401675,-0.3737587703924089,-0.04936023294878204,-0.05717353712635864,0.92444531239574,0.5004279536660624,0.4001570787511865,0.0033841900823614974,0.055248505062628094,0.25000508429998214,-0.19940510228097633,-0.2000734779708218,-0.15003022999944501,0.09736257279011092,0,4.409900000003706,1.75,-3.9799747470500266e-05,-0.04997915342387482,0.9987499437230536,0.0007953315097043137
16000,-0.08869063036868373,-1.451369024679996,1.3840372702264934,-0.37405764507602474,-0.048152640088157284,-0.056402116743165864,0.9244355048566717,0.5006937021155025,0.4000579255353295,0.0036895389781987824,0.05683133329018694,0.24950060063396734,-0.20016672548696332,-0.20000094981877728,-0.15011527391396812,0.09746441251420843,0,4.399900000003729,1.75,-3.9799747470500266e-05,-0.04997915342387482,0.9987499437230536,0.0007953315097043137
16100,-0.08755860913514692,-1.4514553469739913,1.3851457819329651,-0.3743943486153717,-0.04705901339720766,-0.05571165610825617,0.924397388765583,0.5009534699939998,0.40007197834398844,0.005305247149922842,0.057528450116948966,0.2474645914856471,-0.20023240069133671,-0.20008936065010238,-0.15014878506269247,0.09755905671289969,0,4.3899000000037525,1.75,-3.9799747470500266e-05,-0.04997915342387482,0.9987499437230536,0.0007953315097043137
16200,-0.08683259543824806,-1.4515102964000755,1.38587659311968,-0.3745773814653197,-0.046332468071306254,-0.05524856637642493,0.9243877344547339,0.5010335802883817,0.4000757152623794,0.008784516772393627,0.05782587152880071,0.24236895252122037,-0.20023616234157485,-0.2000932469198991,-0.15013669583523234,0.09767775320458312,0,4.379900000003776,1.75,-3.9799747470500266e-05,-0.04997915342387482,0.9987499437230536,0.0007953315097043137
16300,-0.08611016943456752,-1.4515580478069012,1.3866558491611116,-0.37473367302737676,-0.04560765433192924,-0.05478428217843179,0.9243880670973335,0.5009893906593313,0.4000756633807913,0.012206079115811095,0.05824771602304863,0.2373122212484444,-0.20023709738393397,-0.20008078364180834,-0.15012842087409634,0.09782386877992102,0,4.369900000003799,1.75,-3.9799747470500266e-05,-0.04997915342387482,0.9987499437230536,0.0007953315097043137
16400,-0.08537484641750108,-1.4516040668207777,1.387433323625438,-0.3748883118227147,-0.044881911247716885,-0.054315945546023904,0.9243885253295329,0.5009444112916597,0.4000748178712177,0.015490128782303495,0.05882069278569788,0.23227258641255782,-0.2002381903122407,-0.20006831600425007,-0.15012009507095328,0.09800058365005768,0,4.359900000003822,1.75,-3.9799747470500266e-05,-0.04997915342387482,0.9987499437230536,0.0007953315097043137
16500,-0.08462393631758773,-1.4516491394244775,1.3882066227858327,-0.3750462478380047,-0.044153256847171564,-0.053842236123474586,0.9243872648958583,0.5009162225700065,0.4000716133101887,0.018659123797054734,0.05948662288770212,0.22727855370593444,-0.2002301163263497,-0.2000615732532537,-0.1501128491536864,0.09819614595862541,0,4.349900000003846,1.75,-3.9799747470500266e-05,-0.04997915342387482,0.9987499437230536,0.0007953315097043137
16600,-0.08385982807811598,-1.45169492888754,1.3889789968121173,-0.37520631705069196,-0.043422602326634134,-0.05336371564660287,0.9243846661995357,0.5008963480049395,0.4000678373853227,0.021779095693736376,0.06012733222615787,0.22238690475288372,-0.20021878305349763,-0.200057373251561,-0.1501051882303448,0.09838226257658433,0,4.339900000003869,1.75,-3.9799747470500266e-05,-0.04997915342387482,0.9987499437230536,0.0007953315097043137
16700,-0.08308402488287996,-1.4517414304096476,1.3897513857223172,-0.3753665495461063,-0.04269092807602937,-0.05288089666716643,0.9243814412403216,0.5008777103558119,0.4000640833837287,0.02485825781242843,0.06073749710287539,0.21759613057896487,-0.20020780160283627,-0.20005323427646485,-0.15009797102590894,0.09855868403398278,0,4.329900000003892,1.75,-3.9799747470500266e-05,-0.04997915342387482,0.9987499437230536,0.0007953315097043137
16800,-0.08229682740851164,-1.451788593211214,1.3905235841237455,-0.37552681184206554,-0.04195837410473026,-0.052393863461855934,0.924377623864707,0.5008601167290289,0.4000603159625807,0.027898900382184757,0.06131674528364107,0.21290288306734487,-0.20019709381953335,-0.2000491401207192,-0.1500911446283831,0.09872593566725096,0,4.319900000003916,1.75,-3.9799747470500266e-05,-0.04997915342387482,0.9987499437230536,0.0007953315097043137
16900,-0.08149847652707962,-1.451836407854443,1.3912950316426977,-0.3756870497841848,-0.04122507294410686,-0.05190269779673502,0.9243732168051113,0.5008439866647221,0.400056522337977,0.03090269091903932,0.0618646781786548,0.208304166403118,-0.2001866649364343,-0.20004507840379046,-0.15008468869896313,0.09888449772724474,0,4.309900000003939,1.75,-3.9799747470500266e-05,-0.04997915342387482,0.9987499437230536,0.0007953315097043137
17000,-0.08082416878175612,-1.451884746031137,1.3918544143275744,-0.37582032955898836,-0.04063816998917525,-0.051497450684766494,0.9243676928598675,0.5009370710028446,0.40001213297909605,0.03446605834250167,0.06226137055947471,0.2026414777073349,-0.20015094456152935,-0.20000237886459737,-0.15011349948121427,0.09902495406572344,0,4.299900000003962,1.75,-3.9799747470500266e-05,-0.04997915342387482,0.9987499437230536,0.0007953315097043137
17100,-0.08024204100151792,-1.451899942895023,1.3922576431921967,-0.37589921780436675,-0.040210946420249874,-0.05117683943283326,0.924372105241022,0.5009533231384233,0.40001291100690683,0.03863584071468823,0.06252169075484244,0.19593876669017204,-0.200147878380005,-0.20000086931401587,-0.15010540909113013,0.09912375561724544,0,4.2899000000039855,1.75,-3.9799747470500266e-05,-0.04997915342387482,0.9987499437230536,0.0007953315097043137
17200,-0.07960168931866189,-1.4518966393161647,1.392645091344227,-0.37595522029753575,-0.03980009602219782,-0.0508515470477652,0.9243850630827524,0.500923692979428,0.4000123823034128,0.042794416790014354,0.06278738921615275,0.18923483605606398,-0.20015273203931674,-0.20000465824579045,-0.1501122226774058,0.09923868332800843,0,4.279900000004009,1.75,-3.9799747470500266e-05,-0.04997915342387482,0.9987499437230536,0.0007953315097043137
17300,-0.07891267657820243,-1.4518776869317636,1.3929438912918874,-0.37599348424147344,-0.03943395575818255,-0.050538265192787125,0.9244023727211663,0.5009293353239053,0.40001303244586434,0.046960502260301296,0.06305959202924374,0.18233786610232275,-0.20014687300818249,-0.20000454098517206,-0.1501007934314599,0.09935703788038425,0,4.269900000004032,1.75,-3.9799747470500266e-05,-0.04997915342387482,0.9987499437230536,0.0007953315097043137
17400,-0.07799676117500609,-1.4516539619948592,1.3926494291706801,-0.3757914293519261,-0.039549752073225496,-0.05048768779871393,0.924482348191312,0.5007229524597089,0.4000239451331363,0.04986557186287919,0.06340475174638227,0.1768331856284934,-0.20013093015086497,-0.20000685084382272,-0.15005822766078183,0.09944184140480686,0,4.259900000004055,1.75,-3.9799747470500266e-05,-0.04997915342387482,0.9987499437230536,0.0007953315097043137
17500,-0.07629640241983472,-1.4516092589559286,1.39305185264336,-0.3758931383721174,-0.03895010816296366,-0.04990668409691485,0.9244980045848149,0.5009560462459001,0.4000131785374462,0.05417933789957913,0.06416171991701516,0.16914494986907763,-0.20014207222717156,-0.20000861261844835,-0.15008674205616387,0.09958128904192003,0,4.249900000004079,1.75,-3.9799747470500266e-05,-0.04997915342387482,0.9987499437230536,0.0007953315097043137
17600,-0.07540142799097023,-1.451472627533526,1.3931182508332278,-0.37581439438494857,-0.03871325603533005,-0.04965104346881087,0.924553729462315,0.5008629495443826,0.4000150617833537,0.05794418465891331,0.06441593193829,0.16268594905346645,-0.20012298870506537,-0.20001444137918353,-0.15006707617261364,0.09969224402723248,0,4.239900000004102,1.75,-3.9799747470500266e-05,-0.04997915342387482,0.9987499437230536,0.0007953315097043137
17700,-0.07489132331281419,-1.4511619993165927,1.3912113758988032,-0.37533869015907767,-0.04026636444625047,-0.0502613382904179,0.9246476547513685,0.501016578794255,0.4000161076721913,0.060246966556818944,0.06594953487973348,0.15384031765973913,-0.200130981846899,-0.200099751871716,-0.15007895573091076,0.09980204669516284,0,4.229900000004125,1.75,-3.9799747470500266e-05,-0.04997915342387482,0.9987499437230536,0.0007953315097043137
17800,-0.07381643521996993,-1.4511236983274873,1.3917114190842184,-0.3753707923617401,-0.03970969711084767,-0.04982549918045761,0.9246822848030032,0.5008890324831226,0.40001914680802225,0.06302611081767809,0.0664434897628853,0.14930266796157962,-0.20012628176917097,-0.20001589231216702,-0.15006956526117848,0.09991333942369268,0,4.219900000004149,1.75,-3.9799747470500266e-05,-0.04997915342387482,0.9987499437230536,0.0007953315097043137
17900,-0.07245115028871144,-1.4509826915933335,1.391758414224902,-0.37531765777164555,-0.03945661884212196,-0.049494518598976446,0.9247324605652215,0.5009114453089893,0.4000205492251353,0.06686170886705797,0.06672432755817351,0.1426367696452467,-0.20012636914486617,-0.20001359386937054,-0.15006037815700146,0.10003006827079307,0,4.209900000004172,1.75,-3.9799747470500266e-05,-0.04997915342387482,0.9987499437230536,0.0007953315097043137
18000,-0.07111954040301506,-1.4506591411697813,1.3911794378770554,-0.37499480432021126,-0.03974689468320356,-0.04947014550019986,0.9248523048574177,0.5006557772368915,0.40001421200217696,0.069513051886015,0.0670622354518571,0.13718698075595592,-0.2001086325170508,-0.20008270887462634,-0.15004510459353462,0.10001769019916555,0,4.199900000004195,1.75,-3.9799747470500266e-05,-0.04997915342387482,0.9987499437230536,0.0007953315097043137
18100,-0.07009678438906973,-1.4502918369677111,1.3901186595799437,-0.37461699640151097,-0.04029610057277606,-0.0496135533503861,0.9249739594224734,0.5006571945620105,0.40001350462849733,0.07150771213327196,0.06739760297276,0.131944581810975,-0.2001108660527953,-0.20004588490528818,-0.15004878600468524,0.10001632624741108,0,4.189900000004219,1.75,-3.9799747470500266e-05,-0.04997915342387482,0.9987499437230536,0.0007953315097043137
18200,-0.06902311751005197,-1.4499014538903268,1.3889649766372767,-0.37420750140474773,-0.04088040914927113,-0.049759057720565325,0.9251062502301913,0.5006700785616431,0.4000149548826632,0.07351157704424553,0.06770131224569369,0.12654175924357505,-0.20011250527324181,-0.19999523278661377,-0.150047950132059,0.10001528468390454,0,4.179900000004242,1.75,-3.9799747470500266e-05,-0.04997915342387482,0.9987499437230536,0.0007953315097043137
18300,-0.06780030857370338,-1.4494193433987839,1.3874459972223554,-0.3736927673754144,-0.041675778036775794,-0.049973759885129254,0.9252672416438816,0.5007336813768009,0.40001096855827417,0.07593541974271317,0.06796710943099153,0.11992464888040986,-0.2001277270937812,-0.19999483103244978,-0.15005973522322624,0.10001756248704675,0,4.169900000004265,1.75,-3.9799747470500266e-05,-0.04997915342387482,0.9987499437230536,0.0007953315097043137
18400,-0.0663552176337357,-1.4487826838423832,1.3853270361828274,-0.37298794508551314,-0.042823224450729704,-0.05030843555671869,0.9254810779158935,0.5008269990722074,0.4000066380160525,0.07906291297104037,0.06824514218902038,0.11120088734720313,-0.20012229811340998,-0.20014580613649113,-0.15005305800957422,0.10001754440524867,0,4.1599000000042885,1.75,-3.9799747470500266e-05,-0.04997915342387482,0.9987499437230536,0.0007953315097043137
18500,-0.06457689042784319,-1.4479426902142856,1.3824223539430656,-0.3720344776009305,-0.04438945127830267,-0.050771099416551634,0.9257657476680851,0.5009854039009835,0.4000068717762115,0.08301911421547555,0.06850532377870515,0.0997850054740471,-0.20015219827127675,-0.20012232249101927,-0.1500645401322411,0.10001955438081489,0,4.149900000004312,1.75,-3.9799747470500266e-05,-0.04997915342387482,0.9987499437230536,0.0007953315097043137
18600,-0.06023233146975685,-1.4463096742816077,1.3771454003281385,-0.3701019225936924,-0.0472412392019185,-0.051364539872792,0.9263662970201236,0.5008389669075053,0.40000630236284207,0.08822572112378366,0.07113706540153833,0.0793699484841027,-0.2001191592632998,-0.20012101154377102,-0.15006809946689323,0.10002756619271998,0,4.139900000004335,1.75,-3.9799747470500266e-05,-0.04997915342387482,0.9987499437230536,0.0007953315097043137
18700,-0.0584705304868315,-1.4455265594256497,1.3746226672236141,-0.36921025592948997,-0.04855026662515647,-0.05169933707706319,0.9266357628933274,0.5008591435572267,0.4000077532210484,0.09159974467607868,0.0714115566611293,0.0694524710958265,-0.20013446314419447,-0.20009214814463894,-0.1500646214112492,0.10001876914895118,0,4.129900000004358,1.75,-3.9799747470500266e-05,-0.04997915342387482,0.9987499437230536,0.0007953315097043137
18800,-0.056693721807302866,-1.4448185616579785,1.3724908302780214,-0.3683807797178164,-0.04965885641991604,-0.051922728373390445,0.9268946161197739,0.5007018408500971,0.40000772843414223,0.09447260291718043,0.07165837071921669,0.06101913229734003,-0.20010183777783233,-0.20006422361561713,-0.15004548262707176,0.10001324640506105,0,4.119900000004382,1.75,-3.9799747470500266e-05,-0.04997915342387482,0.9987499437230536,0.0007953315097043137
18900,-0.055379751490732064,-1.4444645382468382,1.3717833143665077,-0.3679756996587278,-0.04998726710369492,-0.05184898573101931,0.9270419840907089,0.5003685930613947,0.4000331345228424,0.09541972523658737,0.07217218311917725,0.057604818168707085,-0.20010952308365798,-0.2000466030322128,-0.15003984222073846,0.10001317618123987,0,4.109900000004405,1.75,-3.9799747470500266e-05,-0.04997915342387482,0.9987499437230536,0.0007953315097043137
19000,-0.05421552162481864,-1.4442806333348885,1.371747022177537,-0.36777431827917895,-0.049969067034020584,-0.051632812680303834,0.9271349393743908,0.5000210749766361,0.39996041906074764,0.0958613636968327,0.07228383589587974,0.05658947112969646,-0.20007436880437546,-0.20002584331318998,-0.15003793346436403,0.10001169627373416,0,4.099900000004428,1.75,-3.9799747470500266e-05,-0.04997915342387482,0.9987499437230536,0.0007953315097043137
19100,-0.052729186426239576,-1.4440810402636275,1.3715945229719675,-0.3675713225150748,-0.04996513193022002,-0.051356061736774976,0.9272310194221304,0.5000181259857471,0.3995538606751301,0.09640681781775695,0.07216120803277522,0.05567611822538213,-0.2000958982757721,-0.20001019981330384,-0.15004034246289136,0.10001117297004322,0,4.089900000004452,1.75,-3.9799747470500266e-05,-0.04997915342387482,0.9987499437230536,0.0007953315097043137
19200,-0.03903641173975464,-1.4441236457264934,1.372572992349977,-0.367591668970191,-0.04952208997386828,-0.04746706789187081,0.9274539368475817,0.5000963462747772,0.3999398769444632,0.09905461659523639,0.07234720858123478,0.04589413408999279,-0.20010971337825167,-0.20000427198451137,-0.15003761782310893,0.10000943120279898,0,4.079900000004475,1.75,-3.9799747470500266e-05,-0.04997915342387482,0.9987499437230536,0.0007953315097043137
19300,-0.02087802131555538,-1.4407081618627475,1.3641290884172956,-0.3625819740422696,-0.05776361455965945,-0.04707347402767617,0.928968118384899,0.5000023712463981,0.3997445163394851,0.11323045689985396,0.07515712240085524,-0.010058392098011858,-0.20005661595296587,-0.20005817054068295,-0.15004215291408218,0.10000929183326612,0,4.069900000004498,1.75,-3.9799747470500266e-05,-0.04997915342387482,0.9987499437230536,0.0007953315097043137
19400,0.005708526738017013,-1.4359288457650046,1.3584458339263543,-0.35687317903390536,-0.05985492351230061,-0.04187349495883633,0.9312923991086275,0.5000093355683984,0.38259276775361106,0.11780286177583744,0.09371708270899089,-0.03822997013695563,-0.20006204280144083,-0.19999959019649513,-0.15001935034471478,0.1000038954975147,0,4.059900000004522,1.75,-3.9799747470500266e-05,-0.04997915342387482,0.9987499437230536,0.0007953315097043137
19500,0.005853898092127376,-1.4356850563379477,1.3582634908182483,-0.35678179313625014,-0.060032780714216076,-0.04193567479024465,0.9313131677937811,0.5000193234352602,0.3830246472515029,0.11837614882675428,0.09449553197899815,-0.04165840393782386,-0.20000697568602707,-0.2000002094012655,-0.1500011112847289,0.10000004477268727,0,4.049900000004545,1.75,-3.9799747470500266e-05,-0.04997915342387482,0.9987499437230536,0.0007953315097043137
19600,0.007545070824307862,-1.4339875498321055,1.3561049278773207,-0.3558280248539361,-0.06251763259429755,-0.04281514929234811,0.9314745435783122,0.500000009277025,0.3833531893750769,0.12457388566902111,0.09476788394126481,-0.057765959586405624,-0.20000320545418698,-0.19998675147511946,-0.14980809279594617,0.09997305119881547,0,4.039900000004568,1.75,-3.9799747470500266e-05,-0.04997915342387482,0.9987499437230536,0.0007953315097043137
19700,0.011731304428900446,-1.4301184572132202,1.3501274066254174,-0.3529676153165909,-0.06908345874247214,-0.0451219836500859,0.9319899918225397,0.5000008121453956,0.38335783846137866,0.13607808585349163,0.09476808857210832,-0.09109629772565012,-0.20000447683538916,-0.20000159595820022,-0.14987542197003542,0.09997896063600273,0,4.0299000000045915,1.75,-3.9799747470500266e-05,-0.04997915342387482,0.9987499437230536,0.0007953315097043137
19800,0.01288680648621748,-1.4288759074245263,1.3491290878648174,-0.3524013689511671,-0.07055464752253252,-0.04561916513336531,0.9320698518066387,0.5000068096248381,0.38418741257432504,0.1390947422731865,0.09476824398155125,-0.10078482652880914,-0.20000530673119116,-0.19999991383844795,-0.14975751380426347,0.0999560637670469,0,4.019900000004615,1.75,-3.9799747470500266e-05,-0.04997915342387482,0.9987499437230536,0.0007953315097043137
19900,0.013953481084910728,-1.4276907991932126,1.3483031489981228,-0.351952272193959,-0.07184036764794414,-0.046052247615601664,0.932120029912065,0.5000010861230824,0.3850930257486464,0.14178358526091203,0.09479242952324472,-0.1095869694563381,-0.20000293184246676,-0.19986387213997622,-0.1495072709256952,0.09990727757848909,0,4.009900000004638,1.75,-3.9799747470500266e-05,-0.04997915342387482,0.9987499437230536,0.0007953315097043137
20000,0.01721188789010806,-1.4247186456774568,1.3449881400278836,-0.35001467186772645,-0.07648509738922493,-0.047604706878031866,0.9324020330510574,0.500009430407951,0.38534984331915695,0.14867532622531196,0.09476888520296728,-0.13166886388722063,-0.20000156413715423,-0.19998737792323265,-0.14950257335144543,0.0998973194224975,0,3.999900000004661,1.75,-3.9799747470500266e-05,-0.04997915342387482,0.9987499437230536,0.0007953315097043137
20100,0.018399814532435915,-1.423554386008837,1.3441483163274346,-0.34960252874516884,-0.07791224944098729,-0.04808622316647217,0.9324137860540314,0.5000100006581643,0.3872508107808625,0.15000855528922785,0.09470792644508333,-0.14028339164899384,-0.200121628166532,-0.19922037333479165,-0.14871527471037307,0.09973033848878429,0,3.98990000000464,1.75,-3.9799747470500266e-05,-0.04997915342387482,0.9987499437230536,0.0007953315097043137
20200,0.018666479540557442,-1.4230573494435648,1.3447132061312965,-0.3500778418339968,-0.07765137028289243,-0.047995343401201,0.9322618818560807,0.5000331405413146,0.38838995209364596,0.15077731546546463,0.09490456533861635,-0.14205136939814558,-0.20000573545205777,-0.19930341808837745,-0.14840998683508702,0.09964830850358686,0,3.9799000000046187,1.75,-3.9799747470500266e-05,-0.04997915342387482,0.9987499437230536,0.0007953315097043137
20300,0.018924059855292292,-1.4225390383482404,1.3452928423185166,-0.35056040574894914,-0.07740488866376584,-0.04791227796661729,0.932105304540282,0.5000315141017241,0.3895592548249871,0.15156444415046355,0.09514573674081152,-0.1438501454020786,-0.20000135651252365,-0.1993173269760791,-0.14808870776277472,0.09955108648994314,0,3.9699000000045976,1.75,-3.9799747470500266e-05,-0.04997915342387482,0.9987499437230536,0.0007953315097043137
20400,0.01918610217316776,-1.4220211582148206,1.3458832211223053,-0.3510540710711,-0.07715517525676481,-0.047827319232427945,0.9319445614684086,0.5000350557071469,0.39072097124547944,0.15232985247281547,0.09544560541326925,-0.14562096352740336,-0.20000303696579297,-0.19936861644182222,-0.147744092630328,0.09944999617850357,0,3.9599000000045765,1.75,-3.9799747470500266e-05,-0.04997915342387482,0.9987499437230536,0.0007953315097043137
20500,0.019438076684183767,-1.4215160647940694,1.3464610088979818,-0.35153548111329885,-0.07690588370911972,-0.04774424862931856,0.9317879465265596,0.5000366513299169,0.3918706876946062,0.1531226892520713,0.095638683534516,-0.1473444432099963,-0.20000258826756287,-0.1993919162179493,-0.14737259372073375,0.09933718219082377,0,3.9499000000045554,1.75,-3.9799747470500266e-05,-0.04997915342387482,0.9987499437230536,0.0007953315097043137
20600,0.019698562389011912,-1.4210059160403195,1.347037455841346,-0.3520179136431156,-0.07666238613099677,-0.047672037043818026,0.9316295636738579,0.5000372368349029,0.3929500940585272,0.15394758417365204,0.09593060948463679,-0.14912521466321063,-0.20000235122505713,-0.1994674652122253,-0.14700236483943788,0.09923370739539633,0,3.9399000000045343,1.75,-3.9799747470500266e-05,-0.04997915342387482,0.9987499437230536,0.0007953315097043137
20700,0.019958486419050583,-1.4204974811276274,1.347627697333782,-0.352511115800412,-0.07641175972605799,-0.04759684705711229,0.9314674961387207,0.5000381980883554,0.393999488188318,0.15479940374823112,0.09628281227900545,-0.15094684771002853,-0.20000684870940078,-0.1994472476113536,-0.14672921549819795,0.09916441500107614,0,3.9299000000045132,1.75,-3.9799747470500266e-05,-0.04997915342387482,0.9987499437230536,0.0007953315097043137
20800,0.020210408278897408,-1.4199993020853028,1.3482250498253756,-0.35300831053630416,-0.07615177898812675,-0.04751864476805437,0.9313044709699697,0.5000382265305168,0.3950270785806358,0.15565546928659324,0.0966732995591842,-0.15279785855413427,-0.2000076078192235,-0.19932867859263256,-0.14649953547349226,0.09910858607771186,0,3.919900000004492,1.75,-3.9799747470500266e-05,-0.04997915342387482,0.9987499437230536,0.0007953315097043137
20900,0.02046251723371426,-1.4195038005882283,1.3488315206172117,-0.3535127752265452,-0.07588809179477095,-0.0474390899071507,0.9311386835612383,0.5000392725884041,0.3960158219376263,0.15652766929682763,0.09715280379186354,-0.15471093334470343,-0.20000770279748595,-0.19915057301230946,-0.1462751004265386,0.0990546378836039,0,3.909900000004471,1.75,-3.9799747470500266e-05,-0.04997915342387482,0.9987499437230536,0.0007953315097043137
21000,0.020711782406271764,-1.4190118246841499,1.3494431870048458,-0.35402078162022343,-0.07562170973070194,-0.04735957076792373,0.9309713820816886,0.5000358262830277,0.3969854163690386,0.1574086058204965,0.09769702943286902,-0.15670220503187102,-0.2000058754477937,-0.1988641912378436,-0.14606731640715676,0.0989998839625672,0,3.89990000000445,1.75,-3.9799747470500266e-05,-0.04997915342387482,0.9987499437230536,0.0007953315097043137
21100,0.020958088871966006,-1.4185279153387276,1.3500696135657335,-0.3545412062088054,-0.07534208786776032,-0.0472751495980523,0.930800281008882,0.500040169207694,0.3979328005447719,0.15826551656881183,0.0983035307704901,-0.15864880608471588,-0.20000640731827277,-0.1985817308722607,-0.14584002935835394,0.09894119412346239,0,3.889900000004429,1.75,-3.9799747470500266e-05,-0.04997915342387482,0.9987499437230536,0.0007953315097043137
21200,0.0211563365645807,-1.4182980503004592,1.350222241146095,-0.3546893313765595,-0.07542397076294151,-0.04728983650270594,0.9307364687200924,0.5000270017510385,0.39747250434385767,0.1590932989003331,0.09947763015653129,-0.16058903208581063,-0.20000230561018761,-0.19825372907514832,-0.14560744286584482,0.09888048330335589,0,3.8799000000044077,1.75,-3.9799747470500266e-05,-0.04997915342387482,0.9987499437230536,0.0007953315097043137
21300,0.026809120564863197,-1.410788146176159,1.3497587272821925,-0.3549619537696273,-0.08011654847391227,-0.047221166570660646,0.9302437914140476,0.5000001133158175,0.38015987743430374,0.1780476121591356,0.14409155033735163,-0.22838477252458436,-0.19999960221676916,-0.1862929371429282,-0.1466729075191306,0.09888170251962018,0,3.8699000000043866,1.75,-3.9799747470500266e-05,-0.04997915342387482,0.9987499437230536,0.0007953315097043137
21400,0.06980517495052979,-1.400494012093445,1.3510833398990618,-0.356294940335069,-0.08540894660360478,-0.041467601424241045,0.9295373394134377,0.5000301376497186,0.38624407891209,0.19241053737590078,0.13775102598872913,-0.2500499548428633,-0.20013551817659705,-0.2000191461445383,-0.1501169460490629,0.09964497578808171,0,3.8599000000043655,1.75,-3.9799747470500266e-05,-0.04997915342387482,0.9987499437230536,0.0007953315097043137
21500,0.07394278785608616,-1.39947950959377,1.3507447400618608,-0.35612453167505026,-0.08616924352968651,-0.041139959183008556,0.9295470311754904,0.500088228896429,0.38991946357387924,0.19360164413729194,0.129904422860652,-0.250112256960957,-0.20022582786692078,-0.20004956952014818,-0.15018989049099687,0.09947557803661249,0,3.8499000000043444,1.75,-3.9799747470500266e-05,-0.04997915342387482,0.9987499437230536,0.0007953315097043137
21600,0.07632121977891103,-1.3988773738558231,1.3503547963629843,-0.3559115795786169,-0.08686763565568731,-0.04104744325463695,0.9295676784396615,0.5001094664736436,0.3928208556067108,0.19461139767091185,0.12311606733210738,-0.25008949740874237,-0.20020206818867858,-0.20007085561699248,-0.15018683678543787,0.09941834846641624,0,3.8399000000043233,1.75,-3.9799747470500266e-05,-0.04997915342387482,0.9987499437230536,0.0007953315097043137
21700,0.07883703159152693,-1.39822947940449,1.349907563226623,-0.35565261398503706,-0.08764558294735243,-0.04095654659434543,0.9295977792822518,0.5001117412701086,0.39586635162777356,0.19565439437611346,0.11591648079739396,-0.2500868257677645,-0.20019523805415101,-0.2000671039989586,-0.1501766249991302,0.09934983818756649,0,3.829900000004302,1.75,-3.9799747470500266e-05,-0.04997915342387482,0.9987499437230536,0.0007953315097043137
21800,0.08316364945254608,-1.3972086351785993,1.3491064181166175,-0.35518900642876516,-0.0891836054593327,-0.040813780910137674,0.9296350302765274,0.5001066476167274,0.39894462059608315,0.19752135496606613,0.10645227133443716,-0.25007821280055514,-0.20014312671908815,-0.2000159877317401,-0.15011653830793606,0.09924983150701602,0,3.819900000004281,1.75,-3.9799747470500266e-05,-0.04997915342387482,0.9987499437230536,0.0007953315097043137
21900,0.086449091509868,-1.3963820561592255,1.3483735404970063,-0.35480063718877775,-0.0903593105690929,-0.040716772418977504,0.9296740543264057,0.5003535454108293,0.40004271935955077,0.19986453153947634,0.09966097848054811,-0.25015266739902375,-0.20020749297267548,-0.2000105454813383,-0.15015424363369187,0.0992100470812549,0,3.80990000000426,1.75,-3.9799747470500266e-05,-0.04997915342387482,0.9987499437230536,0.0007953315097043137
22000,0.08891620201912163,-1.395637560942229,1.3479473935887025,-0.3545101066765933,-0.09093823958772128,-0.04056979824113179,0.9297348612994516,0.5004217181930448,0.4000538077806514,0.20366315759227993,0.09369618658222903,-0.25014251777741714,-0.2002020658090566,-0.20001692728524603,-0.15015729331979258,0.09897799538418253,0,3.799900000004239,1.75,-3.9799747470500266e-05,-0.04997915342387482,0.9987499437230536,0.0007953315097043137
22100,0.0906326225794332,-1.3951061971256966,1.3477068512827333,-0.3543353564686989,-0.091220500331867,-0.040407307969449385,0.9297809015773909,0.5004923495834159,0.40006279257889826,0.20605876682900992,0.09002334889420112,-0.25013347328801516,-0.20019815960929155,-0.20002196680885023,-0.15015960877246082,0.09872743324231922,0,3.789900000004218,1.75,-3.9799747470500266e-05,-0.04997915342387482,0.9987499437230536,0.0007953315097043137
22200,0.09149624517274475,-1.3947666010090176,1.3472052664869172,-0.35399304874654636,-0.09185066963150133,-0.040507862763870826,0.9298448736115468,0.5004750674616391,0.3999989776126426,0.20990709514861136,0.08371169107859629,-0.25007654938290075,-0.20013009484224406,-0.20001766550412137,-0.15010621390304899,0.09849177496415373,0,3.7799000000041967,1.75,-3.9799747470500266e-05,-0.04997915342387482,0.9987499437230536,0.0007953315097043137
22300,0.09481604648052254,-1.3935089496457018,1.3454808531450608,-0.3528391180442771,-0.0938580494571571,-0.04067985671989019,0.930075466070944,0.5005838659214991,0.40008945472403384,0.22141097969671522,0.06364298600554699,-0.25012292001823944,-0.2002296621148208,-0.20005576368243944,-0.15020952289396483,0.09850797708806451,0,3.7699000000041756,1.75,-3.9799747470500266e-05,-0.04997915342387482,0.9987499437230536,0.0007953315097043137
22400,0.09573509055540079,-1.3931239660970407,1.3448235750576019,-0.352384965193709,-0.09462446437498612,-0.04077962529928893,0.93016561386004,0.5005739772155208,0.4000748096941775,0.22546199798388764,0.05648851351474091,-0.2501179573753793,-0.20022003501063518,-0.20004955636888294,-0.15019920081903973,0.0990895591520965,0,3.7599000000041545,1.75,-3.9799747470500266e-05,-0.04997915342387482,0.9987499437230536,0.0007953315097043137
22500,0.09696064773953252,-1.392632693927649,1.3440879844001175,-0.351863593517951,-0.09547202218457215,-0.04083802781746014,0.9302738091662063,0.5005578229189069,0.400056917103497,0.22980073668602027,0.048687882643676586,-0.2501095644364087,-0.20020961011564142,-0.20004619696486298,-0.15018687670604883,0.09920525166966826,0,3.7499000000041334,1.75,-3.9799747470500266e-05,-0.04997915342387482,0.9987499437230536,0.0007953315097043137
