yifeidong0/3D-Soft-Fixture/results/StarfishBowl_18-05-2023-20-54-19_dynamics/data.csv
index,obj_pos_x,obj_pos_y,obj_pos_z,obj_qtn_x,obj_qtn_y,obj_qtn_z,obj_qtn_w,obj_joint_0_pos,obj_joint_1_pos,obj_joint_2_pos,obj_joint_3_pos,obj_joint_4_pos,obj_joint_5_pos,obj_joint_6_pos,obj_joint_7_pos,obj_joint_8_pos,obj_joint_9_pos,obs_pos_x,obs_pos_y,obs_pos_z,obs_qtn_x,obs_qtn_y,obs_qtn_z,obs_qtn_w,box_pos_x,box_pos_y,box_pos_z,box_eul_x,box_eul_y,box_eul_z
0,0.0,1.5,3.5,0.0,0.0,0.0,1.0,0.0,0.0,0.0,0.0,0.0,0.0,0.0,0.0,0.0,0.0,0,0,1,-0.14943813247359924,0.0,0.0,0.9887710779360424,0,1.5,3.0,0.0008,0,0
7,-1.5733206447944562e-37,1.5,3.49523306649397,-5.659788972938302e-20,8.159231525923356e-20,-2.9348653749933304e-38,1.0,6.295984583671217e-39,-2.4285376478965545e-20,6.463711902822772e-39,-1.9259299443872357e-35,5.6837903275565026e-39,-5.613641371155636e-19,-2.3736229361528394e-38,4.624940229997657e-19,6.331645907089758e-38,6.527224489485013e-19,0,0,1,-0.14943813247359924,0.0,0.0,0.9887710779360424,0,1.5,3.0,0.006400000000000001,0,0
14,-7.453261490164116e-37,1.5,3.4821337847569267,-5.892378078831101e-19,1.1854201961393678e-19,-1.1102818266834147e-37,1.0,3.400267656942789e-37,4.054696084725805e-20,-5.857322919591516e-37,-3.851859888774472e-35,-7.14286320118941e-38,-1.920066071328289e-18,-9.021495459972302e-37,6.295741163669261e-19,5.549116985068534e-37,6.131092929480276e-19,0,0,1,-0.14943813247359924,0.0,0.0,0.9887710779360424,0,1.5,3.0,0.012000000000000004,0,0
21,-8.82322002850128e-37,1.5,3.460720191662751,-1.4341435968574777e-18,-6.312985284725261e-20,5.284068655691458e-37,1.0,-2.762639325570858e-37,1.6319157006309719e-19,-3.1417832026844554e-36,-3.851859888774472e-35,-3.4253917355147637e-37,-2.9821809119815505e-18,-5.408136180188045e-36,8.069675678987628e-19,-6.8231932325032445e-37,3.786386637796001e-19,0,0,1,-0.14943813247359924,0.0,0.0,0.9887710779360424,0,1.5,3.0,0.0176,0,0
28,6.724286083677699e-37,1.5,3.431015803502045,-2.457627844726353e-18,-4.2553824548510346e-19,2.7267499143121517e-36,1.0,-2.9206494418173706e-36,2.3720522225829135e-19,-1.0697489500243726e-35,6.419766481290783e-36,-5.981799776201739e-37,-3.9837830577219695e-18,-9.386357287429327e-36,1.030981303530453e-18,-4.2634110059409284e-36,4.71556540777729e-19,0,0,1,-0.14943813247359924,0.0,0.0,0.9887710779360424,0,1.5,3.0,0.02319999999999999,0,0
35,6.467844198098054e-36,1.5,3.393049554482896,-3.654776433067703e-18,-1.0314638192299437e-18,5.146813857916393e-36,1.0,-3.941299758194804e-36,1.2834077102906682e-19,-1.8837342271614754e-35,-5.135813185032629e-35,-1.5184805125855431e-37,-4.761744144505272e-18,-1.9571447002116052e-35,1.0839705661119587e-18,-7.888942837128723e-36,9.021328759406297e-19,0,0,1,-0.14943813247359924,0.0,0.0,0.9887710779360424,0,1.5,3.0,0.028799999999999982,0,0
42,2.8578271476195486e-35,1.5,3.3468557212278505,-5.166949872795913e-18,-1.7923258765518173e-18,1.3543366718561384e-35,1.0,-2.195145436341247e-35,2.2132185078427414e-19,-4.7187191106682217e-35,-4.4938365369035504e-35,-6.104288791807867e-37,-5.233073037701227e-18,-5.063000633683578e-35,1.2181289745331872e-18,-3.268818475012256e-35,6.814340031360312e-19,0,0,1,-0.14943813247359924,0.0,0.0,0.9887710779360424,0,1.5,3.0,0.034399999999999986,0,0
49,6.790248188875878e-35,1.5,3.2924738336845767,-6.849034177122064e-18,-2.747818290125135e-18,2.3822564359581407e-35,1.0,-3.906221049834394e-35,1.8540145854793715e-19,-7.761645844778713e-35,-4.4938365369035504e-35,-4.180360171081478e-37,-5.272827276655219e-18,-7.425560577994528e-35,1.1668081382556093e-18,-6.57777800701891e-35,8.356342795610152e-19,0,0,1,-0.14943813247359924,0.0,0.0,0.9887710779360424,0,1.5,3.0,0.04,0,0
56,1.2612053553033354e-34,1.5,3.229948572939697,-8.714495045145763e-18,-3.766654450769683e-18,2.8393648189237896e-35,1.0,-5.13054091868776e-35,2.800402018747451e-19,-1.1216216287855772e-34,-1.9259299443872365e-35,-9.434808335594337e-37,-5.880350763598001e-18,-9.61152782296191e-35,1.4705936581507524e-18,-8.954179202585095e-35,8.718928032082837e-19,0,0,1,-0.14943813247359924,0.0,0.0,0.9887710779360424,0,1.5,3.0,0.045600000000000016,0,0
63,2.2340189672644024e-34,1.5,3.1593296564927047,-1.0769633033398993e-17,-5.059901013623886e-18,4.2359208842544076e-35,1.0,-8.585894671446994e-35,3.080542186364315e-19,-1.7512365668900495e-34,-8.018294130276587e-51,-1.1083429644045193e-36,-6.447462210234599e-18,-1.4041268107820926e-34,1.7126562215478478e-18,-1.3565110123070985e-34,9.87087801323035e-19,0,0,1,-0.14943813247359924,0.0,0.0,0.9887710779360424,0,1.5,3.0,0.05120000000000003,0,0
70,0.00010072740767303792,1.4992744182002025,3.0915454881152935,0.02104646207798904,-0.0022122314738386665,8.175038918558752e-05,0.9997760478140991,1.2472808636878272e-06,-0.000738988768313539,-0.00027522977659942863,-0.03475355299401564,-5.1362671586372764e-05,-0.024114673954074774,-0.0001534986765436898,0.022409732507657085,-0.0001703388743955933,0.03868161089975233,0,0,1,-0.14943813247359924,0.0,0.0,0.9887710779360424,0,1.5,3.0,0.056800000000000045,0,0
77,0.0004765535997389795,1.4984808773109013,3.0706773222560053,0.05070991965999564,0.006635221964038735,0.0004325889700654954,0.9986912890099461,0.0005698819535515846,-0.0015084634515469576,-0.00038089508040035935,-0.012254534504858004,-0.00029959088172603466,-0.03952034253113963,-0.0009276624128212937,0.03280324018369203,0.0010969384565226678,0.007605289309290043,0,0,1,-0.14943813247359924,0.0,0.0,0.9887710779360424,0,1.5,3.0,0.06240000000000006,0,0
84,0.0005443448706703378,1.4985009558456082,3.0700657090184955,0.050588782411150675,0.011884377624773445,0.0006782683463879256,0.9986486252004152,0.0005725313856227849,0.04651893618734848,-0.00037203254571319003,0.003962915400340924,-0.0002888085640753404,-0.042121026508098396,-0.0011629332320668812,0.034041939467057525,0.0010938590446966246,-0.005970428531203096,0,0,1,-0.14943813247359924,0.0,0.0,0.9887710779360424,0,1.5,3.0,0.06800000000000003,0,0
91,0.0005463655338732426,1.4983870157603985,3.070076338981453,0.0534081443063037,0.011936234313216089,0.0007193320308141904,0.9985011662454915,0.0005553943102722569,0.06907478944189956,-0.0003981005491182259,0.003460554830279815,-0.00031492041720391676,-0.0428235093554488,-0.0011590042349269743,0.034191190225735316,0.0010879159035306594,-0.005972363250557206,0,0,1,-0.14943813247359924,0.0,0.0,0.9887710779360424,0,1.5,3.0,0.0736,0,0
98,0.0005464288776123913,1.4982739362543003,3.0700880284611793,0.05619967012477113,0.01193672697642277,0.0007545014862913424,0.9983479064707175,0.0005346798105752003,0.07556356693811975,-0.0004334552782003953,0.0031245407727424706,-0.0003442171065069273,-0.04582529501089762,-0.0011551745653868475,0.03419136657926426,0.001082512396055842,-0.00597382476520081,0,0,1,-0.14943813247359924,0.0,0.0,0.9887710779360424,0,1.5,3.0,0.07919999999999996,0,0
105,0.0005365959885141676,1.498195286244928,3.070088684587062,0.05815427003337124,0.011690085613963444,0.0007723631403362589,0.998238862312224,0.0005305779242834075,0.07556297486505406,-0.0004462251093799534,0.0031214383568256452,-0.00035043736226861923,-0.04983409140000839,-0.0011543648481678501,0.031787092735922735,0.001082616620239406,-0.0077175535829006004,0,0,1,-0.14943813247359924,0.0,0.0,0.9887710779360424,0,1.5,3.0,0.08479999999999993,0,0
112,0.000508364410720618,1.4981754383538701,3.0700707755968737,0.05868918961225836,0.010987270681356758,0.0007655442295755954,0.9982155442827284,0.0005254034273246369,0.0755200957764926,-0.0004586953773471095,0.003415671813269048,-0.000360686144897212,-0.05297011122840944,-0.0011552114508520382,0.02524507882170447,0.0010818455445037102,-0.0123682253410337,0,0,1,-0.14943813247359924,0.0,0.0,0.9887710779360424,0,1.5,3.0,0.0903999999999999,0,0
119,0.0005019238224245901,1.4980987728220154,3.0700722829094595,0.060596688379089735,0.010826288910561454,0.0007846931270949129,0.9981033098244935,0.0005190521577354977,0.06804528794051248,-0.0004718829325514084,0.003817101795891239,-0.00036613368429709337,-0.05296965119939285,-0.001156115941347533,0.022869285511823437,0.001078920447829907,-0.014340654218996258,0,0,1,-0.14943813247359924,0.0,0.0,0.9887710779360424,0,1.5,3.0,0.09599999999999986,0,0
126,0.0004974122982939752,1.4979986984555669,3.070084279609563,0.06306000648620744,0.010710903580398994,0.0008062757509555849,0.9979519337352197,0.0005155005494572733,0.05581464415673444,-0.0004840819142919266,0.003812552571366995,-0.00036202242691317043,-0.05297089515025305,-0.0011563445787189628,0.02189915583996976,0.0010782129195077387,-0.014997160381569504,0,0,1,-0.14943813247359924,0.0,0.0,0.9887710779360424,0,1.5,3.0,0.10159999999999983,0,0
133,0.0004948861337781729,1.497891954244409,3.0700994344237302,0.06567813318301188,0.010644806695452643,0.0008303473892027106,0.997783734801898,0.0005122718833022634,0.039982181699699935,-0.0004960852918974788,0.003798009445463799,-0.00036067203270518045,-0.05297474062722525,-0.0011560791331114806,0.021380816447356805,0.0010788132967620323,-0.015335034921417485,0,0,1,-0.14943813247359924,0.0,0.0,0.9887710779360424,0,1.5,3.0,0.1071999999999998,0,0
140,0.0005114592422590293,1.4979532199077237,3.070149706109543,0.0684541378064664,0.010591292308118911,0.0008633399957578942,0.9975976694983149,0.0005103161314882437,0.023520323167768024,-0.0005047807959410042,0.003652235283050828,-0.0003709598327784581,-0.05298703692634912,-0.0011516730126631756,0.021252998056759696,0.001083233649684376,-0.015305049022986026,0,0,1,-0.14943813247359924,0.0,0.0,0.9887710779360424,0,1.5,3.0,0.11279999999999976,0,0
147,0.0005117404195823362,1.497964186279644,3.070172866303964,0.07123216717078745,0.010569826338598686,0.0008945809806387905,0.9974033571510544,0.0005107621108790363,0.014268920652423949,-0.0005046593174568775,0.003622373573880542,-0.00037864363845448976,-0.05299483788144989,-0.0011490511675569695,0.021210781704516863,0.0010833997918121307,-0.015284288034889194,0,0,1,-0.14943813247359924,0.0,0.0,0.9887710779360424,0,1.5,3.0,0.11839999999999973,0,0
154,0.0005113027964363916,1.4978494364491874,3.0701947576104893,0.07401581843011652,0.01055504951703622,0.000920733100372,0.9972007830935407,0.0005101411201938141,0.009064479904411815,-0.0005066759383071616,0.0035913753687756103,-0.00037842571849670587,-0.053004574843729814,-0.0011486810990227834,0.021176127899411118,0.0010848914320158178,-0.015277009550698542,0,0,1,-0.14943813247359924,0.0,0.0,0.9887710779360424,0,1.5,3.0,0.1239999999999997,0,0
161,0.000510975779331131,1.497734363805649,3.0702175576435127,0.07680008412126374,0.010545258039979667,0.0009514476574078718,0.9969902905039709,0.0005010636689384265,0.006171104938052882,-0.0005275959849825293,0.003575195947014509,-0.00038142411422621025,-0.05301025636261835,-0.0011498772121494513,0.021153083879459893,0.001081349882195604,-0.015273992326783434,0,0,1,-0.14943813247359924,0.0,0.0,0.9887710779360424,0,1.5,3.0,0.12959999999999966,0,0
168,0.0005107281552018345,1.4976189610317887,3.0702412180546617,0.07958391447950583,0.010538165178414638,0.0009836502798911627,0.9967719799748176,0.0004897807481176295,0.004571985942599632,-0.00055780443180755,0.0035675740506915473,-0.0003866919341369408,-0.0530128675257276,-0.001154228376876989,0.021135223625678892,0.001075142398633939,-0.015274449636076545,0,0,1,-0.14943813247359924,0.0,0.0,0.9887710779360424,0,1.5,3.0,0.13519999999999963,0,0
175,0.0005097602376769836,1.4975008405096286,3.0702653793429,0.08236602618766733,0.010534022042605631,0.0010107094168432936,0.9965459600922243,0.0004886306517256579,0.0037024563519766733,-0.00057011940531209,0.003569058269114416,-0.00038638382276788623,-0.053015820048295574,-0.0011590724268447103,0.021118807092730483,0.0010726275287164945,-0.015281208939537721,0,0,1,-0.14943813247359924,0.0,0.0,0.9887710779360424,0,1.5,3.0,0.1407999999999996,0,0
182,0.0005076414201385568,1.497371959726106,3.0702888421943713,0.08514619297753873,0.010531642749205844,0.0010372956415530257,0.9963122674845406,0.0004878339264443492,0.003247762027237954,-0.0005730591452968708,0.003576752542289296,-0.00037836222459756763,-0.05301928807231271,-0.001162710619171392,0.021102245353279467,0.0010730420610587485,-0.015294017409601757,0,0,1,-0.14943813247359924,0.0,0.0,0.9887710779360424,0,1.5,3.0,0.14639999999999956,0,0
189,0.0005068171963909276,1.4972423765727527,3.0703126650366146,0.08791240725293314,0.010534600208175647,0.0010643967276355638,0.9960719341036843,0.000496170091759117,0.0031311480700031056,-0.0005777881894313345,0.003612428304554056,-0.00035687148637131587,-0.05302505666331288,-0.0011730287711039615,0.02106291798765021,0.0010824761619300195,-0.015346921451544095,0,0,1,-0.14943813247359924,0.0,0.0,0.9887710779360424,0,1.5,3.0,0.15199999999999952,0,0
196,0.0005051772631407165,1.497099490031925,3.0703353124423667,0.09068183965573658,0.010535207457681573,0.001091731250359418,0.9958235895395087,0.0004971338746164233,0.0030970336736052284,-0.0005736475527984712,0.0036374169504754046,-0.000348323336961044,-0.05302984858910525,-0.0011791984401848287,0.02102750535077475,0.0010868923051197247,-0.015387758274156971,0,0,1,-0.14943813247359924,0.0,0.0,0.9887710779360424,0,1.5,3.0,0.1575999999999995,0,0
203,0.0005036325837315891,1.4969544055883905,3.07035841582618,0.09345649687739152,0.010533540772832684,0.0011193722641057815,0.9955670116651755,0.000498005986279105,0.003075976744804906,-0.0005683738227501534,0.003650604723084657,-0.0003412040514704549,-0.05303348155562705,-0.0011835162958918994,0.02100304743063482,0.0010891421334483147,-0.015411136078887054,0,0,1,-0.14943813247359924,0.0,0.0,0.9887710779360424,0,1.5,3.0,0.16319999999999946,0,0
210,0.0005023085203994047,1.4968077406680578,3.07038198829456,0.09623426299320541,0.010530684555229854,0.0011473165306777906,0.995302343498563,0.0004988945103844248,0.003063161980236136,-0.0005623683999763592,0.0036570788627972024,-0.00033489805860308726,-0.0530361449526703,-0.0011866578228659583,0.02098618935252912,0.0010900390966049976,-0.01542363974803889,0,0,1,-0.14943813247359924,0.0,0.0,0.9887710779360424,0,1.5,3.0,0.16879999999999942,0,0
217,0.0005012621124255688,1.4966598914379075,3.0704060406654436,0.09901376016674342,0.010527199013157884,0.001175556199133156,0.9950296837010455,0.0004998348418185823,0.0030555685103822593,-0.0005559062972712995,0.003659717901510849,-0.00032903290709164495,-0.05303806000383916,-0.0011890588856370943,0.02097453250677627,0.0010900762441907726,-0.015429346444099882,0,0,1,-0.14943813247359924,0.0,0.0,0.9887710779360424,0,1.5,3.0,0.1743999999999994,0,0
224,0.000500143331249663,1.4965114042603191,3.070430622048512,0.10179360406137106,0.010523101077301568,0.0012045200174872295,0.9947491521220017,0.0004969202677313324,0.0030531053395267023,-0.0005510107084926374,0.003660096628055718,-0.00032262294239613704,-0.05303874529366324,-0.0011918315137128687,0.02096484133903863,0.0010865809089412553,-0.015431710409438406,0,0,1,-0.14943813247359924,0.0,0.0,0.9887710779360424,0,1.5,3.0,0.17999999999999935,0,0
231,0.0004989840663937114,1.4963624332275978,3.0704557562706363,0.10457380419960857,0.010518941789668779,0.001233972705272097,0.9944607325833486,0.000491367947750064,0.0030526958363664724,-0.0005476749119804223,0.003659582014832274,-0.00031527845734456093,-0.05303947234528463,-0.0011950468265682955,0.02095813157959087,0.001080640110028913,-0.015431366337409179,0,0,1,-0.14943813247359924,0.0,0.0,0.9887710779360424,0,1.5,3.0,0.18559999999999932,0,0
238,0.0004981221328965027,1.4962128451313246,3.0704814076434843,0.10735423078719403,0.010514917802997948,0.0012636443959397514,0.9941644274658628,0.00048604971175489304,0.0030524066114832526,-0.0005445959434340113,0.003658691001286993,-0.00030755776305334216,-0.05304071143022537,-0.0011983365153391272,0.020954326670785183,0.0010745161116820412,-0.015428767058796889,0,0,1,-0.14943813247359924,0.0,0.0,0.9887710779360424,0,1.5,3.0,0.1911999999999993,0,0
245,0.0004975564418154303,1.496062685926163,3.0705075718930206,0.11013445123781751,0.010510936624017081,0.0012935520495390245,0.9938602766913093,0.00048086536074668965,0.003052213079856151,-0.000541747590924818,0.0036575835466516873,-0.0002995196954968855,-0.05304222497894219,-0.001201848877203052,0.020952292511412892,0.0010681930090199118,-0.015424811359728946,0,0,1,-0.14943813247359924,0.0,0.0,0.9887710779360424,0,1.5,3.0,0.19679999999999925,0,0
252,0.0004972857166211818,1.4959119796688216,3.0705342445915726,0.11291419299771352,0.010506939136492931,0.0013237047869606154,0.9935483063521844,0.00047575546463141024,0.003052098661007742,-0.0005391096113008105,0.003656351407841899,-0.000291200383300728,-0.05304387817106665,-0.001205673477291659,0.020951333718324472,0.0010616629641253502,-0.015420045579036942,0,0,1,-0.14943813247359924,0.0,0.0,0.9887710779360424,0,1.5,3.0,0.20239999999999922,0,0
259,0.0004973150706837106,1.495760601199198,3.070561399587672,0.11569317620937052,0.010502794310779726,0.0013538620280167347,0.9932285473886975,0.0004719131835950767,0.00305241465351375,-0.0005357095137430866,0.0036548025842259263,-0.0002819406092315914,-0.05304521627981854,-0.0012093012383186485,0.020950536483265315,0.0010555751508174015,-0.015414925608302585,0,0,1,-0.14943813247359924,0.0,0.0,0.9887710779360424,0,1.5,3.0,0.20799999999999919,0,0
266,0.0004976734140548243,1.4956083318361535,3.070588964461604,0.11847111070464286,0.01049833001545563,0.0013836447570564452,0.9929010356135606,0.00047126103199645545,0.003053867513827638,-0.0005299647323756999,0.0036526280477026233,-0.00027058199620929864,-0.053045552806044206,-0.0012118354659440282,0.020948991872964222,0.0010509489922075385,-0.01540978667780766,0,0,1,-0.14943813247359924,0.0,0.0,0.9887710779360424,0,1.5,3.0,0.21359999999999915,0,0
273,0.0004983475249616431,1.4954555047131424,3.0706170114729203,0.1212481904252933,0.010493777070392356,0.0014136460755624196,0.9925657452109466,0.00047080738689787675,0.0030554832406955025,-0.0005241814088998576,0.003650438516045573,-0.0002588990896271986,-0.05304585637348477,-0.0012146175849634731,0.020947657638478154,0.0010462616389126332,-0.015404508401791209,0,0,1,-0.14943813247359924,0.0,0.0,0.9887710779360424,0,1.5,3.0,0.21919999999999912,0,0
280,0.000499394455945688,1.4953021945099192,3.0706449089600154,0.12402474397169333,0.01048921718652033,0.001444021454323971,0.9922226332873129,0.00047011636968739015,0.0030575207898820194,-0.0005186476453084584,0.0036489808355929425,-0.00024744462059816984,-0.053045851491958486,-0.0012178712314152335,0.02094831819757686,0.0010410823050807437,-0.01539755956268584,0,0,1,-0.14943813247359924,0.0,0.0,0.9887710779360424,0,1.5,3.0,0.22479999999999908,0,0
287,0.0005009372600451203,1.4951486036275945,3.070672586975132,0.12680122451841516,0.010484782630785961,0.0014752436206808932,0.9918716360749888,0.0004675974887846013,0.003058609729181894,-0.0005149523864475096,0.00364847524750744,-0.00023886012156122444,-0.05304601628407339,-0.001222235559710035,0.020952421296382192,0.001035013058161435,-0.015387905931036294,0,0,1,-0.14943813247359924,0.0,0.0,0.9887710779360424,0,1.5,3.0,0.23039999999999905,0,0
294,0.0005034829143080969,1.4949938709449828,3.0707002299112096,0.12957637920111822,0.01047990238392409,0.0015064724683084847,0.9915129167791278,0.0004694120028844931,0.0030623957258202714,-0.0005073537975603585,0.0036476339955710275,-0.00023304358805653646,-0.05304477047239322,-0.001223622937709835,0.020955695009156963,0.001032765719863705,-0.015378160312758309,0,0,1,-0.14943813247359924,0.0,0.0,0.9887710779360424,0,1.5,3.0,0.23599999999999902,0,0
301,0.0005064494180360783,1.494838551919352,3.0707280893531728,0.1323507262051901,0.01047493694512816,0.001538040894970028,0.9911464046240392,0.00047133225325636454,0.0030666446847751956,-0.000499635860828672,0.0036470151844818118,-0.00022716959197221806,-0.053043277576999594,-0.001225027535939415,0.020959842742828787,0.0010303837558749624,-0.01536769803925047,0,0,1,-0.14943813247359924,0.0,0.0,0.9887710779360424,0,1.5,3.0,0.24159999999999898,0,0
308,0.0005097917901976531,1.4946826510210682,3.0707562670480955,0.1351241784544612,0.010469875888763386,0.0015699107622437756,0.9907721097588887,0.00047333538720725207,0.0030712015260534065,-0.0004918335456642079,0.0036465124099984976,-0.00022120688611066132,-0.05304163172209183,-0.0012264788171521069,0.020964556807605075,0.0010278983858879494,-0.015356790283002712,0,0,1,-0.14943813247359924,0.0,0.0,0.9887710779360424,0,1.5,3.0,0.24719999999999895,0,0
315,0.0005134979397305826,1.4945261661785372,3.0707848168549403,0.13789666792039146,0.010464709952843276,0.0016020717333774383,0.9903900404326658,0.0004754100564617305,0.003075962659567132,-0.00048396376345956056,0.0036460726463921644,-0.0002151190667528253,-0.053039890653892,-0.0012280015520753495,0.020969642003042643,0.0010253270697566823,-0.015345611642259425,0,0,1,-0.14943813247359924,0.0,0.0,0.9887710779360424,0,1.5,3.0,0.252799999999999,0,0
322,0.0005175564381622033,1.4943690944613848,3.070813766903878,0.1406681403095462,0.010459430485399402,0.0016345116967442733,0.9900002035289125,0.0004775581393873993,0.003080859977032965,-0.0004760562117527079,0.003645664000068578,-0.0002089078672941374,-0.05303808503782511,-0.001229588100914355,0.02097496759052574,0.0010227042106352095,-0.015334271589225859,0,0,1,-0.14943813247359924,0.0,0.0,0.9887710779360424,0,1.5,3.0,0.2583999999999992,0,0
329,0.0005219530881408036,1.4942114208977286,3.0708431298357475,0.14343853727836198,0.010454019472780098,0.0016671696965295316,0.9896026071335451,0.00048002036401876386,0.0030858965289074884,-0.00046848324692287826,0.0036452425334391166,-0.00020250042019256763,-0.05303617686586492,-0.0012311184639617583,0.020980382021805986,0.0010202146178250706,-0.015322852010917825,0,0,1,-0.14943813247359924,0.0,0.0,0.9887710779360424,0,1.5,3.0,0.26399999999999935,0,0
336,0.0005266225519721486,1.4940531558555556,3.0708729128150334,0.14620782201610813,0.010448472880155069,0.0016999678958147949,0.9891972565191091,0.00048283619145062987,0.0030910590062935965,-0.0004610785625538659,0.003644774652492033,-0.0001958795777148507,-0.05303415536077901,-0.0012324210466530653,0.02098582021072587,0.0010180973089946213,-0.015311379957053093,0,0,1,-0.14943813247359924,0.0,0.0,0.9887710779360424,0,1.5,3.0,0.2695999999999995,0,0
343,0.0005314591042438647,1.4938943233611661,3.0709031233133426,0.1489759687677891,0.010442800508503042,0.0017328578556772042,0.9887841553397234,0.00048577677416020837,0.003096309741180171,-0.0004537644340006242,0.0036442788434930705,-0.00018908189197800818,-0.05303205555148336,-0.001233507682014636,0.02099127319539032,0.0010162741229520578,-0.015299875966622991,0,0,1,-0.14943813247359924,0.0,0.0,0.9887710779360424,0,1.5,3.0,0.27519999999999967,0,0
350,0.0005364201235029571,1.4937349233103054,3.0709337613539973,0.15174295191604684,0.010437007354306737,0.001765815169794973,0.9883633073511362,0.0004887913184045414,0.0031016226125409937,-0.00044653523030382616,0.0036437671437859736,-0.00018212536376950608,-0.05302989844020286,-0.001234430414621227,0.020996729904913802,0.001014661968468171,-0.015288357204890584,0,0,1,-0.14943813247359924,0.0,0.0,0.9887710779360424,0,1.5,3.0,0.2807999999999998,0,0
357,0.0005414831173505133,1.4935749507405127,3.0709648244513685,0.1545087470790352,0.01043109567787602,0.0017988245708842078,0.9879347162384714,0.0004918632173258244,0.0031069813403544902,-0.0004393796365506156,0.003643243469179837,-0.00017503465503111314,-0.05302769587785826,-0.0012352173306338242,0.021002181848854058,0.0010132240569682292,-0.015276833802098938,0,0,1,-0.14943813247359924,0.0,0.0,0.9887710779360424,0,1.5,3.0,0.2864,0,0
364,0.0005466309806159929,1.4934143994528055,3.0709963089951153,0.15727333101925897,0.010425067141307602,0.0018318743468334286,0.987498385599482,0.000494980163872313,0.003112374426732629,-0.0004322880595313691,0.003642709974794117,-0.00016783549206387304,-0.05302545641644592,-0.001235887238076204,0.021007624163830195,0.0010119341386176078,-0.015265311733812622,0,0,1,-0.14943813247359924,0.0,0.0,0.9887710779360424,0,1.5,3.0,0.29200000000000015,0,0
371,0.0005518560045916237,1.493253261538365,3.0710282104125346,0.16003668068854005,0.010418922551449437,0.001864958722169218,0.9870543190807818,0.0004981364727266178,0.0031177961978555912,-0.00042525737403261414,0.0036421682189520057,-0.00016052177535004662,-0.05302318504650285,-0.0012364574861647717,0.021013052977240758,0.0010107718344173203,-0.015253795933246422,0,0,1,-0.14943813247359924,0.0,0.0,0.9887710779360424,0,1.5,3.0,0.2976000000000003,0,0
378,0.0005571538765447451,1.4930915283383082,3.071060523587056,0.1627987735380821,0.010412662070139954,0.0018980741731124589,0.9866025203279903,0.0005013297694085723,0.0031232430351190612,-0.00041828498156558667,0.0036416184685656642,-0.00015309598196829052,-0.053020884562643276,-0.0012369357043717376,0.021018465557310406,0.001009729012679188,-0.015242289227169718,0,0,1,-0.14943813247359924,0.0,0.0,0.9887710779360424,0,1.5,3.0,0.30320000000000047,0,0
385,0.0005625220723645041,1.4929291908553701,3.071093243070596,0.16555958735858117,0.010406285505806249,0.0019312185469289402,0.98614299300383,0.0005045585097235639,0.0031287125139610817,-0.0004113691185462741,0.0036410603841645238,-0.00014556532411061235,-0.05301855651792196,-0.0012373239082186965,0.021023859992266126,0.0010088033168886884,-0.015230793139151983,0,0,1,-0.14943813247359924,0.0,0.0,0.9887710779360424,0,1.5,3.0,0.30880000000000063,0,0
392,0.0005679569728414663,1.4927662402331803,3.0711263632687174,0.16831910031183098,0.010399793035537062,0.0019643888191285407,0.9856757407746226,0.0005078210307333483,0.003134202280270317,-0.0004045068178222258,0.0036404942561604815,-0.00013793728478302516,-0.05301620267974425,-0.0012376264886494776,0.02102923569119095,0.0010079898524670682,-0.015219308513075083,0,0,1,-0.14943813247359924,0.0,0.0,0.9887710779360424,0,1.5,3.0,0.3144000000000008,0,0
399,0.0005734560665492099,1.492602667440451,3.0711598783944276,0.1710772906513557,0.010393184721938224,0.0019975827749253573,0.9852007673554586,0.0005111161138522937,0.0031397108150538642,-0.0003976961752303404,0.0036399202710362625,-0.00013021576631889017,-0.053013824303926295,-0.0012378468828495434,0.02103459228074193,0.0010072847481319871,-0.015207835881901706,0,0,1,-0.14943813247359924,0.0,0.0,0.9887710779360424,0,1.5,3.0,0.32000000000000095,0,0
406,0.0005789246717532069,1.4924375168803363,3.071193444792425,0.1738341298661784,0.010386463432860855,0.002031381107838724,0.9847180764877941,0.0005141797809917901,0.0031452463950219552,-0.0003917534239734492,0.00363968413544401,-0.00012366822260952804,-0.05301166574547518,-0.0012388885198304838,0.021040089526669425,0.00100571742460652,-0.015196564585132558,0,0,1,-0.14943813247359924,0.0,0.0,0.9887710779360424,0,1.5,3.0,0.3256000000000011,0,0
413,0.0005848856744306242,1.4922684334146834,3.071226248595683,0.17658959851819178,0.0103794377105036,0.0020672993431273164,0.9842276704306903,0.0005174820004682828,0.00315083259778901,-0.00038822304953000394,0.0036399248087478743,-0.00011791374629368057,-0.05300985628442969,-0.001241416533091629,0.021045781585177132,0.0010031398737055356,-0.015185703312519096,0,0,1,-0.14943813247359924,0.0,0.0,0.9887710779360424,0,1.5,3.0,0.33120000000000127,0,0
420,0.0005893075685218117,1.4920917611942175,3.071257000496662,0.17934372187658523,0.010371901378655549,0.0021052414003070543,0.9837295466965968,0.0005182067857204113,0.0031562827939358522,-0.0003906194381031632,0.0036399994525617737,-0.00011665860887184275,-0.05300810142780933,-0.0012431573980006974,0.02105135581676814,0.001000040458139503,-0.01517508803272547,0,0,1,-0.14943813247359924,0.0,0.0,0.9887710779360424,0,1.5,3.0,0.33680000000000143,0,0
427,0.0005896463232342682,1.4919022688968047,3.071283730585317,0.18209651668933746,0.010364093676461811,0.0021433222012214367,0.9832237031021054,0.0005176201818229046,0.0031614440496630777,-0.000395638385304662,0.003639740262661654,-0.00011893508926959447,-0.053006379698130754,-0.001243079735679868,0.021056597965674866,0.0009977325736446388,-0.015164777941941297,0,0,1,-0.14943813247359924,0.0,0.0,0.9887710779360424,0,1.5,3.0,0.3424000000000016,0,0
434,0.0005862447903286813,1.4916988422681574,3.0713058280976897,0.18484796263712136,0.010356252867097765,0.002180407284079713,0.9827101426969875,0.0005172058995002962,0.003166295148183964,-0.0003993248595777695,0.0036392066430785625,-0.00012154085884934556,-0.05300473165332428,-0.0012421503658736391,0.021061462208189486,0.0009963173354051351,-0.01515490121258426,0,0,1,-0.14943813247359924,0.0,0.0,0.9887710779360424,0,1.5,3.0,0.34800000000000175,0,0
441,0.0005797697971411687,1.4914811398236616,3.071322927584793,0.1875980294286555,0.010348468093630884,0.0022162455408006494,0.9821888702374423,0.0005171792952864604,0.003170853936623775,-0.00040161660216411,0.003638527835343924,-0.0001236381374780988,-0.05300319708402974,-0.001241094703520997,0.021065931721211684,0.0009953760179489657,-0.01514556906397964,0,0,1,-0.14943813247359924,0.0,0.0,0.9887710779360424,0,1.5,3.0,0.3536000000000019,0,0
448,0.0005706024048146938,1.4912475058390606,3.071334158689358,0.1903467016539841,0.010340787405593554,0.002250705555368763,0.9816598879498869,0.0005174570004318167,0.0031750993789980446,-0.00040295453011990535,0.0036377626424491643,-0.00012519945759461014,-0.05300179776726415,-0.0012401362912541178,0.021069975773202246,0.0009946963064063439,-0.015136882548836116,0,0,1,-0.14943813247359924,0.0,0.0,0.9887710779360424,0,1.5,3.0,0.3592000000000021,0,0
455,0.0005590112116797215,1.4909945784465186,3.0713379590939245,0.1930943702127998,0.01033362261027198,0.0022836293751514374,0.9811231143300762,0.0005204379666312361,0.0031773081018788845,-0.00040445897777594296,0.003637576757314243,-0.00012667948229933633,-0.05300157042472787,-0.0012387633567917272,0.02107520048582541,0.0009961823189934028,-0.015128433947537538,0,0,1,-0.14943813247359924,0.0,0.0,0.9887710779360424,0,1.5,3.0,0.36480000000000223,0,0
462,0.0005453037462573467,1.4907155469509257,3.071331359461199,0.19584104309249906,0.010327090900463479,0.0023148498964685477,0.9805785427511313,0.0005289174783762035,0.003177091276067763,-0.00040519553210376303,0.0036380800901957247,-0.0001285685830054996,-0.053002845580273295,-0.0012362473690667858,0.021081353758031485,0.0010023419812855024,-0.01512055637856925,0,0,1,-0.14943813247359924,0.0,0.0,0.9887710779360424,0,1.5,3.0,0.3704000000000024,0,0
469,0.0005295420366131661,1.490399050307266,3.071309452481227,0.1985861694626665,0.010320706563681137,0.0023441757641909757,0.9800262859506157,0.0005383050696734821,0.0031768599074356828,-0.0004038712569607025,0.0036382803880198426,-0.00013021530925411213,-0.05300410010942012,-0.0012332035056177551,0.021086045341478055,0.0010097693740853204,-0.015114559688387062,0,0,1,-0.14943813247359924,0.0,0.0,0.9887710779360424,0,1.5,3.0,0.37600000000000255,0,0
476,0.0005120828016894571,1.4900275560734109,3.0712645940102155,0.2013297615328313,0.010314373147696907,0.0023720516752964225,0.9794663415342832,0.0005476889689008544,0.003176652737982607,-0.00040156325156961753,0.0036381107542185847,-0.00013158910181447757,-0.05300515023351691,-0.0012301219750087164,0.021088780873150595,0.0010176239736606138,-0.015111282171453954,0,0,1,-0.14943813247359924,0.0,0.0,0.9887710779360424,0,1.5,3.0,0.3816000000000027,0,0
483,0.0004931864688078857,1.4895748815135583,3.071185217066808,0.2040718253969854,0.01030796327340194,0.0023990614785879658,0.97889870797561,0.0005566011409401342,0.0031765250844447727,-0.0003990491991388789,0.003637488590810938,-0.0001327568031473412,-0.05300582716426512,-0.0012269645740611542,0.02108878540212323,0.0010257347365988626,-0.015112051146817925,0,0,1,-0.14943813247359924,0.0,0.0,0.9887710779360424,0,1.5,3.0,0.3872000000000029,0,0
490,0.00047288715309936274,1.4890069272486286,3.0710558631183718,0.20681236537393693,0.010301355773528942,0.002425690167767498,0.9783233839712073,0.0005650317713469811,0.0031765378308280033,-0.0003966589865577109,0.0036362974538188676,-0.0001337934155376684,-0.053005964768055615,-0.0012233600520907015,0.02108498473426705,0.0010345154101355587,-0.015118652044255963,0,0,1,-0.14943813247359924,0.0,0.0,0.9887710779360424,0,1.5,3.0,0.39280000000000304,0,0
497,0.00045166847559050785,1.488285254434115,3.0708584526939244,0.2095526927596025,0.010295010069618814,0.002454316617286751,0.9777400769400875,0.0005632833212662874,0.003171633229331066,-0.00039806352211814607,0.003635708634372889,-0.00013468068805436338,-0.05300812443674921,-0.0012235395126050106,0.021081006626925157,0.00103565678703626,-0.015131289518941634,0,0,1,-0.14943813247359924,0.0,0.0,0.9887710779360424,0,1.5,3.0,0.3984000000000032,0,0
504,0.0004290022494739764,1.4873691225359822,3.070572879890014,0.2122923936930678,0.010288933480591587,0.0024835475085575615,0.9771488675834774,0.0005603897171572971,0.0031628262936209445,-0.0004000336789546978,0.00363533420549979,-0.00013588843065208433,-0.0530117767848002,-0.0012239828307313502,0.02107374203531865,0.0010376207661789132,-0.015152873984252817,0,0,1,-0.14943813247359924,0.0,0.0,0.9887710779360424,0,1.5,3.0,0.40400000000000336,0,0
511,0.00040442715514983044,1.4862168550481145,3.0701776050711302,0.21503163227952118,0.010283234276014509,0.002513340918403221,0.9765497096049219,0.0005560708248213127,0.003149258157569544,-0.0004027265982866056,0.003635238523609643,-0.00013750907569861972,-0.05301734434207818,-0.0012247600100774012,0.021062411286415825,0.0010406193699961546,-0.015185606532724938,0,0,1,-0.14943813247359924,0.0,0.0,0.9887710779360424,0,1.5,3.0,0.4096000000000035,0,0
518,0.0003777284817145133,1.4847868371497475,3.069649996959967,0.21777062195357988,0.010278034088644613,0.002543639291469475,0.9759425434565185,0.0005499947710319152,0.0031298581111439787,-0.0004062903549923141,0.0036354974761022437,-0.00013967151999213787,-0.05302515834280711,-0.0012259504504046985,0.021046147241220937,0.0010448348831367284,-0.015231683406939098,0,0,1,-0.14943813247359924,0.0,0.0,0.9887710779360424,0,1.5,3.0,0.4152000000000037,0,0
525,0.00034868315756838816,1.4830379473148494,3.068966500815461,0.2205095586424524,0.01027346827003309,0.0025742999640424474,0.9753273108945071,0.000541859869017368,0.0031035627947329767,-0.0004108373708420046,0.003636175227438712,-0.0001424322293746756,-0.05303561672825215,-0.0012276445139189614,0.021023992659098788,0.001050480495217972,-0.015293404732193993,0,0,1,-0.14943813247359924,0.0,0.0,0.9887710779360424,0,1.5,3.0,0.42080000000000384,0,0
532,0.0003170793825313883,1.480929811793043,3.068102748022949,0.22324864202583805,0.010269705847547323,0.002605031961565057,0.9747039503274332,0.000531366939608815,0.0030692662778882803,-0.0004164634021823868,0.0036373401484644757,-0.00014582638802553924,-0.05304912482082658,-0.0012299342112242137,0.020994950587738974,0.0010577816686484632,-0.015373134970090074,0,0,1,-0.14943813247359924,0.0,0.0,0.9887710779360424,0,1.5,3.0,0.426400000000004,0,0
539,0.0002827353559241309,1.478422932591809,3.067033619528107,0.2259880786047614,0.010266952934322204,0.0026353905857638936,0.974072396037601,0.0005182146501678043,0.003025818123605178,-0.0004232545296728168,0.00363906233555968,-0.00014987507596498774,-0.05306609470118941,-0.0012329125801731774,0.020957985389634844,0.0010669758703578138,-0.015473308383993651,0,0,1,-0.14943813247359924,0.0,0.0,0.9887710779360424,0,1.5,3.0,0.43200000000000416,0,0
546,0.0002396836717953176,1.4755197199335945,3.065739991969282,0.22873457911755762,0.010277398702210274,0.0026426915601989254,0.9734309855213914,0.0004946951339243066,0.0029680520768969767,-0.0004459526096367746,0.003668630727943387,-0.00018711001897758804,-0.053075073057085205,-0.0012340869235894314,0.020951558719477067,0.0010718079452493813,-0.015573044393326275,0,0,1,-0.14943813247359924,0.0,0.0,0.9887710779360424,0,1.5,3.0,0.4376000000000043,0,0
553,0.0001034381879803728,1.4726697936157762,3.0644262649392755,0.2314943058204282,0.010385556952171453,0.0023240034429004804,0.972778045387286,0.000446501489913148,0.002912248551994641,-0.0005160584063160587,0.0037762946403127576,-0.00032442041759161034,-0.053061308327567315,-0.0012294542487073063,0.021018492573803633,0.0010662566243440617,-0.015654130866567886,0,0,1,-0.14943813247359924,0.0,0.0,0.9887710779360424,0,1.5,3.0,0.4432000000000045,0,0
560,-0.00010291327773154028,1.4702467476075836,3.063281903056245,0.23424725148676276,0.010517963102933498,0.0018058027861227327,0.9721184787356736,0.0004221390623171756,0.002890389902423369,-0.0005356695370155954,0.0038422563374500094,-0.0004941740966306913,-0.053052369482055,-0.001226609118990068,0.021988644497451196,0.0010599833950726506,-0.01569718658781245,0,0,1,-0.14943813247359924,0.0,0.0,0.9887710779360424,0,1.5,3.0,0.44880000000000464,0,0
567,-0.0002077574360305046,1.4685384838073685,3.0624543531959967,0.23699327347971444,0.010616092166835851,0.0014441802604704833,0.9714522125435969,0.0004081348678500528,0.0028838939820540026,-0.000545519880148774,0.0039031712103411026,-0.0006383149266774317,-0.05304105672845748,-0.0012222204895885708,0.02311321286607645,0.0010576850924020756,-0.01571625626894293,0,0,1,-0.14943813247359924,0.0,0.0,0.9887710779360424,0,1.5,3.0,0.4544000000000048,0,0
574,-0.00023643220276860607,1.46694293131386,3.0616610016861134,0.23973483872357917,0.010678533096887564,0.0012666933872623768,0.9707788478953077,0.00038848939680750265,0.00287457969618193,-0.0005448380098694673,0.003966769464844141,-0.0014461769675903915,-0.053029695260523965,-0.0012227002918931804,0.02410145113102536,0.001047141487787459,-0.015744396092192497,0,0,1,-0.14943813247359924,0.0,0.0,0.9887710779360424,0,1.5,3.0,0.46000000000000496,0,0
581,-0.0002603773238783256,1.4652040995508284,3.0607758736912647,0.24247422491563964,0.010718966915011306,0.0012170468656969703,0.9700978676384983,0.000358469644077908,0.002859469486139121,-0.0005541407327150516,0.004039483065381054,-0.0029835994048491715,-0.053018606505119484,-0.0012226649580483245,0.02513919391996841,0.001032907228218057,-0.01579129368702816,0,0,1,-0.14943813247359924,0.0,0.0,0.9887710779360424,0,1.5,3.0,0.4656000000000051,0,0
588,-0.0003002343244013523,1.46334315586278,3.059806745765961,0.24521154112569082,0.010739093596376035,0.00126691618467847,0.9694092876029572,0.0003190183720516156,0.0028400360448849423,-0.0005745583990023606,0.004113494466007944,-0.005087676202338271,-0.05300855962842056,-0.0012135892551971173,0.026224931426833898,0.0010142892714959302,-0.015850617101106326,0,0,1,-0.14943813247359924,0.0,0.0,0.9887710779360424,0,1.5,3.0,0.4712000000000053,0,0
595,-0.000375171443246631,1.4614537933169476,3.0587990531542544,0.24794652227558214,0.010752521062911047,0.0013359177380729134,0.9687131261142449,0.00027783385225249276,0.0028203160411098814,-0.0005999916608034458,0.004180712010447596,-0.0073780452676474526,-0.05300030997556394,-0.0012028596324239658,0.027346518487764534,0.0009950904908635455,-0.015911019513522254,0,0,1,-0.14943813247359924,0.0,0.0,0.9887710779360424,0,1.5,3.0,0.47680000000000544,0,0
602,-0.0004643991958680621,1.4595501018652826,3.0577592884911966,0.2506798135471636,0.010764230269602592,0.0014122599230582472,0.9680091776158798,0.00023558164037987153,0.0028001191974067413,-0.0006271272558643002,0.004247458617404684,-0.00976005821538099,-0.052992371316119384,-0.0011919798569857496,0.028509728058283463,0.0009755603158916096,-0.015972897989274405,0,0,1,-0.14943813247359924,0.0,0.0,0.9887710779360424,0,1.5,3.0,0.4824000000000056,0,0
609,-0.0005639322716864635,1.457634717503112,3.0566883324632728,0.25341137853865897,0.010774567445102634,0.0014940430832106088,0.9672974463725069,0.0001924481963997071,0.002779467614644909,-0.0006555224354327139,0.004314099770069406,-0.0122126995156586,-0.052984618089572055,-0.0011809798186421011,0.029714878000171634,0.0009557683017039451,-0.01603610908540835,0,0,1,-0.14943813247359924,0.0,0.0,0.9887710779360424,0,1.5,3.0,0.48800000000000576,0,0
616,-0.0006873244268203358,1.4556914750324625,3.0555781307002596,0.25614967995807714,0.010800515820866878,0.0015380906725400469,0.9665755658987356,0.00016174620541526034,0.00270946975633078,-0.0006688028656506063,0.004388280694204938,-0.014571814629171282,-0.052976205788184315,-0.001173353904517027,0.030594335914971054,0.000941737163547158,-0.016088489583293526,0,0,1,-0.14943813247359924,0.0,0.0,0.9887710779360424,0,1.5,3.0,0.4936000000000059,0,0
623,-0.0009138158137540629,1.4536075568776932,3.054364496868658,0.25896981637676847,0.011053018182125658,0.0011486179565613165,0.9658214874766653,0.00016028473667225443,0.002295926290454772,-0.0006750158270486032,0.004696839783444602,-0.015090485261017047,-0.052975185658420555,-0.0011729450996365905,0.029821882177750947,0.0009409244835471748,-0.016080452559603775,0,0,1,-0.14943813247359924,0.0,0.0,0.9887710779360424,0,1.5,3.0,0.4992000000000061,0,0
630,-0.0012542315254607161,1.451162866397391,3.0529237407354888,0.2617948535550755,0.01140735474744719,0.00038792150473123635,0.9650560483343176,0.00014835720929307292,0.001884544475855598,-0.0007000940120036098,0.005033184031872089,-0.015123011244553421,-0.05297470952370733,-0.0011720018985864372,0.02742654847549772,0.0009372469461404697,-0.01607719809219991,0,0,1,-0.14943813247359924,0.0,0.0,0.9887710779360424,0,1.5,3.0,0.5048000000000062,0,0
637,-0.0017218497698060493,1.448252264469527,3.0511888097207143,0.2646182828662562,0.011829366855166336,-0.0006791612034514363,0.964280441154325,0.00013531579063134476,0.001493035280639346,-0.0007269330663370317,0.005351314434720978,-0.015157955893856755,-0.05297438345471107,-0.0011711027650752773,0.023410700313206953,0.0009331523150277149,-0.016074623239374905,0,0,1,-0.14943813247359924,0.0,0.0,0.9887710779360424,0,1.5,3.0,0.5104000000000064,0,0
644,-0.002357913449095038,1.4450331082158394,3.0492368128883554,0.2673812314180471,0.012221392056179434,-0.0019647934905120995,0.9635113150597234,0.00011943997998902459,0.001400618885550388,-0.0007202989823684551,0.005510687110236972,-0.015728352754394128,-0.05296168481381865,-0.0011711598086989279,0.02290040837358069,0.0009268532117518867,-0.016113962384515738,0,0,1,-0.14943813247359924,0.0,0.0,0.9887710779360424,0,1.5,3.0,0.5160000000000066,0,0
651,-0.0031430852966999804,1.441474267453644,3.047044893239694,0.27013809324077703,0.012692371373244162,-0.003606611629649509,0.962731170494502,0.00010755199836803408,0.001346475404769198,-0.0007074715534220856,0.005639329903982942,-0.01598399781262533,-0.05294582076287202,-0.001172017507639997,0.02292961684186942,0.0009261563590755242,-0.01614848467656122,0,0,1,-0.14943813247359924,0.0,0.0,0.9887710779360424,0,1.5,3.0,0.5216000000000067,0,0
658,-0.004053051400803975,1.4374629908147452,3.044538530270984,0.2729015175408579,0.013259047358608406,-0.005563776869894316,0.9619345111669406,9.00674692826094e-05,0.0012828770507562108,-0.0007218363618676855,0.005788687402305862,-0.01606894806412012,-0.05292857553420193,-0.0011714002116173146,0.02295954547819623,0.0009300983123664276,-0.016182176590030316,0,0,1,-0.14943813247359924,0.0,0.0,0.9887710779360424,0,1.5,3.0,0.5272000000000069,0,0
665,-0.005113543901925112,1.4329351032638165,3.041669873989108,0.2756748110630313,0.013916161324562618,-0.007815733223706739,0.9611184387543122,7.139531070634385e-05,0.001179092468090316,-0.0007331992771488926,0.005947407725930361,-0.01615683150158211,-0.052909357001296696,-0.0011704886827889555,0.02299305835907738,0.0009333128852306192,-0.016206644179583462,0,0,1,-0.14943813247359924,0.0,0.0,0.9887710779360424,0,1.5,3.0,0.532800000000007,0,0
672,-0.0063451161051564925,1.4278781702878058,3.0384187647964582,0.27846015639469723,0.014667578529718214,-0.010370024505096283,0.9602797852878499,4.975798916425856e-05,0.0010237229620132693,-0.0007487875664597142,0.006112699156550712,-0.01625590384479749,-0.05288703097010691,-0.0011694481036777656,0.023036235303610587,0.0009347707682958307,-0.016213840716498954,0,0,1,-0.14943813247359924,0.0,0.0,0.9887710779360424,0,1.5,3.0,0.5384000000000072,0,0
679,-0.00776544558637423,1.4222665023992664,3.034756951396212,0.2812542453234975,0.015512040329846382,-0.01322896468674858,0.9594167085191042,4.062456915160488e-05,0.0008281442552857967,-0.000715025316094784,0.006274695852214251,-0.016446227990631127,-0.05286310326081841,-0.0011710569504401612,0.023073804950957795,0.0009324442301633414,-0.016206038135509786,0,0,1,-0.14943813247359924,0.0,0.0,0.9887710779360424,0,1.5,3.0,0.5440000000000074,0,0
686,-0.009395784832299596,1.4160585788946318,3.0306454724811793,0.2840551502034757,0.016445883475219955,-0.01637748982890727,0.9585269857372324,5.735391874680524e-05,0.0005989665313581166,-0.0006424793845944348,0.006423494808514809,-0.016872937744116464,-0.0528412767950748,-0.0011735900589691236,0.02309784854038695,0.0009408639242132213,-0.01618596836542296,0,0,1,-0.14943813247359924,0.0,0.0,0.9887710779360424,0,1.5,3.0,0.5496000000000075,0,0
693,-0.011249257265803565,1.409216695225194,3.02604638177752,0.2868645196786485,0.0174712548511008,-0.01980116053461592,0.9576071306360184,8.345279171138127e-05,0.00032626495206849744,-0.0005605122957725216,0.00657044876125651,-0.017625283015095746,-0.05281974632336382,-0.001176202485676464,0.02311871397752783,0.0009540573482429769,-0.01615524598338214,0,0,1,-0.14943813247359924,0.0,0.0,0.9887710779360424,0,1.5,3.0,0.5552000000000077,0,0
700,-0.013354074319689432,1.4017032672078382,3.0209203847038855,0.2896752863417276,0.01859305081796417,-0.02347970238885227,0.9566562760573151,0.0001129935060153678,6.395791958576229e-05,-0.0005004974039593573,0.006748577923190175,-0.018830574369546993,-0.05281364669226062,-0.0011775949422276211,0.02313059988545443,0.0009687352421961819,-0.01614499491665375,0,0,1,-0.14943813247359924,0.0,0.0,0.9887710779360424,0,1.5,3.0,0.5608000000000078,0,0
707,-0.015728224165259028,1.393488318246414,3.015230767113179,0.2924913449629312,0.019813497470721707,-0.027409194327849246,0.955669908758276,0.00013184565672355215,-0.0002139397187586396,-0.00046855017068545387,0.0069581813703936185,-0.020535774986917544,-0.052810137300755254,-0.0011778543677198796,0.02314740524648414,0.000977549314094163,-0.0161464798312168,0,0,1,-0.14943813247359924,0.0,0.0,0.9887710779360424,0,1.5,3.0,0.566400000000008,0,0
714,-0.01839608990490278,1.3845406454491724,3.0089402235631506,0.29531505523058915,0.021134036680192266,-0.03158838657917049,0.954643674090537,0.00013902618715746953,-0.0005300048298725424,-0.00045368649141259114,0.007195514138277005,-0.022809536832736576,-0.05280572602169447,-0.0011777752575375714,0.023173118617727684,0.0009803692566449705,-0.01615462331953243,0,0,1,-0.14943813247359924,0.0,0.0,0.9887710779360424,0,1.5,3.0,0.5720000000000082,0,0
721,-0.02138817150708794,1.3748284205651395,3.0020091965756195,0.2981470274294652,0.02255604442987174,-0.03601401518585292,0.9535735763981952,0.00013614318116958552,-0.0008927348310448336,-0.00045136986836636115,0.0074607878111737705,-0.02573799578990034,-0.05279998969948279,-0.001177456870746162,0.023209148219245444,0.0009779588887108448,-0.01616933725900087,0,0,1,-0.14943813247359924,0.0,0.0,0.9887710779360424,0,1.5,3.0,0.5776000000000083,0,0
728,-0.02473856695814559,1.3643188959603454,2.994396180726304,0.3009875581313168,0.024079635937410446,-0.040682068981479205,0.9524555791461643,0.00012428992026880956,-0.001310277779182655,-0.0004594286943137888,0.007752149220877705,-0.029416524849675538,-0.0527897162850875,-0.00117695913743523,0.023254261001108407,0.0009707477292907218,-0.01619036600996044,0,0,1,-0.14943813247359924,0.0,0.0,0.9887710779360424,0,1.5,3.0,0.5832000000000085,0,0
735,-0.028467564904812677,1.3529818190760081,2.986060199784172,0.30383119679525844,0.025685696477382905,-0.0456023825294075,0.9512871656645402,0.00012019817826489405,-0.0017908687689528672,-0.00045905369022927614,0.008004650306425486,-0.033848656091928706,-0.052661719825655554,-0.0011784296916375438,0.02325297362807074,0.0009667537308611682,-0.016197910123627115,0,0,1,-0.14943813247359924,0.0,0.0,0.9887710779360424,0,1.5,3.0,0.5888000000000086,0,0
742,-0.032567989393296796,1.3407961642147217,2.976965043228639,0.3066853637928891,0.027395745579844564,-0.050778676679811674,0.9500605700448761,0.00012639926572466414,-0.002364050783789434,-0.00044661208092956604,0.008252259781150743,-0.03892292113333983,-0.05237459376963544,-0.00118396652568161,0.023252363466833206,0.0009671602466620547,-0.016199622408698523,0,0,1,-0.14943813247359924,0.0,0.0,0.9887710779360424,0,1.5,3.0,0.5944000000000088,0,0
749,-0.03701768838646885,1.3277459245920777,2.9670766342423747,0.3095497614925174,0.029216324614289326,-0.056220575673549836,0.94877004506197,0.00013362754951797405,-0.003032660780760144,-0.00043418110621288854,0.008509256431193593,-0.044551508231772785,-0.05184733127655653,-0.001189259647078133,0.02325259107846858,0.0009682415063974487,-0.016198608559797222,0,0,1,-0.14943813247359924,0.0,0.0,0.9887710779360424,0,1.5,3.0,0.600000000000009,0,0
756,-0.041795533093321444,1.313816427421328,2.95636111732969,0.3124245756594972,0.031153745791389218,-0.06193794352201641,0.9474091089911538,0.00013897139584975661,-0.003805752865386324,-0.0004236349552046921,0.008778594624891733,-0.0506576402637737,-0.051001691720190506,-0.0011967618228583186,0.023253107867992513,0.0009672096661412873,-0.016196659694689648,0,0,1,-0.14943813247359924,0.0,0.0,0.9887710779360424,0,1.5,3.0,0.6056000000000091,0,0
763,-0.04669730396763074,1.2989861705599342,2.9447779764845374,0.31526840700417214,0.03316902339760837,-0.06799561295974108,0.9459821584206172,0.00014161314969730323,-0.0045280168502611,-0.0004228574612765878,0.008940092039950207,-0.055391351711969426,-0.050347846439583906,-0.001196815921717448,0.023029273957858927,0.0009694723003573499,-0.016201282112687433,0,0,1,-0.14943813247359924,0.0,0.0,0.9887710779360424,0,1.5,3.0,0.6112000000000093,0,0
770,-0.05095342404581905,1.2828511870311976,2.932016571683569,0.31797428834446373,0.035188511412688375,-0.07431978488479589,0.9445267016824186,0.00012651204830358686,-0.004625209651057808,-0.00044471732465195985,0.008938884083455601,-0.05541104555581789,-0.05054724740110434,-0.0011968179016379234,0.022120634279453672,0.0009628619645876899,-0.016444245350702574,0,0,1,-0.14943813247359924,0.0,0.0,0.9887710779360424,0,1.5,3.0,0.6168000000000095,0,0
777,-0.054755319095913885,1.2650432569753047,2.9177757019164603,0.32065611076267164,0.03722015196778965,-0.08060244733504601,0.9430257495962945,0.00011515713407510572,-0.004626404717122284,-0.0004629160785956411,0.008937150311151379,-0.05542800904403113,-0.05099561641792445,-0.0011969290663276654,0.020972469075939554,0.0009576396232193792,-0.01685876183386757,0,0,1,-0.14943813247359924,0.0,0.0,0.9887710779360424,0,1.5,3.0,0.6224000000000096,0,0
784,-0.05818687177006067,1.2455514966044938,2.9020018211479006,0.3233504517360413,0.03933544647527243,-0.08683370919250356,0.9414654082655192,0.00011933465522909465,-0.0046271790567918815,-0.0004558585993351148,0.008936134326174437,-0.05541843754460258,-0.051854085772942204,-0.001197041113287628,0.019773862235990813,0.0009598777117919342,-0.0175016171127664,0,0,1,-0.14943813247359924,0.0,0.0,0.9887710779360424,0,1.5,3.0,0.6280000000000098,0,0
791,-0.0613165997696913,1.22436130000375,2.8846361877162234,0.32608826246309636,0.041626536177417205,-0.0929881611040219,0.9398334312335146,0.00012709953780449507,-0.0046272505952635375,-0.0004409289090989316,0.00893601701501734,-0.05540069613022974,-0.05333763077232684,-0.0012000072004483314,0.01875096744118836,0.0009617011731163221,-0.01850840617941625,0,0,1,-0.14943813247359924,0.0,0.0,0.9887710779360424,0,1.5,3.0,0.6336000000000099,0,0
798,-0.06419008292131115,1.2014693314136162,2.865629750863983,0.3288154908030049,0.043909311406341904,-0.09911408028522793,0.9381517704875972,0.00012325581873400633,-0.004628594403785434,-0.00044044439983429963,0.008934067321321576,-0.0553947371673828,-0.05483131995151791,-0.0012146595255749962,0.01740331417094653,0.0009518223535291467,-0.019702034778510912,0,0,1,-0.14943813247359924,0.0,0.0,0.9887710779360424,0,1.5,3.0,0.6392000000000101,0,0
805,-0.06684584449438356,1.1768675002345244,2.844926766936323,0.331539900865475,0.046212200889706206,-0.1052119467925218,0.9364166662737096,0.00012435878952402776,-0.00462989305868064,-0.00043384529825794854,0.008932448181266747,-0.055382535061193255,-0.05634627785234963,-0.0012241653505072278,0.015862607884589264,0.0009466953852446208,-0.021042504043351114,0,0,1,-0.14943813247359924,0.0,0.0,0.9887710779360424,0,1.5,3.0,0.6448000000000103,0,0
812,-0.06931420801627688,1.150549672449708,2.8224720060245017,0.3342649089233646,0.04854570157740066,-0.11128176483332847,0.934626478512348,0.00013403526738487668,-0.004631943461065805,-0.00041972104749428565,0.008930233223972026,-0.05536268511403262,-0.057844330932787326,-0.0012243641119387084,0.014236138671063185,0.0009503659154804091,-0.02246113705694617,0,0,1,-0.14943813247359924,0.0,0.0,0.9887710779360424,0,1.5,3.0,0.6504000000000104,0,0
819,-0.0716195700828843,1.1225111095307672,2.7982103172194273,0.3369906811784568,0.05090881756573331,-0.11732182754722204,0.9327814116254238,0.00014098568405347973,-0.004634002559959394,-0.0004098493794312441,0.00892799665398908,-0.055347380739213504,-0.059256104085095566,-0.0012245726782654513,0.012605102821565324,0.0009527145778640013,-0.023878849182003628,0,0,1,-0.14943813247359924,0.0,0.0,0.9887710779360424,0,1.5,3.0,0.6560000000000106,0,0
826,-0.0737816336899269,1.0927483372104811,2.7720864259617257,0.3397172339305665,0.053300821209911184,-0.12333266225911158,0.9308814520920448,0.0001408366960944537,-0.004636209760093039,-0.0004094647198741249,0.008925029868843326,-0.05534082150182836,-0.060509974951542124,-0.0012288332331029913,0.011050721133881714,0.0009494459915278825,-0.0252150858391319,0,0,1,-0.14943813247359924,0.0,0.0,0.9887710779360424,0,1.5,3.0,0.6616000000000107,0,0
833,-0.07582001186211151,1.0612650331875768,2.744049404517814,0.34244454241345607,0.055723462375233374,-0.12932015584297915,0.9289256850819134,0.00013661385928080027,-0.004638104847086049,-0.0004133656386240548,0.008922177959532167,-0.055338326480179265,-0.0613225184133437,-0.0012347347124299,0.009657049720416668,0.0009430684843024321,-0.026388301512138175,0,0,1,-0.14943813247359924,0.0,0.0,0.9887710779360424,0,1.5,3.0,0.6672000000000109,0,0
840,-0.07774819797085729,1.0280604745401614,2.7140442781571106,0.34517238158928726,0.05817715225624068,-0.13528785386559,0.9269135032675792,0.0001336512581020304,-0.004640846004377656,-0.0004195573655596157,0.00891860850453358,-0.05533822140582098,-0.06162377638353434,-0.0012358993365794515,0.008506257906878027,0.0009399222225027461,-0.027317528444688776,0,0,1,-0.14943813247359924,0.0,0.0,0.9887710779360424,0,1.5,3.0,0.6728000000000111,0,0
847,-0.07957228855177495,0.9931209035399193,2.682003228813289,0.347863137101288,0.06065143263314553,-0.14123536161278047,0.924859564580323,0.00013026474558483316,-0.004639934995994364,-0.00042911788242702237,0.008912310505595666,-0.05534559627347109,-0.061646084929541746,-0.0012337765797414831,0.007572464950059092,0.0009396825947693233,-0.027992917068821187,0,0,1,-0.14943813247359924,0.0,0.0,0.9887710779360424,0,1.5,3.0,0.6784000000000112,0,0
854,-0.0812910170469298,0.9564041118711775,2.6478303680625963,0.35030458364432654,0.0631051740196224,-0.1471758622635426,0.9228454373602932,0.00013378533318151355,-0.00463806789170262,-0.00043014729440279866,0.008909697641791267,-0.055345746620839506,-0.061651765205650896,-0.001225526475368595,0.006338967699610602,0.0009459973729514677,-0.0287426857867092,0,0,1,-0.14943813247359924,0.0,0.0,0.9887710779360424,0,1.5,3.0,0.6840000000000114,0,0
861,-0.08292988474635608,0.9179262434784599,2.6114858420213434,0.3527761498129521,0.06557709521599125,-0.153088053375899,0.9207674411162464,0.00012941006247659266,-0.005318220405140623,-0.00044271436686647836,0.008856747644791056,-0.05533782483753482,-0.061662007735929045,-0.0012249718765034877,0.005647659671860049,0.0009446909490688038,-0.02898160901428666,0,0,1,-0.14943813247359924,0.0,0.0,0.9887710779360424,0,1.5,3.0,0.6896000000000115,0,0
868,-0.08451145409503688,0.8776785219406968,2.5729037195254953,0.35533748032521656,0.06806210464554244,-0.158956371262169,0.9186052999098737,0.00012682110998099328,-0.006549755646350035,-0.00045522109328720723,0.008723869982032707,-0.05531298309661708,-0.06168156466933535,-0.0012254842616492973,0.005554263070308194,0.0009430768730319166,-0.028975260319101484,0,0,1,-0.14943813247359924,0.0,0.0,0.9887710779360424,0,1.5,3.0,0.6952000000000117,0,0
875,-0.08604561134332948,0.8356471179422192,2.5320077730378334,0.35788174406742856,0.07056529291374397,-0.16477654381549697,0.9164005059511222,0.00012485611123906195,-0.007929654739233783,-0.00046608987709626,0.008592695822948955,-0.055288275570264014,-0.06170096372137357,-0.0012258770534847867,0.005477498152665088,0.0009414894706003663,-0.028969245599945043,0,0,1,-0.14943813247359924,0.0,0.0,0.9887710779360424,0,1.5,3.0,0.7008000000000119,0,0
882,-0.08753598741617591,0.7918344741800871,2.4887366708072975,0.3604067918419491,0.0730863376222888,-0.17054648244634094,0.9141549261325099,0.0001228162877868257,-0.0093756570382501,-0.0004767995599094374,0.00846656885493443,-0.05526465659111938,-0.061719984259720646,-0.0012262057132502535,0.005403895148917654,0.0009398902282177864,-0.02896341105290132,0,0,1,-0.14943813247359924,0.0,0.0,0.9887710779360424,0,1.5,3.0,0.706400000000012,0,0
889,-0.08898543151145023,0.7462447108665684,2.443029377578853,0.3629122502734485,0.07562420726595324,-0.1762642199886949,0.9118698386440002,0.00012073168856468916,-0.010810625552971062,-0.0004873221513242349,0.008345797104488137,-0.055242168936860805,-0.06173866745044992,-0.0012264716448970785,0.005333743661101475,0.0009382902841459975,-0.028957743529434646,0,0,1,-0.14943813247359924,0.0,0.0,0.9887710779360424,0,1.5,3.0,0.7120000000000122,0,0
896,-0.09039904084929706,0.6989302383437488,2.394719789083611,0.36535023797981064,0.0782290527687803,-0.1819152639501518,0.9095637721748496,0.00012134548468410334,-0.011886976420400132,-0.0004893452695450669,0.008288558070234906,-0.055227908041716504,-0.06169451926709699,-0.0012265802984527644,0.005270996564804928,0.0009381622204848394,-0.029051291229433382,0,0,1,-0.14943813247359924,0.0,0.0,0.9887710779360424,0,1.5,3.0,0.7176000000000123,0,0
903,-0.09189375214720269,0.6504865291747595,2.3420771287717583,0.3687429513558061,0.08119473891490972,-0.18736922376198664,0.9068234801684283,0.00011686840766320966,-0.012037466007275397,-0.0004935762473386289,0.0073790627666086624,-0.055230944718151785,-0.06167415973893009,-0.001231283638029881,0.005271565607524079,0.0009333841425319374,-0.029050236011676122,0,0,1,-0.14943813247359924,0.0,0.0,0.9887710779360424,0,1.5,3.0,0.7232000000000125,0,0
910,-0.09291997372202904,0.6103439415691396,2.2945102628045477,0.37407958863853275,0.08304950091221311,-0.18847861887722156,0.9042361704711848,-0.015920338844322406,-0.011543870421124947,-0.030061105160525195,0.008488459603804005,-0.054533707605145317,-0.06361615404364161,-0.009752946661836025,0.02756712497501617,-0.008275236260051198,-0.023416858596595348,0,0,1,-0.14943813247359924,0.0,0.0,0.9887710779360424,0,1.5,3.0,0.7288000000000127,0,0
917,-0.08931043597468802,0.6094478204199616,2.2871772116483906,0.3758415166079395,0.0773220867677646,-0.17131302133167164,0.9074228881915732,-0.10603317794637297,-0.0032129728037372652,-0.1953357373986657,0.005495473813203476,-0.05252337645332517,-0.06375623645996178,-0.06013245453653309,0.041236961706646466,-0.06360528642291365,-0.003073386570726898,0,0,1,-0.14943813247359924,0.0,0.0,0.9887710779360424,0,1.5,3.0,0.7344000000000128,0,0
924,-0.08542298745399991,0.6102950295440399,2.284569824199752,0.37479292763329003,0.07632792672690453,-0.1670400073742557,0.9087364551585065,-0.15147089026194097,0.0010565180661292874,-0.32546355571292707,-0.0018274918313990693,-0.009770466598547602,-0.06386475226210915,-0.07253230622677903,0.04241985985498731,-0.06659433835982712,-0.001725585466361492,0,0,1,-0.14943813247359924,0.0,0.0,0.9887710779360424,0,1.5,3.0,0.740000000000013,0,0
931,-0.08045870246556629,0.6098091481741071,2.281008229484366,0.3735654737611485,0.07692193472327241,-0.16777250654383996,0.9090567852560336,-0.17272781266907547,0.0010606195313547235,-0.4365580518124959,-0.0099222916633249,0.04318952372413803,-0.06386594110778937,-0.07256251920866615,0.046933427219901604,-0.06659685771793927,-0.0016398547479507997,0,0,1,-0.14943813247359924,0.0,0.0,0.9887710779360424,0,1.5,3.0,0.7456000000000131,0,0
938,-0.07756168731516526,0.6140916742567596,2.280450050448699,0.37265552957718157,0.08132177895504603,-0.17734527446126094,0.9072283495181337,-0.16647133967873393,0.0010645240352017901,-0.5012625795718322,-0.013972108620866033,0.12295015994349903,-0.06461578376247136,-0.04774627967594865,0.05099886288477349,-0.033673241873624596,-0.001642337454539062,0,0,1,-0.14943813247359924,0.0,0.0,0.9887710779360424,0,1.5,3.0,0.7512000000000133,0,0
945,-0.07933728246083122,0.6194732849969855,2.279697284276478,0.3721035878796539,0.0872743750699143,-0.19139089596113845,0.9040418288367178,-0.15577867676434573,0.0010639373453461924,-0.5002719961068411,-0.015257986925739266,0.20989622045281064,-0.06461836799395705,-0.006834694257693494,0.05812515660228882,0.010548720667706858,-0.0016375360803420318,0,0,1,-0.14943813247359924,0.0,0.0,0.9887710779360424,0,1.5,3.0,0.7568000000000135,0,0
952,-0.08153633697942621,0.623913985518598,2.2767495206113684,0.37300102763156373,0.0904183057534362,-0.19819026383850602,0.9018954388897301,-0.1633190750984289,0.0010629476214022169,-0.5000628131684924,-0.015258565743943103,0.2679287709164555,-0.06461540460220871,0.014715784903874221,0.06877956496810284,0.026848634135707383,-0.0016331600732000303,0,0,1,-0.14943813247359924,0.0,0.0,0.9887710779360424,0,1.5,3.0,0.7624000000000136,0,0
959,-0.08310098843607393,0.6280119374040041,2.2725822831839038,0.37486037675685735,0.09205470329488244,-0.20089680876629806,0.9003588738755872,-0.17625077547394152,0.0010623303540930162,-0.5000146612023055,-0.015260200177197371,0.3084350758184448,-0.06461466940213954,0.0240581751633526,0.08193339935044125,0.027587084512538308,-0.0016301135702345836,0,0,1,-0.14943813247359924,0.0,0.0,0.9887710779360424,0,1.5,3.0,0.7680000000000138,0,0
966,-0.08363239311396914,0.6319252139495536,2.2685593242963744,0.37647795933588185,0.09344617369703864,-0.2030512704853878,0.8990563610307992,-0.18382243502778814,0.0010619131993310443,-0.5000074887944363,-0.015262987783772435,0.34424904118396227,-0.06461925720430065,0.028995904725610366,0.09390540753076289,0.027586266526238305,-0.001625784188639717,0,0,1,-0.14943813247359924,0.0,0.0,0.9887710779360424,0,1.5,3.0,0.7736000000000139,0,0
973,-0.08344860552053913,0.6355962173468873,2.264809311505842,0.3776838270384789,0.09458988746836279,-0.20484214455812272,0.8980241510088245,-0.18595247705079887,0.0010613380183510537,-0.5000057101931618,-0.015265690080273361,0.3760314230117049,-0.06462592843607212,0.030463629590624867,0.10403415216947665,0.027581284699913913,-0.0016208530532893079,0,0,1,-0.14943813247359924,0.0,0.0,0.9887710779360424,0,1.5,3.0,0.7792000000000141,0,0
980,-0.08323708877509774,0.6388428850815802,2.261440958392503,0.3782483427158778,0.09535049373401137,-0.20626315759052896,0.8973806240376248,-0.18594984074421922,0.0010643457191257743,-0.5000017382154723,-0.015547525390408245,0.40356198916212477,-0.06462668299221762,0.030464030255779755,0.11133456629786552,0.027498416770806392,-0.001615770172680062,0,0,1,-0.14943813247359924,0.0,0.0,0.9887710779360424,0,1.5,3.0,0.7848000000000143,0,0
987,-0.08321588519068432,0.641622085530175,2.2585021509715433,0.37809010028041895,0.09568687745201034,-0.20737935081261916,0.8971542244285334,-0.18594776286245762,0.0010671855383391636,-0.5000003331753531,-0.016280103610647457,0.427004226004663,-0.06462749797099913,0.030461102329882635,0.11547849889612011,0.02748276306108489,-0.001610016786789318,0,0,1,-0.14943813247359924,0.0,0.0,0.9887710779360424,0,1.5,3.0,0.7904000000000144,0,0
994,-0.08323311612534814,0.644000240032557,2.255954754121589,0.37728207373150213,0.09561057595345,-0.2082098561054813,0.8973101528608944,-0.18594604587951422,0.0010707240329758678,-0.49999975062085433,-0.017310341646552627,0.4465549633248657,-0.06462776339204761,0.030458070840335763,0.11676507356034747,0.027477321041144958,-0.0016040918081999687,0,0,1,-0.14943813247359924,0.0,0.0,0.9887710779360424,0,1.5,3.0,0.7960000000000146,0,0
1001,-0.08316443628805811,0.6461837728619242,2.253378817013982,0.3761858516562477,0.09526491198296631,-0.2087869462686266,0.8976729987174411,-0.18594588970030662,0.0010686698064577183,-0.49999942634079503,-0.017696584720573123,0.46301813131995595,-0.06462983662556492,0.030455941019379602,0.11676028813901707,0.027118869480616384,-0.0015388604105636046,0,-0.0002,1.0,-0.14825149986939956,0.0,0.0,0.9889496917368817,0,1.5019999999999998,3.0,0.8010000000000146,0,0
1008,-0.08268356286333127,0.6481724986493155,2.246503693050923,0.37435071434377437,0.09529472975606608,-0.2093478527862306,0.8983061469704072,-0.1859477608335114,0.0010684852166167964,-0.4999957938314605,-0.01863044450001733,0.47502287290326695,-0.06463009731398454,0.03044778768965586,0.11698608389962586,0.024396850761628872,-0.0005496050430801243,0,-0.0009000000000000002,1.0,-0.14409661579933805,0.0,0.0,0.9895636236822664,0,1.508999999999999,3.0,0.8045000000000142,0,0
1015,-0.08159965199031718,0.648078177814786,2.2380343884133342,0.3720087770634195,0.09467087536171058,-0.2103810934027889,0.8991032703114106,-0.18594633806065797,0.0010684547368539723,-0.49998914667441857,-0.0231980254335868,0.4836129914843035,-0.06462963871477799,0.030443981377110674,0.1169867703512391,0.01823153422843714,0.0004108812179524848,0,-0.0016000000000000005,1.0,-0.13993918986871037,0.0,0.0,0.9901600997509893,0,1.5159999999999982,3.0,0.8080000000000138,0,0
1022,-0.08013813776119495,0.647187232794631,2.229368520037311,0.3696884465867991,0.09437524128707038,-0.21170462163739126,0.8997804840457563,-0.18594741330878406,0.0010624224100999687,-0.4999887213242177,-0.02630114240751671,0.4915178206058215,-0.06683673466445596,0.03044085530189355,0.11904384369597669,0.011912789520665637,0.00047540247577037507,0,-0.0023,1.0,-0.13577929541440217,0.0,0.0,0.9907391094212283,0,1.5229999999999975,3.0,0.8115000000000134,0,0
1029,-0.07851636647156154,0.6467131692931319,2.2211135186659265,0.36818370423173563,0.09537584526405718,-0.2130189007932123,0.8999817531390378,-0.18592428576483191,0.0010609621856571439,-0.5000504880770669,-0.02630328199379258,0.5004009988665132,-0.07203777788822771,0.030452841738922418,0.12379393770578137,0.00790341170361128,0.00048018006348352597,0,-0.0029999999999999988,1.0,-0.13161700581684366,0.0,0.0,0.9913006424792677,0,1.5299999999999967,3.0,0.815000000000013,0,0
1036,-0.07703381184627828,0.6471947219883477,2.2125065797043706,0.366675262460446,0.0962644184871525,-0.21369179751059916,0.9003433952162821,-0.18658288199336687,0.005303635297807339,-0.5000100448681897,-0.026323689933438345,0.5001186801949956,-0.07550532562056317,0.03019162548557463,0.1284569503275891,0.002933305672633742,0.0014822349048914506,0,-0.0036999999999999976,1.0,-0.1274523944987155,0.0,0.0,0.991844689019679,0,1.536999999999996,3.0,0.8185000000000127,0,0
1043,-0.07532627874011112,0.6483326794877325,2.203147679842971,0.365613362646057,0.09717616311377522,-0.21478400894002925,0.9004173986995015,-0.18658233982961794,0.010437920095603268,-0.5000012610003188,-0.02632260161821434,0.5000469467643897,-0.07738681423025238,0.030207761191099605,0.13530897198245628,-0.0008825869127000722,0.005008183193166148,0,-0.0043999999999999985,1.0,-0.12328553492365331,0.0,0.0,0.9923712394454953,0,1.5439999999999952,3.0,0.8220000000000123,0,0
1050,-0.0734218954318212,0.6495209736496069,2.1933079557320503,0.3651675969476986,0.09855421970067972,-0.21603367368148838,0.9001495118891714,-0.1865834557464725,0.01355947373320789,-0.4999999811373627,-0.02632282413508444,0.5000179102244884,-0.0801030011274757,0.030212868540102796,0.14495993934340995,-0.004118634437607326,0.009895496065318017,0,-0.0051,1.0,-0.11911650059495188,0.0,0.0,0.9928802844683808,0,1.5509999999999944,3.0,0.8255000000000119,0,0
1057,-0.07132372424443909,0.651300074583568,2.1825720321726405,0.3654841596792188,0.0997822091846096,-0.21756651871327343,0.8995163420910156,-0.18657323562022288,0.015708009474235615,-0.49999493124278166,-0.026322787876156845,0.5000176601281094,-0.08064762963123556,0.03023116508642986,0.15762267809901323,-0.006828381255467545,0.018377425649261928,0,-0.005800000000000002,1.0,-0.11494536505426874,0.0,0.0,0.9933718151087945,0,1.5579999999999936,3.0,0.8290000000000115,0,0
1064,-0.06912166751492956,0.6530775372936207,2.171559220441239,0.36593313848364717,0.10189298925463929,-0.21897537340629364,0.8987549959481929,-0.18652830711720744,0.019067517388892063,-0.5000380665091398,-0.026321753380267845,0.500032260563313,-0.08321806113801965,0.030274475051133468,0.17177615903172383,-0.00910737769096929,0.026035078570932107,0,-0.006500000000000004,1.0,-0.11077220188032667,0.0,0.0,0.9938458226961485,0,1.5649999999999928,3.0,0.8325000000000111,0,0
1071,-0.06673975535782432,0.654980811578722,2.1599972786427553,0.36706986808629777,0.10434121958216355,-0.22050554531897526,0.8976357425608653,-0.18651132464225106,0.01992244859321453,-0.5000080781697336,-0.026321925948239767,0.5000204477369656,-0.08555168663969252,0.03029425169941632,0.18873116353623584,-0.011003342257569684,0.03550898964527512,0,-0.007200000000000006,1.0,-0.10659708468761583,0.0,0.0,0.9943022988689613,0,1.571999999999992,3.0,0.8360000000000107,0,0
1078,-0.06421459437271324,0.657184241184353,2.147671855075161,0.3684687053741852,0.10715321502445395,-0.2220298235323551,0.8963547060912808,-0.18650823882271958,0.022956954723223646,-0.5000016236494353,-0.02632195792007244,0.5000094479131532,-0.08827709861564127,0.030299741727834346,0.20757020646368682,-0.012876172599568171,0.04595572840281332,0,-0.007900000000000008,1.0,-0.10242008712509526,0.0,0.0,0.9947412355750052,0,1.5789999999999913,3.0,0.8395000000000103,0,0
1085,-0.06139310867535274,0.6593451978998992,2.1346983038241696,0.37022315748826473,0.11056489798477674,-0.22348487600759917,0.8948545843816768,-0.18650542996469968,0.024070750406222738,-0.4999995190483734,-0.026320576404513185,0.5000090526904043,-0.0921306504945118,0.03188582888220036,0.22875025782452285,-0.014996832313777405,0.056674599307355814,0,-0.008600000000000003,1.0,-0.09824128287489363,0.0,0.0,0.9951626250714479,0,1.5859999999999905,3.0,0.84300000000001,0,0
1092,-0.05811799770814646,0.6609974026270553,2.12160991346499,0.3727367523822912,0.11415484262786088,-0.2238678918517264,0.8932632043949725,-0.18649517142980604,0.024405621907973542,-0.5000108683170674,-0.028089819646058986,0.5000111565302887,-0.09764018976263272,0.03366747148127515,0.2522236643875218,-0.015152748429082265,0.05872851123516454,0,-0.0093,1.0,-0.09406074565100957,0.0,0.0,0.9955664599249897,0,1.5929999999999898,3.0,0.8465000000000096,0,0
1099,-0.054566537967962,0.6634231806333223,2.1065775531354625,0.3763871774966187,0.1153307386682962,-0.22407831552668847,0.8915270168901646,-0.18647438844403036,0.02440543797195612,-0.5000022486862982,-0.03145906269412675,0.5000064018621392,-0.09684721779023497,0.033505828251980466,0.27859831034809546,-0.01848964243220967,0.06333162007999862,0,-0.009999999999999995,1.0,-0.08987854919801128,0.0,0.0,0.9959527330119943,0,1.599999999999989,3.0,0.8500000000000092,0,0
1106,-0.04998507945883865,0.665609746273703,2.0912925297868425,0.37972200302524783,0.1161038156613223,-0.22470437388404807,0.8898533861062469,-0.18647531798487174,0.024405477238564004,-0.49999931263418734,-0.03465897152401368,0.5000061967103813,-0.0968475951426319,0.03347742225611164,0.3038813425008296,-0.03913429639405926,0.08659393750440941,0,-0.01069999999999999,1.0,-0.08569476728973578,0.0,0.0,0.9963214375186144,0,1.6069999999999882,3.0,0.8535000000000088,0,0
1113,-0.04590342478904268,0.667405895647127,2.0767753015010606,0.3825134930806867,0.11758903374503112,-0.22524091790762626,0.8883258274159608,-0.18650017706589614,0.02440607455381345,-0.5000788478759076,-0.035500377691456746,0.5000555548050899,-0.0969439680153069,0.0336173292798218,0.32753645754235317,-0.05470971966904959,0.10007713073803262,0,-0.011399999999999987,1.0,-0.08150947372798739,0.0,0.0,0.9966725669409119,0,1.6139999999999874,3.0,0.8570000000000084,0,0
1120,-0.04185120054836342,0.6690847213295419,2.0627292495480294,0.3846692382355257,0.11873356228819859,-0.22577293119746245,0.8871068153723997,-0.18646656984042476,0.024406781219623194,-0.5000173679667032,-0.03618304215155894,0.500038274087245,-0.09694403820333782,0.03363262629109118,0.34852080112289413,-0.06971997865477673,0.10715021597771016,0,-0.012099999999999982,1.0,-0.07732274234123608,0.0,0.0,0.9970061150849733,0,1.6209999999999867,3.0,0.860500000000008,0,0
1127,-0.03721681104205774,0.6704711900632236,2.049187048727222,0.3860045477127766,0.11976410441695753,-0.22672770146001953,0.8861442308275302,-0.18646269058413534,0.02440690326734082,-0.5000047084432769,-0.036970047002910754,0.5000184091291553,-0.09694552700799076,0.03365413004309705,0.36629688217431805,-0.08006189935456974,0.11734241694289417,0,-0.012799999999999978,1.0,-0.07313464698331487,0.0,0.0,0.9973220760670175,0,1.627999999999986,3.0,0.8640000000000077,0,0
1134,-0.03270878303519917,0.671386171216644,2.0358934462090663,0.38663515741696747,0.12065078987916661,-0.22779115226988936,0.8854760487434123,-0.186463024376911,0.02440690752461762,-0.5000015242102842,-0.037510432300187024,0.5000083621732535,-0.09694679031857459,0.03365881180206435,0.3796607149309404,-0.09034173461406052,0.12422024644638802,0,-0.013499999999999974,1.0,-0.06894526153211736,0.0,0.0,0.9976204443135015,0,1.6349999999999851,3.0,0.8675000000000073,0,0
1141,-0.028087068367922966,0.6715394690347997,2.022636935577431,0.38650386204105425,0.12143782014409452,-0.2289314802013511,0.8851316274084994,-0.18644274362083949,0.024406879976229184,-0.500051751720278,-0.0380827835888551,0.5000175662634311,-0.09727660277857055,0.033681398775409696,0.3921730459498606,-0.10067666582399928,0.128411603705156,0,-0.01419999999999997,1.0,-0.0647546598882942,0.0,0.0,0.9979012145612167,0,1.6419999999999844,3.0,0.8710000000000069,0,0
1148,-0.022251331710037393,0.6727720915603247,2.0099240139037455,0.38636682872348266,0.12143278450154339,-0.23003021859009068,0.8849072556182122,-0.18632352176187145,0.024407501797637277,-0.5000111852013165,-0.03913242977894692,0.5000179247730108,-0.09611400761980944,0.03466339174010871,0.4029248193657886,-0.10894107846458323,0.13857577316732764,0,-0.014899999999999965,1.0,-0.06056291597394973,0.0,0.0,0.9981643818573834,0,1.6489999999999836,3.0,0.8745000000000065,0,0
1155,-0.014373100664763324,0.6737518539115834,1.997000748555092,0.38576822698430796,0.12094053832669431,-0.23152458312201796,0.8848461044999908,-0.18631943127776682,0.02440724491000621,-0.5000024728200397,-0.0404006110476672,0.500009083625137,-0.09633496164596543,0.03448589170155515,0.4127044834140838,-0.11083792862489412,0.16041721907685508,0,-0.015599999999999961,1.0,-0.056370103731337946,0.0,0.0,0.9984099415597374,0,1.6559999999999828,3.0,0.8780000000000061,0,0
1162,-0.007638906246651326,0.6739680876202673,1.9835902754979569,0.385662642721456,0.12131349018535942,-0.2331087260384848,0.8844250589806147,-0.1863207931223833,0.024406479492952497,-0.5000002726569962,-0.0406540866234783,0.5000065813977389,-0.098155268883295,0.03448611628947313,0.4247716512088762,-0.11503017942326098,0.1765223185707839,0,-0.016299999999999957,1.0,-0.05217629712155806,0.0,0.0,0.9986378893366118,0,1.662999999999982,3.0,0.8815000000000057,0,0
1169,-0.0017625282354852834,0.6747941885116289,1.9687967819709262,0.38649543006794224,0.122374629085282,-0.23482117796210264,0.8834617971781953,-0.18632501389486789,0.024927025461314648,-0.5000007697364182,-0.04065019679683476,0.5000048945962898,-0.09938679432599314,0.034485714824757374,0.4414553602138845,-0.12120973082800353,0.1913031321776976,0,-0.016999999999999953,1.0,-0.047981570123249925,0.0,0.0,0.9988482211670138,0,1.6699999999999813,3.0,0.8850000000000053,0,0
1176,0.003422559984846712,0.6753179639755106,1.952601971654673,0.3877564440662146,0.1245943356602353,-0.23627331715958952,0.882210922175028,-0.18632733564046686,0.02731738970238339,-0.5000000474850236,-0.04044295115910617,0.5000044609135309,-0.10343818805318099,0.03506369025019465,0.4614297413132355,-0.13056767949958437,0.20252698329293295,0,-0.01769999999999995,1.0,-0.04378599673128901,0.0,0.0,0.9990409333406953,0,1.6769999999999805,3.0,0.888500000000005,0,0
1183,0.0045920411616074425,0.6783606752394055,1.9412892466224276,0.3883548566801297,0.12340224833688156,-0.2362667460647971,0.8821170076029093,-0.19980402495847066,0.027317986187440933,-0.4994451929143438,-0.02877783451299131,0.49993092629830677,-0.10441783214407442,0.034813324363297926,0.47152503345088126,-0.14006009205790984,0.21542902559428712,0,-0.018399999999999944,1.0,-0.039589650955481163,0.0,0.0,0.9992160224582186,0,1.6839999999999797,3.0,0.8920000000000046,0,0
1190,0.0031498910748738664,0.6806810823589046,1.9318428775839678,0.38718927954033533,0.11930690028765698,-0.2365189423550676,0.8831246317819628,-0.21595176292286977,0.027316358574483262,-0.4994416230251342,-0.01994156363120095,0.49993113137953643,-0.10441924075356068,0.03501167637000761,0.4715190281504539,-0.1489333649880192,0.22913833986505056,0,-0.01909999999999994,1.0,-0.035392606819257065,0.0,0.0,0.9993734854310162,0,1.690999999999979,3.0,0.8955000000000042,0,0
1197,0.0010828039378506992,0.6823837457094563,1.921392507340569,0.3859676754592713,0.11408164585363804,-0.2363839053176687,0.8843850863094985,-0.23168457116541633,0.02731686093191273,-0.4994391015798094,-0.01262625423267115,0.49993090298405174,-0.1044200328755694,0.03502197814223236,0.47151963732294205,-0.1610245837067554,0.24470665514629955,0,-0.019799999999999936,1.0,-0.031194938358366415,0.0,0.0,0.9995133194814453,0,1.6979999999999782,3.0,0.8990000000000038,0,0
1204,-0.0012824029794030341,0.683248538234574,1.9104796458736795,0.38402834056178026,0.10910893789840119,-0.23617344230495202,0.8859117215986464,-0.24480338706335955,0.029408088142454734,-0.4985767265396472,-0.00469439581741799,0.4961090771453894,-0.10150537407160407,0.03502940470487738,0.4708562978423106,-0.1737620649800572,0.25818561772807114,0,-0.02049999999999993,1.0,-0.026996719619572063,0.0,0.0,0.9996355221428369,0,1.7049999999999774,3.0,0.9025000000000034,0,0
1211,-0.0032140868282462117,0.683268828220694,1.9015158997139792,0.3812943909030582,0.1106301053372997,-0.23699164745741852,0.8866851336829452,-0.2461682099639196,0.030820133137020284,-0.4943276329519744,0.017629266955724143,0.48573219288943503,-0.09510690450936292,0.03974222508610755,0.47085656611960774,-0.1754008295272046,0.2581873836899576,0,-0.021199999999999927,1.0,-0.022798024659343667,0.0,0.0,0.9997400912595393,0,1.7119999999999767,3.0,0.906000000000003,0,0
1218,-0.00237913186088582,0.6848616837980542,1.8930388897804564,0.37811188280584773,0.1141491980524052,-0.23675812872738045,0.8876637613119727,-0.24600246502181036,0.04159379457735921,-0.494876825630454,0.04775060852742586,0.4766581057045666,-0.08974802955472917,0.03979714536196597,0.47085554407574637,-0.1663860055030188,0.2663452829093812,0,-0.021899999999999923,1.0,-0.018598927542551456,0.0,0.0,0.999827024986956,0,1.7189999999999759,3.0,0.9095000000000026,0,0
1225,-0.002455061154916315,0.6851187698640561,1.8829411501812165,0.3740885098297736,0.11792814702087646,-0.23609854921879905,0.8890490503961749,-0.24600272789516062,0.055406079263253416,-0.49487741764811605,0.07845017713638958,0.4633686625576324,-0.08263473445420126,0.03979754945441798,0.4708553751233111,-0.16500891771506396,0.26634463940307,0,-0.02259999999999992,1.0,-0.014399502341159671,0.0,0.0,0.9998963217915781,0,1.725999999999975,3.0,0.9130000000000023,0,0
1232,-0.0030325017259876953,0.6844257159747897,1.872758075119115,0.3706042777257937,0.12109906320055498,-0.2362636735408421,0.8900376187489364,-0.24600144021885845,0.06559208443263063,-0.4948775111334383,0.10636781666181522,0.4501402099904048,-0.07254818861403785,0.03980264473552339,0.47170311093015904,-0.16504157394120522,0.26634470340913685,0,-0.023299999999999915,1.0,-0.010199823132919983,0.0,0.0,0.9999479804510119,0,1.7329999999999743,3.0,0.9165000000000019,0,0
1239,-0.0033124916629970495,0.6836744473311894,1.8614088042517838,0.3658179538912111,0.12250309799277549,-0.23751533230621633,0.8914912688930205,-0.24600198498231374,0.07718994319386134,-0.4948802962372388,0.1295647871903011,0.4371598789971981,-0.053998810127604366,0.03977442371785255,0.47469053349410345,-0.16167118522150117,0.2711031196792398,0,-0.02399999999999991,1.0,-0.005999964000064718,0.0,0.0,0.999982000054,0,1.7399999999999736,3.0,0.9200000000000015,0,0
1246,-0.0025163561667765266,0.6815774339917484,1.8501048945733094,0.3606757555013763,0.12548977606741069,-0.23791097916542012,0.893064209051406,-0.2460024479564315,0.09045342061964276,-0.494880364299533,0.15647427005423403,0.42410967846422715,-0.04026801513082668,0.039769977445716434,0.47505490765924346,-0.15757936831501623,0.27276689041177704,0,-0.024699999999999906,1.0,-0.0017999990280000773,0.0,0.0,0.9999983800004375,0,1.7469999999999728,3.0,0.9235000000000011,0,0
1253,-0.0015626479458188452,0.6854210334393774,1.8378451106816924,0.3609628978675431,0.13362858426242927,-0.23650120215705855,0.8921414513457777,-0.246917785796677,0.10184293879637195,-0.49781301976343895,0.2039427662064125,0.41668367673456486,-0.03558081611901949,0.03784098048187705,0.5021626107181555,-0.15638113845790086,0.2756614379361832,0,-0.025399999999999902,1.0,0.0023999976960007432,0.0,0.0,0.9999971200013824,0,1.753999999999972,3.0,0.9270000000000007,0,0
1260,-0.0013244393611909734,0.6892477721015849,1.8293729526763807,0.3585601477982019,0.13863372007576955,-0.23702428179044188,0.892207824394412,-0.24733925442849725,0.11247659598118316,-0.4979884295646784,0.23168482605804191,0.415678763961457,-0.0226300284533696,0.03784703919707854,0.5004539140098595,-0.15275966238864297,0.2732781466780494,0,-0.026099999999999898,1.0,0.0065999520841044405,0.0,0.0,0.9999782200790613,0,1.7609999999999713,3.0,0.9305000000000003,0,0
1267,-0.0009680486263531955,0.6909133341226028,1.8202116427443715,0.3550331756578824,0.14108133102174653,-0.23754332381736026,0.8930961155044916,-0.24736708037249533,0.12241000437404728,-0.49802972527862877,0.25238864483853685,0.4108140216158512,-0.0032338511319732056,0.037837002293868174,0.5001235049412257,-0.1515950197036541,0.2732295798929262,0,-0.026799999999999893,1.0,0.010799790049224517,0.0,0.0,0.9999416805668683,0,1.7679999999999705,3.0,0.9339999999999999,0,0
1274,-0.0006447710154652473,0.6914869844365323,1.8096340428072397,0.3511832600316374,0.14355206216960334,-0.23810282632190247,0.8940750345569032,-0.2473803793358503,0.1337542790588591,-0.4980502575826071,0.27434421625759836,0.40555460858704023,0.017617179559524725,0.038016436457895555,0.5000375720736728,-0.15158084632160443,0.27321429383810725,0,-0.02749999999999989,1.0,0.014999437506328168,0.0,0.0,0.9998875021093592,0,1.7749999999999697,3.0,0.9374999999999996,0,0
1281,-0.0008928649467312391,0.6887565894960138,1.8023336467268407,0.35173130115182843,0.1429869134060882,-0.2385436331889011,0.8938326294389127,-0.24738381805355478,0.13606634814304888,-0.49824065919638727,0.2865441587555209,0.3958404218908147,0.039070767320050784,0.0420956752102395,0.5000091188933621,-0.1558757483275877,0.2832681950639745,0,-0.028199999999999885,1.0,0.019198820373743163,0.0,0.0,0.9998156856622409,0,1.781999999999969,3.0,0.9409999999999992,0,0
1288,-0.001364546312511765,0.682788696520057,1.7995354148656688,0.354865614444561,0.1432853561600137,-0.23788650720112667,0.8927203997258215,-0.24738293051181606,0.13896521095251396,-0.4984021419039801,0.2963136063822841,0.38547396982459287,0.04941212476555597,0.045875563276426466,0.5000043776291486,-0.1617534140458692,0.29122925699095353,0,-0.02889999999999988,1.0,0.023397864574464595,0.0,0.0,0.9997262324923534,0,1.7889999999999682,3.0,0.9444999999999988,0,0
1295,-0.002356843296210945,0.6750690518644759,1.7998058099073446,0.3560664562088775,0.14498257181732482,-0.23744692831660574,0.8920850233386358,-0.2473831331344096,0.14958155339271273,-0.49840200006976815,0.30284798490122566,0.3810025277151061,0.05350800305699294,0.046956231399687,0.5000017887396047,-0.16181281073516685,0.29122979953504635,0,-0.029599999999999876,1.0,0.027596496037461664,0.0,0.0,0.9996191441776485,0,1.7959999999999674,3.0,0.9479999999999984,0,0
1302,-0.0035681929831086366,0.6656975601318339,1.8010086579918712,0.35733749674238563,0.14692105249589418,-0.2370373515128356,0.891368280646762,-0.2473836526574304,0.15971824821450517,-0.49854305048520614,0.30820501725137356,0.3789740374309049,0.056081294217320415,0.04903254879849185,0.5000006579147391,-0.16124871599593693,0.2902504293001971,0,-0.030299999999999872,1.0,0.03179464069898423,0.0,0.0,0.9994944226071611,0,1.8029999999999666,3.0,0.951499999999998,0,0
1309,-0.0048912086349833525,0.6544093902715609,1.8013320253598568,0.3572667441999,0.14710471048187618,-0.23708763074136846,0.8913529788990954,-0.24738176479382495,0.17132267172184745,-0.4985451483608967,0.30856179029812936,0.3769437055194388,0.06472023495620936,0.04937698285935932,0.5000011846372686,-0.16093728758724307,0.2901995717805304,0,-0.030999999999999868,1.0,0.03599222450386935,0.0,0.0,0.9993520699809768,0,1.8099999999999659,3.0,0.9549999999999976,0,0
1316,-0.006463959287061706,0.6537604650011486,1.806830135070311,0.3567572417438448,0.14863324358138538,-0.2365309408036295,0.8914513690652734,-0.2543072955611011,0.19700148659802658,-0.5010840025450976,0.31006856444014297,0.3879133304713518,0.07408001615946055,0.046847669113908745,0.5000567365110599,-0.14741224944834475,0.28940926218168167,0,-0.03169999999999988,1.0,0.04018917340684753,0.0,0.0,0.9991920888101918,0,1.816999999999965,3.0,0.9584999999999972,0,0
1323,-0.008764675172375811,0.655184730180708,1.8114699917200823,0.3590838271205768,0.15104957033328462,-0.2349334994403836,0.8905330332128422,-0.25888335736395507,0.21935338901052942,-0.5002302325843924,0.31279684902777066,0.3905122323704222,0.07874064717906588,0.046841725282189925,0.5000128038265967,-0.14265951744091965,0.2894045269444528,0,-0.0323999999999999,1.0,0.04438541337384896,0.0,0.0,0.9990144819168703,0,1.8239999999999643,3.0,0.9619999999999969,0,0
1330,-0.011344662980595699,0.6531403789689718,1.814289094888746,0.36167396908748445,0.1535438867346234,-0.23376597103888008,0.8893647652764191,-0.25879315431126737,0.23761449233999735,-0.5000530237812675,0.31783444776829706,0.3902729411183537,0.08249600625718792,0.046699449419334634,0.5000053664824764,-0.14241696508359822,0.2888653870433958,0,-0.03309999999999992,1.0,0.0485808703833094,0.0,0.0,0.9988192524339927,0,1.8309999999999635,3.0,0.9654999999999965,0,0
1337,-0.014228094564088169,0.6487230556698187,1.8161806866390142,0.36343907058607866,0.1550011011509195,-0.23316258986743096,0.8885504528724534,-0.2587710154687957,0.25404752719236484,-0.5000125971765256,0.32034962940857464,0.3902647087009101,0.08986925882368581,0.04735777506310221,0.5000022933832561,-0.14240376958917217,0.28887114342772463,0,-0.03379999999999994,1.0,0.05277547042747603,0.0,0.0,0.9986064038054026,0,1.8379999999999628,3.0,0.9689999999999961,0,0
1344,-0.016696373888809426,0.6424315221081671,1.8172362916958655,0.364949856762691,0.15678163332708647,-0.23198989720779317,0.887925565063705,-0.2587744705703227,0.2704312435719442,-0.5000103782602625,0.32490894427947803,0.3902692795840075,0.09628605735027838,0.04821444445258482,0.4999984530272029,-0.14241377481577572,0.2888732476184429,0,-0.03449999999999996,1.0,0.05696913951371284,0.0,0.0,0.9983759397857439,0,1.844999999999962,3.0,0.9724999999999957,0,0
1351,-0.019065391216061753,0.6343017622238067,1.817352039430364,0.36625298799486977,0.15889594827853057,-0.23045222488312506,0.8874134315255285,-0.2587762779396696,0.28634774968852883,-0.5000078954220815,0.3312409520747453,0.39027343554352445,0.1018185949909775,0.04839186690357019,0.49999663639895753,-0.14242069993895654,0.2888749569634115,0,-0.03519999999999998,1.0,0.06116180366580586,0.0,0.0,0.9981278644403959,0,1.8519999999999612,3.0,0.9759999999999953,0,0
1358,-0.02143394777565273,0.6243004927083727,1.816371300896631,0.36747032077970476,0.1614996372235356,-0.22860754377637926,0.8869171446371178,-0.258778170817261,0.30159212087536014,-0.5000055182212239,0.33980818935789725,0.39027830118304097,0.10605258285052865,0.048692156600422386,0.4999950977672725,-0.14242752408908202,0.28887651512803575,0,-0.0359,1.0,0.06535338892526822,0.0,0.0,0.9978621821454017,0,1.8589999999999605,3.0,0.9794999999999949,0,0
1365,-0.023805823830562896,0.612842435205873,1.8142719172792336,0.36967533470033814,0.1652466877152581,-0.22628465728264288,0.8859057133757552,-0.2587770968419102,0.3145178210683727,-0.50000197818814,0.3531965315130942,0.39028440423743493,0.10701471817968441,0.05144081895880285,0.4996558388833343,-0.1424666011728765,0.2902073525611479,0,-0.03660000000000002,1.0,0.06954382135264457,0.0,0.0,0.9975788975873896,0,1.8659999999999597,3.0,0.9829999999999945,0,0
1372,-0.026313742149662308,0.6026937851552291,1.8113863921737732,0.3704060935556061,0.16753683559292992,-0.22370747295362287,0.8858248704575229,-0.2618246914406881,0.33279247469662426,-0.5000021455834797,0.3630638672960126,0.3902090221978127,0.11481687228552118,0.05365038119249077,0.500218403847731,-0.14170449057292706,0.29325597786584084,0,-0.03730000000000004,1.0,0.07373302702881561,0.0,0.0,0.9972780157634922,0,1.872999999999959,3.0,0.9864999999999942,0,0
1379,-0.0290246461430039,0.5930674422267314,1.807390168373558,0.37072452663355326,0.16856542624595444,-0.22175898193855226,0.8859864425353384,-0.26256570274453406,0.35083296929613517,-0.5000045489821352,0.37052829406804805,0.390054345160943,0.12712246522093174,0.05602171258863295,0.4984828337863298,-0.14168557548050745,0.29834670118721796,0,-0.03800000000000006,1.0,0.07792093205630181,0.0,0.0,0.9969595419812568,0,1.8799999999999581,3.0,0.9899999999999938,0,0
1386,-0.03219405786053059,0.583178745239774,1.8023268455902333,0.3674338936752595,0.1693439316230626,-0.21995235417856082,0.8876575513633568,-0.262886674587616,0.37896326346199505,-0.5000031479682436,0.3752076758407113,0.3898402685709882,0.1413333356388785,0.0555880352737551,0.500250757573425,-0.14038575721963548,0.29795995680532145,0,-0.03870000000000008,1.0,0.08210746256056708,0.0,0.0,0.9966234818585529,0,1.8869999999999574,3.0,0.9934999999999934,0,0
1393,-0.037162762374356645,0.5965652511127844,1.8057739725943815,0.36402078923166054,0.1709115377132016,-0.21827749436290114,0.8891754870318466,-0.2788624039858613,0.4362681500740573,-0.5000536039446248,0.38030642555176664,0.41209208196214236,0.16727216438451212,0.05436273010541523,0.5001135574325971,-0.11566678924313226,0.30175490421318246,0,-0.0394000000000001,1.0,0.08629254469132189,0.0,0.0,0.9962698413234721,0,1.8939999999999566,3.0,0.996999999999993,0,0
1400,-0.04155042215292369,0.603858173237767,1.8043004013238604,0.3629651006923986,0.17360327027725153,-0.21480322172623217,0.8899313547484613,-0.287331934659869,0.483408723202035,-0.5000189366714122,0.39521947006413405,0.41470920380970916,0.1839007493381378,0.05437614893723283,0.5000252355187281,-0.11309460216104696,0.3017526412299459,0,-0.04010000000000012,1.0,0.09047610462382598,0.0,0.0,0.9958986266142245,0,1.9009999999999558,3.0,1.0004999999999926,0,0
1407,-0.045088096644060174,0.6073896672361744,1.7996559580747153,0.36279314896577614,0.17808441110907366,-0.2119680300613581,0.889795834905591,-0.28733062733241393,0.5264154491869948,-0.5000069906472036,0.4106105617572057,0.4147224372880643,0.19481913045521623,0.054377722763803905,0.500006326846496,-0.11310328127238385,0.3017528862521877,0,-0.04080000000000014,1.0,0.09465806856019063,0.0,0.0,0.9955098442790279,0,1.907999999999955,3.0,1.0039999999999922,0,0
1414,-0.04889829077314317,0.6082542891834579,1.7917297998238237,0.35968798502783955,0.180819232165562,-0.21048091322003634,0.8908573083697124,-0.2873994324455515,0.5711177695610264,-0.4999986820726234,0.4249415921353426,0.41473107412256455,0.21340737084785444,0.054187930924883464,0.5000015936765516,-0.1127544561580593,0.301551081659698,0,-0.04150000000000016,1.0,0.09883836273068043,0.0,0.0,0.9951035011759924,0,1.9149999999999543,3.0,1.0074999999999918,0,0
1421,-0.05273268578336097,0.606980595072412,1.7825134568338465,0.35631496586675154,0.18331570087737328,-0.20939835826536946,0.8919570205267634,-0.288700801248115,0.6131629607623863,-0.5001461829200674,0.4397748597588337,0.41477485869786657,0.23230415970046783,0.054198645257906304,0.500003821078336,-0.11269233967520284,0.3015628473098568,0,-0.04220000000000018,1.0,0.10301691339501462,0.0,0.0,0.9946796044730002,0,1.9219999999999535,3.0,1.0109999999999915,0,0
1428,-0.055322523847015706,0.6037665472693285,1.7784821038675172,0.35512232175564495,0.18485548553328648,-0.20834322038565647,0.8923618596614643,-0.2907260290119769,0.6455991126409011,-0.5000433180824381,0.44825203315895795,0.4148529616665452,0.24553977933957455,0.054201309840509415,0.5000101990471733,-0.11263802917464583,0.3015813966491378,0,-0.0429000000000002,1.0,0.10719364684366783,0.0,0.0,0.9942381616475778,0,1.9289999999999528,3.0,1.014499999999991,0,0
1435,-0.056780387364467944,0.5991928436681364,1.7774122937351626,0.35539886225122996,0.18600002062175097,-0.2075143925227782,0.892207048803775,-0.290758298012905,0.67015737063335,-0.5000137728425793,0.4537129684761213,0.4148849437915366,0.2547424843321686,0.05418867435555186,0.5000397653247677,-0.11260816718464221,0.3015743126416593,0,-0.04360000000000022,1.0,0.11136848939917034,0.0,0.0,0.9937791804867653,0,1.935999999999952,3.0,1.0179999999999907,0,0
1442,-0.0577674877262498,0.5928595318284647,1.779864398861564,0.35737215373589987,0.1868387589443798,-0.20658819536545395,0.8914582095790768,-0.29057499158456335,0.6828282377526488,-0.5000038983705635,0.4553575152811506,0.4149244642557309,0.2592760756551736,0.05411920102329784,0.500170338459567,-0.1125493540905921,0.3014430191898685,0,-0.04430000000000024,1.0,0.11554136741740773,0.0,0.0,0.9933026690869786,0,1.9429999999999512,3.0,1.0214999999999903,0,0
1449,-0.05887053315958172,0.5853540143984535,1.7844309100678135,0.3601801518862779,0.18784327558060018,-0.20527276581540313,0.8904202679750856,-0.29053451048220397,0.6841902133640054,-0.5000118873670811,0.4552502891542474,0.4149586588646634,0.2601246114596267,0.0535431549643336,0.5001796220647163,-0.11252138667677794,0.30054064521582874,0,-0.04500000000000026,1.0,0.11971220728891993,0.0,0.0,0.9928086358538663,0,1.9499999999999504,3.0,1.02499999999999,0,0
1456,-0.06045892517202761,0.577687388792199,1.789085747018037,0.36293274646754503,0.18905133148346986,-0.20378897734493243,0.889387130735856,-0.29054388595378,0.6842280678549457,-0.5000139153617073,0.455164287633464,0.4149969725983615,0.26041138903437905,0.05310316605692302,0.5001385018326747,-0.11249528738813347,0.2997443387622093,0,-0.04570000000000028,1.0,0.12388093544019979,0.0,0.0,0.9922970895021617,0,1.9569999999999497,3.0,1.0284999999999895,0,0
1463,-0.06210791776752152,0.5700602196358999,1.7935457720996295,0.36567803322987513,0.19017327966019734,-0.20240646600132556,0.88833851781698,-0.29052517496370317,0.6846729666851052,-0.5000086120719123,0.4549866628706517,0.4150733001952997,0.26119741978615046,0.05301758921633785,0.5001953185984779,-0.11243681762770173,0.2997076637784785,0,-0.0464000000000003,1.0,0.12804747833499078,0.0,0.0,0.9917680390555295,0,1.963999999999949,3.0,1.0319999999999891,0,0
1470,-0.06362938117220501,0.562541782769047,1.7981292852324893,0.3685438463410598,0.19168181484235292,-0.20103281812945312,0.8871410943124038,-0.29070179902169196,0.6872643713832554,-0.5000060932642043,0.45579932929566946,0.4164480240061578,0.2612090482191469,0.05297302389212033,0.5001148846058434,-0.11101099129276187,0.2984511268917621,0,-0.04710000000000032,1.0,0.13221176247558425,0.0,0.0,0.9912214938464056,0,1.9709999999999481,3.0,1.0354999999999888,0,0
1477,-0.0653678036629515,0.555845046274772,1.8033252820228918,0.37336797892380874,0.19299026286181553,-0.19922542017424322,0.8852459221658544,-0.29183981098550493,0.6903524469694394,-0.50000487759923,0.4572139749953074,0.4171650809856358,0.2612300910360315,0.05291090528038884,0.5000571684962654,-0.1100596615981871,0.29944103314727477,0,-0.04780000000000034,1.0,0.136373714404116,0.0,0.0,0.9906574635158333,0,1.9779999999999474,3.0,1.0389999999999884,0,0
1484,-0.06724737819518897,0.5478781850694617,1.8079373640688843,0.3763604090269527,0.19414117642463424,-0.1973807827107532,0.8841396228820504,-0.2918573436615476,0.69060513218351,-0.5000059793038408,0.4570134665672122,0.4171476453162387,0.2611641622397886,0.0518958946962634,0.5001656807673138,-0.10957776015436764,0.2986789034847222,0,-0.04850000000000036,1.0,0.14053326070386193,0.0,0.0,0.9900759580132932,0,1.9849999999999466,3.0,1.042499999999988,0,0
1491,-0.0691281407979249,0.539980015557201,1.8123280718758545,0.37907825426390024,0.19538946866640416,-0.19582398858179376,0.8830490349773401,-0.2918836940850869,0.6924213689533383,-0.5000133553406144,0.45690024364255416,0.4171767141162181,0.26123210360943155,0.05171011790289625,0.5001590004707659,-0.10836679207751937,0.29854501363245445,0,-0.04920000000000038,1.0,0.14469032800053322,0.0,0.0,0.9894769875965272,0,1.9919999999999458,3.0,1.0459999999999876,0,0
1498,-0.0709148982449967,0.5319981045326926,1.8162596015853878,0.3818848409463032,0.19658452276420135,-0.1943495269757065,0.8818995152676449,-0.291903497473529,0.6947170741150328,-0.5000112890360403,0.4572074825678445,0.41720781411092317,0.2617559740768479,0.05167551947221482,0.5000983694049971,-0.10753195774018642,0.29852405894844714,0,-0.0499000000000004,1.0,0.1488448429635705,0.0,0.0,0.988860562831358,0,1.998999999999945,3.0,1.0494999999999872,0,0
1505,-0.07282290076827244,0.52491685352568,1.8217506499150828,0.38629762089262265,0.19802561349183076,-0.19248822943067756,0.8800615239996159,-0.2932498912127616,0.7005422250616564,-0.5000055775236665,0.4580285183546993,0.419377214187841,0.26133153626453304,0.05167346898995038,0.5000416010796292,-0.10526463716359559,0.2980685606806603,0,-0.05060000000000042,1.0,0.15299673230743754,0.0,0.0,0.9882266945915023,0,2.0059999999999443,3.0,1.0529999999999868,0,0
1512,-0.07494006319122828,0.5167460132595364,1.8262636320113077,0.3894852826064908,0.19909644903111698,-0.1904575884248792,0.8788559185825178,-0.29324523201427155,0.7021707781163623,-0.5000022878107743,0.4576328857643691,0.4194541590335935,0.2612010126312673,0.050559308124352935,0.5001785235363789,-0.10524196418486545,0.29727622116847524,0,-0.05130000000000044,1.0,0.15714592279291403,0.0,0.0,0.9875753940583795,0,2.0129999999999435,3.0,1.0564999999999864,0,0
1519,-0.0772306446446816,0.5085318451705098,1.8303783031642564,0.3922793246202044,0.2002105713708491,-0.18827427191238275,0.8778299705083762,-0.29328092479525264,0.7023300272240562,-0.5000124116938308,0.4574353466835003,0.4194538756163624,0.26134768060738056,0.049060269706201066,0.5002058574425831,-0.1050586647164581,0.29687742607855677,0,-0.05200000000000046,1.0,0.16129234122838737,0.0,0.0,0.9869066727209141,0,2.0199999999999427,3.0,1.059999999999986,0,0
1526,-0.07965733691687339,0.500488708771072,1.8338160874218876,0.3950641261746291,0.20172745985316498,-0.1863117837815333,0.8766517480591763,-0.29382747190347563,0.7052377572930432,-0.5000075610643591,0.45882368146758284,0.4211048518878004,0.26188247962631545,0.04883395934294099,0.5000914270714049,-0.10308438774814972,0.29575019003435826,0,-0.05270000000000048,1.0,0.1654359144711439,0.0,0.0,0.9862205423753333,0,2.026999999999942,3.0,1.0634999999999857,0,0
