yifeidong0/3D-Soft-Fixture/results/FishFallsInBowl_16-03-2023-12-50-39/data.csv
index,obj_pos_x,obj_pos_y,obj_pos_z,obj_qtn_0,obj_qtn_1,obj_qtn_2,obj_qtn_3,obj_joint_0_pos,obj_joint_1_pos,obj_joint_2_pos,obj_joint_3_pos,obj_joint_4_pos,obj_joint_5_pos,obj_joint_6_pos,obj_joint_7_pos,obj_joint_8_pos,obj_joint_9_pos,obj_joint_10_pos,obs_pos_x,obs_pos_y,obs_pos_z,obs_qtn_0,obs_qtn_1,obs_qtn_2,obs_qtn_3,start_energy,escape_energy_cost
0,0.0,0.0,3.0,-0.0,0.7071067811865475,-0.0,0.7071067811865476,0.0,0.0,0.0,0.0,0.0,0.0,0.0,0.0,0.0,0.0,0.0,-0.5,0.5,0,0.0,0.0,0.0,1.0,17.657999999999998,0.0
7,9.201987012202564e-34,1.0362044160689232e-36,2.99523306649397,-5.8285849525814625e-19,0.7071067811865475,-5.828584952581463e-19,0.7071067811865476,5.861652789881283e-19,5.986285583954397e-19,1.5994107955094046e-18,-7.703719777548944e-35,7.369722855432648e-19,-2.2057346315078232e-18,-6.348217817272889e-19,1.0033870226303885e-18,-1.1470528529183124e-18,7.876382444926487e-22,-7.562462648698278e-19,-0.5,0.5,0,0.0,0.0,0.0,1.0,17.62994182938351,0.0
14,4.7997261111188045e-33,1.7641416547744214e-36,2.9821337847569267,-6.476646002050621e-19,0.7071067811865475,-6.47664600205062e-19,0.7071067811865476,1.3214377236092537e-18,-5.214966268830038e-19,4.432378924554518e-18,-1.7975346147614202e-34,2.43358652302569e-18,-5.022702775944096e-18,-2.6647605528583016e-18,-1.041555455510371e-18,-7.36168438491247e-19,2.654127470697317e-21,-3.96635617233636e-19,-0.5,0.5,0,0.0,0.0,0.0,1.0,17.552839457079273,0.0
21,1.2223893664737415e-32,1.569674639775217e-35,2.960720191662751,3.7436178168422304e-19,0.7071067811865475,3.743617816842244e-19,0.7071067811865476,2.6665342317190594e-18,-2.4394444972569478e-18,5.3314683473446956e-18,-2.0543252740130515e-34,2.327832999373504e-18,-7.730053079102106e-18,-4.082229564022642e-18,-4.7624264845979264e-18,5.201983450272619e-19,4.367408028645459e-21,8.95254125708731e-19,-0.5,0.5,0,0.0,0.0,0.0,1.0,17.42679904812695,0.0
28,2.1742967067207127e-32,7.980294804627653e-35,2.931015803502045,2.195343606132771e-18,0.7071067811865475,2.1953436061327735e-18,0.7071067811865476,3.866122418201907e-18,-3.7310925109388614e-18,4.9259718884113336e-18,-1.0691058840368783e-50,1.0744952710052028e-18,-1.0170550688642773e-17,-8.180201239561503e-18,-8.533689364316541e-18,2.510008649652115e-18,7.866874786341504e-21,2.2478783926932586e-18,-0.5,0.5,0,0.0,0.0,0.0,1.0,17.251959019413032,0.0
35,3.3906066372838505e-32,1.7840674246819102e-34,2.893049554482896,6.183445196254196e-18,0.7071067811865475,6.183445196254199e-18,0.7071067811865476,6.657192894293011e-18,-1.2530452988721966e-17,6.150071033777045e-18,2.054325274013051e-34,2.484039337272068e-19,-1.5820431223872742e-17,-1.2216764416720032e-17,-1.182209278976276e-17,4.922479736664051e-18,1.1775009306299534e-20,4.327516601957057e-18,-0.5,0.5,0,0.0,0.0,0.0,1.0,17.02848967768633,0.0
42,4.790089161215378e-32,3.962148433638033e-34,2.8468557212278505,1.0381201448364673e-17,0.7071067811865475,1.0381201448364675e-17,0.7071067811865476,9.276077330311106e-18,-1.9104466932552652e-17,4.571313449555806e-18,9.24446373305873e-34,-2.6410110735889593e-18,-1.976572191495126e-17,-1.734613895807559e-17,-1.219228834329125e-17,5.181815881773926e-18,1.5698575295607968e-20,4.788401752309805e-18,-0.5,0.5,0,0.0,0.0,0.0,1.0,16.756592775147134,0.0
49,6.318096846236355e-32,8.074989128580824e-34,2.7924738336845767,1.468118060466859e-17,0.7071067811865475,1.4681180604668594e-17,0.7071067811865476,1.1437090951953014e-17,-2.398909452677994e-17,9.03690462449461e-19,1.3609904940336465e-33,-7.269643112790412e-18,-2.2952161393762502e-17,-2.0618362186985313e-17,-1.3046894115806588e-17,5.204644129192261e-18,1.8592778615846192e-20,4.732436173046099e-18,-0.5,0.5,0,0.0,0.0,0.0,1.0,16.43650098506742,0.0
56,8.070380031291319e-32,1.479634456322048e-33,2.729948572939697,1.967968162809622e-17,0.7071067811865475,1.967968162809622e-17,0.7071067811865476,1.4157004992676846e-17,-3.32148332861594e-17,-1.0329379380132297e-18,1.232595164407831e-33,-1.0694770812911703e-17,-2.743382471635354e-17,-2.491555160573839e-17,-1.4325514116940422e-17,6.297876226647643e-18,2.2364138408272405e-20,5.590994499166386e-18,-0.5,0.5,0,0.0,0.0,0.0,1.0,16.06847730032306,0.0
63,1.0023809754238355e-31,2.2708049111776753e-33,2.6593296564927047,2.5043843529255047e-17,0.7071067811865475,2.504384352925505e-17,0.7071067811865476,1.7914626489108125e-17,-4.549861550460168e-17,-2.6133479181706766e-18,1.6434602192104416e-33,-1.3596765373551998e-17,-3.148624009625734e-17,-2.96361006722451e-17,-1.760922472364856e-17,7.590409251420242e-18,2.723633248642973e-20,6.290454606474959e-18,-0.5,0.5,0,0.0,0.0,0.0,1.0,15.652814358116066,0.0
70,1.224496411077106e-31,3.254634679358115e-33,2.5806717116091287,3.023944086275388e-17,0.7071067811865475,3.023944086275388e-17,0.7071067811865476,2.0784097247320417e-17,-5.4339305726793996e-17,-5.3426755371960456e-18,2.0029671421627257e-33,-1.7519336719852552e-17,-3.5270739712205306e-17,-3.400542082252509e-17,-2.296328158866801e-17,9.72101706665114e-18,3.151972173657594e-20,8.020539235466186e-18,-0.5,0.5,0,0.0,0.0,0.0,1.0,15.18983369453133,0.0
77,1.470112967133661e-31,4.552216738427136e-33,2.4940341374287054,3.4857630332796974e-17,0.7071067811865475,3.4857630332796974e-17,0.7071067811865476,2.2752064106059467e-17,-5.825915631191787e-17,-8.751898381471255e-18,2.4138321969653363e-33,-2.2581418988811445e-17,-4.0328281373606863e-17,-3.749972466274292e-17,-2.7911422855022126e-17,1.0617065465798903e-17,3.531692555832391e-20,8.035502195054591e-18,-0.5,0.5,0,0.0,0.0,0.0,1.0,14.679884932905367,0.0
84,1.739542109532914e-31,6.32095185859128e-33,2.3994809565548336,3.9399199250291906e-17,0.7071067811865475,3.9399199250291906e-17,0.7071067811865476,2.4939281554209477e-17,-6.2834720992363e-17,-1.0267818419829431e-17,2.6449437902918048e-33,-2.6243101495331044e-17,-4.653500705551689e-17,-4.2459714307108874e-17,-3.5548603384319575e-17,1.3587737814264611e-17,4.0265115833533066e-20,9.348962787072773e-18,-0.5,0.5,0,0.0,0.0,0.0,1.0,14.123344910281746,0.0
91,2.023325442761765e-31,8.305061522366347e-33,2.2970806568956394,4.4464817658229875e-17,0.7071067811865475,4.4464817658229875e-17,0.7071067811865476,2.7366644978662892e-17,-6.837500646392325e-17,-1.2610327978250837e-17,3.286920438420883e-33,-3.0475608724714056e-17,-5.2145773470535495e-17,-4.9047073071623416e-17,-3.948224761858316e-17,1.3361128482468042e-17,4.608002315842814e-20,8.978456461421658e-18,-0.5,0.5,0,0.0,0.0,0.0,1.0,13.520616746487738,0.0
98,2.32998013159359e-31,1.0470632340684811e-32,2.186906024564377,4.995693650063916e-17,0.7071067811865475,4.995693650063916e-17,0.7071067811865476,3.0892115635929553e-17,-7.904893513252769e-17,-1.3560378120884023e-17,3.466673899897025e-33,-3.336287465138119e-17,-5.780152624904107e-17,-5.3768762668250673e-17,-4.87240505159294e-17,1.3968741312790506e-17,5.087054470637271e-20,9.05694129341268e-18,-0.5,0.5,0,0.0,0.0,0.0,1.0,12.872128860585923,0.0
105,2.658671030922387e-31,1.2979761395863355e-32,2.0690339686774113,5.509194945819976e-17,0.7071067811865475,5.509194945819976e-17,0.7071067811865476,3.3439017102816687e-17,-8.64955637511064e-17,-1.5504641310499402e-17,4.134329613951267e-33,-3.6994359752587134e-17,-6.281516716171284e-17,-5.790377172517342e-17,-6.098287315328823e-17,1.5132820123116082e-17,5.596903821076932e-20,8.512633649106053e-18,-0.5,0.5,0,0.0,0.0,0.0,1.0,12.178333939635241,0.0
112,3.0092653634346037e-31,1.5666997011511505e-32,1.9435453389115858,5.975562443242395e-17,0.7071067811865475,5.975562443242395e-17,0.7071067811865476,3.5967610409478006e-17,-9.348342672877278e-17,-1.603135213023975e-17,4.801985328005508e-33,-4.013611652573798e-17,-7.022640773536142e-17,-6.627581981046646e-17,-6.674741538858816e-17,1.4568250919620504e-17,6.344300870079143e-20,7.744279201787791e-18,-0.5,0.5,0,0.0,0.0,0.0,1.0,11.439707864833592,0.0
119,3.3733899526504433e-31,1.8742648191742925e-32,1.810524736699431,6.441884368138305e-17,0.7071067811865475,6.441884368138305e-17,0.7071067811865476,3.8822277981673956e-17,-1.0092336561443305e-16,-1.676405522386826e-17,5.1358131850326285e-33,-4.290098496776724e-17,-7.607493355835988e-17,-7.544031191604801e-17,-7.59393910408787e-17,1.7146118975218064e-17,7.112202341054644e-20,8.48423280148751e-18,-0.5,0.5,0,0.0,0.0,0.0,1.0,10.65674860021285,0.0
126,-0.023848415017582898,0.010246539809117218,1.6217586646516768,0.07153739068776867,0.6942669692787254,0.05984015087138243,0.7136490267952511,-0.008285100158745623,0.00023080308316807013,-0.0056850690263090505,-0.020908121655305173,-0.01837367189385511,-0.0298000365551286,-0.055082423581628764,-0.07900912066970699,-0.0025823966858073205,-0.05287099405189202,-0.0026960410389778016,-0.5,0.5,0,0.0,0.0,0.0,1.0,11.318845623107372,0.0
133,-0.05576485239077324,0.02626504147242937,1.502789732801011,0.11751512270074496,0.6806914928205228,0.09050111401219799,0.7173972650498107,-0.015624613967615553,0.0003134874973846426,-0.010061715880530455,-0.029427424435987188,-0.026851758397237885,-0.03144150484437799,-0.07921063794364638,-0.09000788963200552,-0.023068780482919427,-0.07082925864771883,-0.00023346195530167774,-0.5,0.5,0,0.0,0.0,0.0,1.0,10.972983910081842,0.0
140,-0.08504442891667523,0.046622845438421864,1.3981142730255496,0.15445323237229303,0.6647957996154736,0.11237615599392413,0.7221927328541895,-0.017825769829523056,0.0003520329876820346,-0.011489488144969816,-0.03263509100521825,-0.03142080886133548,-0.030583361188837723,-0.0962729343518257,-0.09548187390170099,-0.03903812516635703,-0.08509450789309682,0.0019967944033141474,-0.5,0.5,0,0.0,0.0,0.0,1.0,10.70453056093221,0.0
147,-0.11255307883341117,0.07224139999782828,1.2980540303996237,0.18935858409413553,0.6468297361228872,0.13210285788116077,0.726844862427114,-0.01953218339505487,0.00038532076558055477,-0.0126035463939812,-0.034985629075670176,-0.03548881902449621,-0.028230965684463035,-0.11251810823132313,-0.09708079293816717,-0.05523587373884222,-0.09254676480566931,0.0027435709683512784,-0.5,0.5,0,0.0,0.0,0.0,1.0,10.371442202486447,0.0
154,-0.14028689307170714,0.1034450186619841,1.2006946149232864,0.2229577658760711,0.629105933806201,0.14928008133560064,0.7295416478870933,-0.020584098087231453,0.0004075992622811603,-0.013320175794953492,-0.03650402977374386,-0.03845591551382093,-0.02647280730980215,-0.1241418919965695,-0.09892070714041003,-0.06845945871069095,-0.09774840950194531,0.0032156867262625286,-0.5,0.5,0,0.0,0.0,0.0,1.0,9.911958110189513,0.0
161,-0.1683728451160027,0.14098362553627514,1.1040797640068614,0.25634762874514494,0.6113010759643626,0.1648342914753815,0.7303605576120352,-0.021239049051171365,0.00041894703347057264,-0.01380148405316673,-0.03767823294098724,-0.04050200990168357,-0.025922088953694796,-0.1322357637310567,-0.10197083427723605,-0.07638271577976036,-0.10750285378993556,0.005019245846216572,-0.5,0.5,0,0.0,0.0,0.0,1.0,9.369010482064708,0.0
168,-0.19680197062518962,0.1852428386876234,1.0075023890716923,0.29000857958878323,0.5934776046289215,0.17933337518121514,0.7290534254188286,-0.02165593333739303,0.0004259891907536206,-0.014134440758556339,-0.03864663346430601,-0.04199796301595101,-0.026076853661162212,-0.13838735960096415,-0.10575900675774053,-0.08251473416631128,-0.11754118699823878,0.006924059290224021,-0.5,0.5,0,0.0,0.0,0.0,1.0,8.756426405662717,0.0
175,-0.22656539391228028,0.23580070033567854,0.9109672901054731,0.32378932444012154,0.5777844821471014,0.19298249287383365,0.7239359937265285,-0.022170619979608366,0.0004341539500213749,-0.014491963254280215,-0.039560567842265644,-0.04328794059851827,-0.02602008400454672,-0.14363676437122205,-0.10773122843640821,-0.08773577469845839,-0.1242516526807236,0.008040251659514932,-0.5,0.5,0,0.0,0.0,0.0,1.0,8.046078490765568,0.0
182,-0.2699719684060415,0.23634682535194457,0.8834423172675808,0.28117739412314113,0.6081971887740489,0.11901120981093223,0.7327153502833157,0.10703083046631479,-0.0014080149150803075,0.03837543449028336,-0.008298269930461483,-0.0333995124051577,-0.016256868934301148,-0.13925330368216074,-0.10739765460806401,-0.08784019703292069,-0.12800119860290166,0.008521267347076708,-0.5,0.5,0,0.0,0.0,0.0,1.0,7.542136783162892,0.0
189,-0.301559690963982,0.23218941206942711,0.8755266660339128,0.25178236216157,0.6220222120635754,0.06710888762549361,0.7383701016465559,0.18971631326266067,-0.002844892256436961,0.07172738558896329,0.012050160231693028,-0.026260839656070026,-0.009268822255825654,-0.13459156590068372,-0.10672350046392497,-0.08699628815400258,-0.13025125612109342,0.009051600851221017,-0.5,0.5,0,0.0,0.0,0.0,1.0,7.531646111957237,0.0
196,-0.32843974209990034,0.22817569174491553,0.8692656658613457,0.2336815333559914,0.6309540752493376,0.03256824016949611,0.739073207217599,0.24257624495896435,-0.003797815877306276,0.09303647177633549,0.02501256137793215,-0.02168246981657561,-0.004710173859681398,-0.13174980150775611,-0.10611132245644407,-0.08680145628284541,-0.13200578732029392,0.009459148342090856,-0.5,0.5,0,0.0,0.0,0.0,1.0,7.563953589434646,0.0
203,-0.3524702606788053,0.22312871015240937,0.8635303412039639,0.22002693440921114,0.6382388483963298,0.00596280733600769,0.7377016778216552,0.2831991051348198,-0.004519138197030383,0.10943400478297968,0.03480071770334522,-0.018638648231108192,-0.0006373559872293487,-0.13206266599038813,-0.10538335536594218,-0.08993336019166438,-0.13446705302285109,0.009812845363055158,-0.5,0.5,0,0.0,0.0,0.0,1.0,7.5961063255619115,0.0
210,-0.3746281284851222,0.21660346832159608,0.8580668654102014,0.20858113383633997,0.6447457434487679,-0.016064638871451497,0.7352134141119654,0.31715167020202506,-0.005108211599668884,0.12317115678597294,0.0428387227428501,-0.016545167157434967,0.003319801688315786,-0.13461958729314452,-0.10454520897986182,-0.09546466221531758,-0.13762776791902262,0.010101656124608054,-0.5,0.5,0,0.0,0.0,0.0,1.0,7.6241691963171165,0.0
217,-0.3955343111493612,0.2084817385528094,0.852748914908218,0.1982544524302274,0.6508594420395348,-0.03523552137850403,0.7320079349520476,0.3471115176680427,-0.005619177337853033,0.13533583207223837,0.04985092408322722,-0.015013218006309633,0.007214407607690343,-0.13844054996493807,-0.10365764519893124,-0.10234577332528924,-0.14126274743869816,0.010300958530933246,-0.5,0.5,0,0.0,0.0,0.0,1.0,7.651917497266183,0.0
224,-0.4160200421593789,0.19857263380232154,0.8466998960114333,0.18885691341906397,0.658770504664115,-0.05007586450488632,0.7265307262824469,0.3716290097703441,-0.006056323289222025,0.14532294352232764,0.0554490500374469,-0.013770339606790258,0.009791931006607128,-0.1408403430002395,-0.1032894124863417,-0.10643500719595421,-0.1437375856200989,0.010378537644641713,-0.5,0.5,0,0.0,0.0,0.0,1.0,7.431702851799019,0.0
231,-0.4350815888084083,0.18760986154041073,0.8407620016352872,0.17775075124464063,0.6655739575603795,-0.06711328971793173,0.7217421865130353,0.4000100282831602,-0.00652870779260678,0.1570288812122164,0.06233959828211661,-0.012461438877301133,0.013866961758064044,-0.14520820331654435,-0.10313523524034686,-0.11314488834122532,-0.14934423722258627,0.010606981273088685,-0.5,0.5,0,0.0,0.0,0.0,1.0,7.393432176670592,0.0
238,-0.4525869093640362,0.17502727620211017,0.8362372669241643,0.16728265214954816,0.6693313117800764,-0.08518304450563421,0.7188573977426446,0.42789825955339955,-0.00700540194148569,0.1685482640583341,0.06891281103340355,-0.011068520086238747,0.017290467369195477,-0.14832036691264372,-0.10294992832267531,-0.11825807013124959,-0.15372160860710368,0.010757781678833761,-0.5,0.5,0,0.0,0.0,0.0,1.0,7.8666824492205425,0.0
245,-0.4692596130258039,0.16099991185015702,0.8318165743742394,0.15661064690386392,0.6727098680147996,-0.10295107502201409,0.7157762324244051,0.45471212546148226,-0.00746230450031504,0.17973986135193756,0.07544811519917649,-0.009359557491006138,0.02036957777506809,-0.1499074228196629,-0.10274737225505917,-0.12150047243458248,-0.1577462375587852,0.011016270489377169,-0.5,0.5,0,0.0,0.0,0.0,1.0,8.749043260949293,0.0
252,-0.4854936839790193,0.1417783910679297,0.8330364448476042,0.14725944498065813,0.674244587173989,-0.1194297313556498,0.7137544618416637,0.46521602400217327,-0.005276009723318901,0.1902132738621997,0.08595169609993714,-0.006442685003504459,0.023908355705662535,-0.1486809557785461,-0.1026192327590126,-0.12140426993897102,-0.1612835294154755,0.011436118686140702,-0.5,0.5,0,0.0,0.0,0.0,1.0,9.98795996534506,0.0
259,-0.4998429471293891,0.12153848249399239,0.8355285521400303,0.14045941762812908,0.6761354851285943,-0.13071873396403275,0.7113540400815388,0.4678449485202538,-0.0029819947881386884,0.19725935401956166,0.0946750587377522,-0.0037431212308400475,0.027138295307300588,-0.1464899983075086,-0.10259219378441904,-0.12005466905153585,-0.16547131253812006,0.012045820616014662,-0.5,0.5,0,0.0,0.0,0.0,1.0,9.522924045220876,0.0
266,-0.5124110612871816,0.1021144955617592,0.8373208821220942,0.13378813700582567,0.6800797590277097,-0.13850136673195296,0.7073963720367132,0.47011610518518626,-0.0009281061790331793,0.20343537211435647,0.10225239969661504,-0.0014108511882207461,0.029714231270528153,-0.1443491369817774,-0.10258117961866503,-0.11854529212733955,-0.1684609271547424,0.012469378721842178,-0.5,0.5,0,0.0,0.0,0.0,1.0,6.097386604166884,0.0
273,-0.5236724951681067,0.08198334503577612,0.8389204341405485,0.12602152527021784,0.6855338381746918,-0.1448402307457525,0.702270061617011,0.47226355438274475,0.0010627487376843555,0.2093542118829806,0.10954801800886567,0.0010005262558801672,0.03191582472522418,-0.14145346486340143,-0.1025690984021669,-0.11616236465134243,-0.16991325885851516,0.012606528646299823,-0.5,0.5,0,0.0,0.0,0.0,1.0,0.33960260440390116,5.067779561716046
280,-0.5328514507606785,0.062249268768428574,0.8411230282035417,0.11910058908817714,0.686556433639926,-0.15435551139231346,0.7004496335992278,0.47468795314582796,0.0033236753410296185,0.21603783489576037,0.11778458358914833,0.0037773450448051293,0.034340410181171434,-0.13790891531269456,-0.10255599915332654,-0.11316686766690433,-0.17150447724571496,0.012716700365111038,-0.5,0.5,0,0.0,0.0,0.0,1.0,-0.04945069555870582,5.309215304621439
287,-0.5407666827702771,0.04236181996474021,0.8434032469223712,0.11162479674803476,0.6874332876430529,-0.16393493035657844,0.6986420531289306,0.477097893529395,0.005605463408978598,0.22274468704054998,0.12608922803938252,0.006743076160089146,0.03658314305517117,-0.13337393765775674,-0.10254830873753684,-0.10911309361234112,-0.17199611478606067,0.012660985601385009,-0.5,0.5,0,0.0,0.0,0.0,1.0,0.5735485520649153,4.7885246900529115
294,-0.5476566213553118,0.022445052961515374,0.8458146487706943,0.10340966381335077,0.6882146043993457,-0.17384434843915153,0.6967390058244398,0.4795846579879381,0.008034593891459402,0.22977598212031192,0.13482671855371994,0.009945648753730803,0.03883470912454757,-0.1280812630885478,-0.1025405791605556,-0.10432600007271343,-0.1720626932831394,0.012650984096467033,-0.5,0.5,0,0.0,0.0,0.0,1.0,1.091301846145734,4.515121696169334
301,-0.553749350630725,0.0025938139471010663,0.8483619017775874,0.09447513510398156,0.6888903068504983,-0.18415832560853415,0.6946871994527982,0.482132873410382,0.010638202702560908,0.2371457972353589,0.14402253617544894,0.013401611363485904,0.0410981594757124,-0.12199845617575815,-0.10253718605474167,-0.09874420869218517,-0.1719937679662587,0.012817205832649106,-0.5,0.5,0,0.0,0.0,0.0,1.0,1.447204759272332,3.9724067071167495
308,-0.5592540972842761,-0.01710104095193273,0.8510423870769871,0.0848577609703585,0.6894443837526828,-0.19492834202240544,0.6924366711775,0.484721412879238,0.013437651021778031,0.24485064606712104,0.15367946614827013,0.017123621011177297,0.04337445850536413,-0.11511264609077292,-0.10254309969949431,-0.09232131750605443,-0.17198534864457973,0.013186290509743811,-0.5,0.5,0,0.0,0.0,0.0,1.0,1.6855215264984735,3.7700242884746693
315,-0.5648430760776991,-0.036789287039896215,0.8541400585006377,0.0752596961354725,0.6879495576501445,-0.20797021731410958,0.691237855572804,0.4874128191555154,0.016477591896910355,0.2529987626331528,0.16387402958081235,0.020997279156703366,0.04573445166252671,-0.1079543259295103,-0.102549273074318,-0.08571323994613289,-0.17162419801052806,0.013502053521036646,-0.5,0.5,0,0.0,0.0,0.0,1.0,1.6589380560928497,3.7915798731650066
322,-0.5722120333261543,-0.056766116926815796,0.8581928831573528,0.06754292486953731,0.6801841352566234,-0.22704980216490747,0.6937116712166115,0.490078920965842,0.019688846996753148,0.2613251639141228,0.17429657212598482,0.024940677410018538,0.04811204784422142,-0.10068859204738831,-0.1025617293749213,-0.07900220477828841,-0.17131897223347292,0.013861388839153959,-0.5,0.5,0,0.0,0.0,0.0,1.0,1.2023673970868058,4.502050373775849
329,-0.5780500020440903,-0.07580969601746232,0.8615492370279195,0.056989625846421144,0.677972960376412,-0.24152235741149816,0.691933377150374,0.49258675571183685,0.022913150811979144,0.2695676426288491,0.18496703816460613,0.029580293727302167,0.0503453891904672,-0.09010135538277088,-0.1025776196105752,-0.06906345831770416,-0.16830225573750437,0.013623604002218282,-0.5,0.5,0,0.0,0.0,0.0,1.0,1.2272487028819292,4.177359627528218
336,-0.5817618115167226,-0.09528109818293466,0.8641860141098832,0.04239891241969668,0.6824841695958409,-0.25053678515401945,0.6853094262896076,0.49512457185977016,0.026442933886240937,0.27823664769907086,0.1960900666797459,0.03413924068558044,0.05272345879044693,-0.08033079420909982,-0.10259916229067452,-0.06002155947651285,-0.16516876726349125,0.01312730215342026,-0.5,0.5,0,0.0,0.0,0.0,1.0,1.6057266740646616,3.8567317237947236
343,-0.5797799097472971,-0.09914830723497406,0.8615782112792234,0.0265278174202473,0.6898024201781433,-0.25734347396082935,0.6761976282338369,0.4976623705705577,0.033461521061461365,0.2908835660811703,0.21485035502553373,0.038006139915937105,0.057022779419929594,-0.07941638461592675,-0.10260103672684243,-0.06031272913926874,-0.16760509104029447,0.013422950649161236,-0.5,0.5,0,0.0,0.0,0.0,1.0,2.0440745836693015,3.352136337517769
462,-0.5801961569033304,-0.13330661129401192,0.9610204574596819,-0.09313697156511674,0.7007325918930749,-0.34200959865532543,0.6191355050504819,0.49997327493096216,0.018575933825817837,0.3292919843012713,0.3082775812254821,0.10517843167298313,0.08434989777284559,0.08418489160068915,-0.10307217602776356,0.08983585840457604,-0.1006433050977321,0.002075635204462732,-0.5,0.5,0,0.0,0.0,0.0,1.0,3.104391391233856,2.1688016820879574
469,-0.5823635840624831,-0.13953771411987365,0.9686209613916692,-0.09952762310180911,0.7001228836092711,-0.3472216605733587,0.6159215197693798,0.4999833339199006,0.01883482634305174,0.3293973758923272,0.3100665968080934,0.10881138001988239,0.08559508323459045,0.0932853858122488,-0.10307501619609559,0.09819308336882414,-0.0950075756282105,0.0010940959752925399,-0.5,0.5,0,0.0,0.0,0.0,1.0,3.132524224692308,2.282488312932196
490,-0.591032042658059,-0.16122803500531688,0.9936827507235483,-0.12015708839938365,0.6969374279340428,-0.36529406155413063,0.6053104527805138,0.49996132106241203,0.019671095030909646,0.3298232823286451,0.3156260166674194,0.12038987838663193,0.08983151042177219,0.12196022333653864,-0.1029736358657019,0.12449644657955598,-0.07664153726795572,-0.0011037928822971031,-0.5,0.5,0,0.0,0.0,0.0,1.0,3.2065597638288166,2.278431989843477
497,-0.5946745065292142,-0.1693885669420675,1.0029397239081448,-0.12764752074671162,0.6953982424207454,-0.3721945882647367,0.6013306772083054,0.4999937572928,0.019970508323191166,0.3300094601852902,0.3175754386200018,0.12448284813002017,0.09139816459073573,0.13207083079651716,-0.10290410008987666,0.13379344785346528,-0.07005847265160053,-0.0014100312905940473,-0.5,0.5,0,0.0,0.0,0.0,1.0,3.230164224932898,2.0589875854637154
504,-0.5985674119583679,-0.178004222428183,1.0125624463912652,-0.13552729906786704,0.6937389208702736,-0.3793428100837709,0.5970407802779182,0.49994963508086676,0.02030909723903112,0.33014905117430815,0.31959497744724996,0.1287196615113058,0.09308113865007109,0.1424637170187797,-0.10282294689558162,0.1433700167267676,-0.06332898118637233,-0.0014435912269597413,-0.5,0.5,0,0.0,0.0,0.0,1.0,3.2566649639985563,1.8233214982785082
511,-0.6025757907544151,-0.18707960027534823,1.0224328032635446,-0.14389380177284167,0.692060640678825,-0.3865909530447789,0.5923631305698406,0.49987069911040444,0.020674470147917328,0.3302825927844611,0.32166982913935044,0.13307471527323944,0.09485066875451516,0.15312979289658035,-0.10273162210421645,0.15323092861230816,-0.056402821807450945,-0.0011898984650334842,-0.5,0.5,0,0.0,0.0,0.0,1.0,3.287583840863817,2.362390702974199
525,-0.6108740420431065,-0.20906118831969855,1.044719907125789,-0.16131190993931663,0.6883392765399795,-0.4009182388880303,0.5826079932605351,0.4991155378009006,0.02118372666519111,0.3304100850663664,0.32367788544735443,0.13944212467224285,0.09784038768668143,0.1694847222432416,-0.10267598109349448,0.1683998520896636,-0.04612694701561392,-0.002018801741339257,-0.5,0.5,0,0.0,0.0,0.0,1.0,3.3717618531784326,2.096108899730735
532,-0.6138666608318126,-0.22358218429808485,1.0605228956035726,-0.17050665214722596,0.686268470295903,-0.4074946997666979,0.5778504459748344,0.4977105215194896,0.021263301307823737,0.32960321113837493,0.3221505452804743,0.13980345610987074,0.09786089768312162,0.17229674378188345,-0.10266052350591398,0.17108885943530525,-0.04381683720978225,-0.002423100091991851,-0.5,0.5,0,0.0,0.0,0.0,1.0,3.4490770462865643,1.965671932924295
539,-0.6160405309578645,-0.23809794414611876,1.0789151353952868,-0.18142807157262011,0.6834728400745465,-0.41541500573354195,0.572170520681794,0.4963644040862972,0.021327894986331135,0.32876955570290955,0.3208239701097318,0.13986416023347248,0.09774359914016553,0.1740293634122287,-0.10263919788015376,0.1727630252505812,-0.042225441097550914,-0.0026971540583686487,-0.5,0.5,0,0.0,0.0,0.0,1.0,3.5337952369674004,2.014599294851966
546,-0.6172137008779116,-0.25185710164882275,1.102269131825103,-0.19567058354646957,0.6789221249599345,-0.4256681872492272,0.5653179329708441,0.4949326602822297,0.02153025154828381,0.3284122917052392,0.3188434702821698,0.14233037886758984,0.09807294931847295,0.18483748809035408,-0.10262717513462578,0.1831187823037809,-0.03281613130568081,-0.0035539210390593537,-0.5,0.5,0,0.0,0.0,0.0,1.0,3.6210665569344354,1.629278712125986
553,-0.6163178639723967,-0.2672126489536968,1.12213231209759,-0.21004376245993128,0.67513061296782,-0.43338483883216244,0.5588003711127906,0.49434221401135403,0.02161344936461684,0.32831092291220365,0.3179822918448184,0.14352195168862267,0.09855262573463743,0.1893257665326947,-0.1026473475831801,0.18738622236922894,-0.029587485407581233,-0.004113576897280583,-0.5,0.5,0,0.0,0.0,0.0,1.0,3.700131227103088,1.89950273286824
560,-0.6153189631906665,-0.27990303926021987,1.1438974548000636,-0.22480012436489114,0.6705680207412325,-0.44200499274127836,0.5517563049358819,0.4931171809531562,0.021831803651391563,0.3281527094487109,0.3160965525488086,0.1461906987073437,0.09906982133031912,0.20025871847038443,-0.10263189790234124,0.19789844056180533,-0.020229008916584797,-0.004761499313453796,-0.5,0.5,0,0.0,0.0,0.0,1.0,3.7858827763528113,1.6855819211819982
567,-0.6146642988310713,-0.2930811005147261,1.163523684811699,-0.23817648835924893,0.6655287415077233,-0.4500592560759101,0.545701494079319,0.49190757971807847,0.02195814575752775,0.32767377036590645,0.31464056562763604,0.14735627439205562,0.09932212894893272,0.2055887944409556,-0.10261912153889279,0.20303831590172672,-0.015644030386675632,-0.005146042843438109,-0.5,0.5,0,0.0,0.0,0.0,1.0,3.8552540905515946,2.3332878220685154
574,-0.6128034812612732,-0.30560591697782385,1.1842246446460443,-0.2537109708980391,0.6602608248011834,-0.45839845850521804,0.5381052310829876,0.4912655693431584,0.022076303486545677,0.3277704191400265,0.31332798891304675,0.14940992665501185,0.099956135010641,0.21307221566299386,-0.10270705453211566,0.2102625679862946,-0.009011814170172818,-0.005994413476358465,-0.5,0.5,0,0.0,0.0,0.0,1.0,3.934206776638717,4.10679451401599
581,-0.6122495499566399,-0.31797244292004984,1.2049494221819759,-0.2688752514700479,0.654690924390304,-0.4665356219040487,0.5305001471842306,0.4900138277715432,0.02228431138976063,0.3273529312857562,0.31189546816998126,0.15066797963219902,0.1002951624373393,0.22180532282119,-0.10275672752166676,0.21876757628877513,-0.0007835333446984086,-0.006713806588848781,-0.5,0.5,0,0.0,0.0,0.0,1.0,4.016537308453526,1.3528659142193344
588,-0.6213774394570926,-0.3288310213780454,1.2279597012090522,-0.2787176018429933,0.6497205417707709,-0.47424681577655453,0.524661484911734,0.48708392205057377,0.022518728652401048,0.3255540632364493,0.3092708202295373,0.14697560095659412,0.09899916165272041,0.23012385436128335,-0.10296642339703588,0.22713539640062239,0.009224401156436747,-0.007320758487414305,-0.5,0.5,0,0.0,0.0,0.0,1.0,4.126373669293823,1.1463398897918635
595,-0.6305556825997615,-0.33969290065271274,1.249156773594971,-0.2884139367355539,0.6453620859209298,-0.48106551485926174,0.5185567949276914,0.48531241431818045,0.022582907582095822,0.3243773417136236,0.30760021506295226,0.14423495276390452,0.098234378598322,0.23251246188482505,-0.10310733572770416,0.22962273504909572,0.012676591579864498,-0.007695003967092694,-0.5,0.5,0,0.0,0.0,0.0,1.0,4.230334812440984,4.3030244014732455
602,-0.6390823074892064,-0.3514252696933372,1.2714069881594439,-0.2987848014633148,0.6407113998862615,-0.488062617115074,0.5118705170695997,0.48364994785472326,0.022710689694081146,0.323295375613882,0.30598185989080406,0.14127274479452548,0.09763986903625169,0.23683819093553116,-0.10327356194174579,0.23399658195512968,0.017718633495231135,-0.008189785809143847,-0.5,0.5,0,0.0,0.0,0.0,1.0,4.339898481460222,1.287899008995475
609,-0.6467685228284524,-0.36420516634442773,1.292922720420535,-0.3083220820815801,0.6361628775095876,-0.49426747918394803,0.5058991460763167,0.4817947018088677,0.02285066495798466,0.32204954337512387,0.30420897543937075,0.13768898107206548,0.0946236108546673,0.2412952722955302,-0.10341938185878513,0.2385159411578097,0.02488256558355001,-0.00860473372496155,-0.5,0.5,0,0.0,0.0,0.0,1.0,4.44687454805811,0.9668212535349934
616,-0.6533581862491549,-0.37929331945360534,1.3147417940495105,-0.3165084950762072,0.6322281370469942,-0.49898506550580335,0.5011225994433406,0.47996266802641874,0.022870986805610827,0.32078574234378776,0.3026759453725928,0.13510183610050847,0.08861574588812977,0.2418494314391396,-0.1035165634416444,0.239125976482431,0.03005019882391174,-0.008696621621408702,-0.5,0.5,0,0.0,0.0,0.0,1.0,4.5598035825417265,0.8171613235351929
623,-0.659048271668155,-0.3942589561958733,1.334603567690013,-0.3246179584588849,0.6281597978001102,-0.503614999833895,0.4963974027087737,0.4791242955681475,0.02282610485279181,0.3201165728024314,0.3017720407545445,0.13327837649451776,0.08496702800479973,0.24033264695775816,-0.10357070370133493,0.23756679757579882,0.030826292736603252,-0.008808385941285949,-0.5,0.5,0,0.0,0.0,0.0,1.0,4.656373259697845,3.002318744263561
630,-0.6643128456212241,-0.4116233316165109,1.3530836985029946,-0.3310582792289889,0.6246668332461417,-0.5068886536230555,0.4932095457555378,0.47827860111172676,0.022599904211603,0.3192670828387412,0.30002336805393137,0.13099804857660724,0.08081108788581276,0.23391574812435878,-0.10378959466699562,0.232334338522621,0.031269991764471206,-0.008699739012849837,-0.5,0.5,0,0.0,0.0,0.0,1.0,4.748592402662206,0.4548942352032812
637,-0.6686099013854336,-0.4309457486572702,1.3701327254634872,-0.3363893331699533,0.6219363309622322,-0.5088831821111145,0.4909942196433448,0.4774802892962588,0.022285657507252195,0.3184213774520559,0.2979127142399023,0.12922894403101226,0.07798285665121478,0.22460748530661112,-0.10391555999744301,0.22429480247279898,0.028519469903052055,-0.008261933726986638,-0.5,0.5,0,0.0,0.0,0.0,1.0,4.8378666313246725,2.2965497230378045
644,-0.6715666921283623,-0.45006361313796456,1.385887073309715,-0.34161115006880094,0.6189129942347963,-0.5106159129511654,0.4894077207779195,0.47660522681302253,0.022040257524986874,0.31760748545272643,0.2959457380220407,0.12776670821932634,0.07541010296385801,0.217354925996617,-0.10398232102330877,0.21834957312875336,0.02791085984311603,-0.008023823341291819,-0.5,0.5,0,0.0,0.0,0.0,1.0,4.915894216112785,0.8229208355729787
651,-0.6725737911320702,-0.46957087656607716,1.3990549399347454,-0.34651759682959626,0.616485661986838,-0.5112235543033646,0.4883865898829803,0.4759044890184153,0.021729399687413248,0.3168332435729803,0.29388969764932604,0.12620839701298806,0.07239829583158681,0.2077836394893074,-0.10399587414338436,0.20985465837467915,0.025108357446693156,-0.007602477649675882,-0.5,0.5,0,0.0,0.0,0.0,1.0,4.98407545115192,1.1504686625732
658,-0.6714746378382287,-0.4883301609230339,1.4108823641564425,-0.35140708886397054,0.6135992204524213,-0.5112916754532243,0.4884566277250878,0.4749462207631059,0.021508850829305308,0.31599888293683587,0.2918541912606328,0.12487063605164091,0.06972697907588386,0.2010142020125871,-0.10396908818026822,0.20434639055365766,0.025154975251449357,-0.007320961174832204,-0.5,0.5,0,0.0,0.0,0.0,1.0,5.039106280189429,3.250930503464682
665,-0.6690232814277891,-0.50749528191932,1.4202728378639662,-0.35567795917751527,0.6111356287053904,-0.5104829878280489,0.48929904130330476,0.4741425156562747,0.02120091055771051,0.3151712734807241,0.2895868279801312,0.12342562974711031,0.0662895588850573,0.19104789656367704,-0.10394019018969985,0.19536697994104632,0.022278314940096473,-0.006879168022890433,-0.5,0.5,0,0.0,0.0,0.0,1.0,5.0832579525896,0.5531649306971449
672,-0.6637510733323323,-0.5161056071252912,1.4369602513648023,-0.36557558769583043,0.6052700863612637,-0.5141256464987144,0.4854662005220915,0.47183074369159295,0.023875530500930612,0.31970411806120436,0.2948595007704375,0.12416749714652929,0.06488179901479826,0.184782583274922,-0.10391970970205866,0.19079166862202332,0.023295921827072,-0.0067208395448062645,-0.5,0.5,0,0.0,0.0,0.0,1.0,5.139943269759076,1.193859596739891
679,-0.6595743070294295,-0.520862854808249,1.4552113376747893,-0.3751862987385806,0.599359598365676,-0.5184611690923446,0.480833993420993,0.4701503369034748,0.02597068369206249,0.3232265348727592,0.2992897255918497,0.1250571202646809,0.0644621503071168,0.18163776416057162,-0.10391763223476644,0.1885900162949959,0.023809232565628773,-0.006696720739341307,-0.5,0.5,0,0.0,0.0,0.0,1.0,5.210032558041961,0.14155725016308285
686,-0.6559000698965101,-0.5258015083960712,1.4710099145436064,-0.3836443952994343,0.5939828672513204,-0.5219614657539023,0.4770299357852391,0.4693735431073051,0.027407214372517755,0.3258276637362552,0.3025262789682821,0.12570269392250547,0.06408885881702142,0.17967312430856716,-0.10381543847474772,0.18774881140407093,0.025787710917110837,-0.006614069906834079,-0.5,0.5,0,0.0,0.0,0.0,1.0,5.270679943834686,1.615936709098155
693,-0.6518332759693783,-0.5284750890053697,1.4851048870855301,-0.39205290269175574,0.5884625950217962,-0.5253783427106273,0.47326936596595487,0.46795472177662956,0.029517492370791522,0.3295010678103343,0.3069943524315648,0.12662576426819475,0.06341894244347032,0.17591467099065347,-0.10379582796469905,0.18492972838786823,0.025773288446499426,-0.006547947595021719,-0.5,0.5,0,0.0,0.0,0.0,1.0,5.320809866110193,0.2734867842755726
700,-0.6488146957893752,-0.5311981079130761,1.4980991615490824,-0.39952078145133707,0.5834209747034563,-0.5285916330896013,0.4696743519634112,0.4663991292488851,0.031451688202241465,0.33269418058277767,0.3110195472099893,0.12747889972729803,0.06294440608156224,0.1732370049658404,-0.10373081675833791,0.1833053539432622,0.026889902360809587,-0.006579996527884429,-0.5,0.5,0,0.0,0.0,0.0,1.0,5.36996395947846,0.12481624860475904
707,-0.6463228756534091,-0.5330376404600495,1.5102566994885915,-0.40679656106474354,0.5783703585837011,-0.532054494490599,0.4657491826187274,0.4646409129068534,0.03373176831296947,0.33649603770148084,0.31578332801870723,0.12850619158496734,0.06242758734801978,0.17013121517496493,-0.1036570057378199,0.18132554731754955,0.02784317024571102,-0.006596782822611423,-0.5,0.5,0,0.0,0.0,0.0,1.0,5.41470387308,2.365234882604338
714,-0.6438667928203379,-0.5355551704979232,1.5197276723931583,-0.4127493484891008,0.5741364042767014,-0.5343419601208302,0.46312421040178,0.4636399005437913,0.03527182056872864,0.3391338149562465,0.31905850990301793,0.12921585007544026,0.06179482862978233,0.16749266992194448,-0.10352089856961846,0.17977955275660962,0.02918804513716498,-0.006539371925309406,-0.5,0.5,0,0.0,0.0,0.0,1.0,5.449027499291912,0.396814221985208
721,-0.6422835511437595,-0.5371598424731147,1.5287651969428895,-0.4184025995090974,0.570031297611322,-0.5371903025489573,0.45981535785023747,0.46203023118521763,0.037343958519288255,0.3424863404552158,0.32331372017137416,0.130175835055979,0.06131363591241246,0.16476017091350392,-0.10341708590755498,0.17810737875127972,0.03025098578516989,-0.00657568439308499,-0.5,0.5,0,0.0,0.0,0.0,1.0,5.48208098671246,0.4642309468457393
728,-0.6413463971608027,-0.5380535092260682,1.537053456572802,-0.42372201381530994,0.5660877485806186,-0.5403256174397298,0.4561277705354052,0.4605090793441725,0.039554174684148326,0.34624170107290264,0.32804859576989465,0.13125473387707934,0.0608218354070927,0.1618133720870656,-0.10330637778593453,0.17629939854899196,0.03135664624631776,-0.006611743177521877,-0.5,0.5,0,0.0,0.0,0.0,1.0,5.511355678519012,3.3458452771516782
735,-0.6410166103775419,-0.5383129089699872,1.5451422316989922,-0.4277762320211661,0.5630558751530934,-0.5429448446214413,0.4529751344967585,0.4605423492407115,0.04026468534333525,0.34779959742430305,0.3311756133678035,0.13268441026788552,0.06322515385949583,0.1593093651083928,-0.10226400157006281,0.1718683974510896,0.02867060994005345,-0.006226839359024217,-0.5,0.5,0,0.0,0.0,0.0,1.0,5.5443717296029,0.0
742,-0.6413766895494153,-0.5381700445083774,1.5504153698182441,-0.42995350382508774,0.5611718419839434,-0.5446824423469715,0.4511620388638837,0.46122192665391254,0.04022576371795342,0.348147466545527,0.3325581900802079,0.13362823018564723,0.0652113094265337,0.15818702084207598,-0.10152000532583692,0.16906025726707863,0.02646632577456431,-0.006004938328262166,-0.5,0.5,0,0.0,0.0,0.0,1.0,5.5655063992158125,0.10730786487576793
749,-0.6410570551916583,-0.5371997497224227,1.5516700546615725,-0.4312320791287927,0.5602740880271189,-0.5454586926913856,0.45011848971470136,0.4617865179778114,0.04019548140467664,0.3484692762831529,0.3337810132167557,0.13467021173697605,0.0669854062973736,0.15768390064364232,-0.10101538185888641,0.16715687918970726,0.024808579779858463,-0.006001472710650652,-0.5,0.5,0,0.0,0.0,0.0,1.0,5.567847024079525,2.780519194766546
756,-0.6407109133582417,-0.535679170898746,1.5512547006408797,-0.4321763392040878,0.5595883700589046,-0.546070209931929,0.4493237070886319,0.4624525910386918,0.04013009875552745,0.3489220031982497,0.335043111868315,0.13586582638713385,0.06877981847941574,0.15748808573825251,-0.10072426137244003,0.16567091908768392,0.023189083997197744,-0.006045972378255358,-0.5,0.5,0,0.0,0.0,0.0,1.0,5.560551815322528,1.7765961327341122
763,-0.6403710561577242,-0.5340785190497154,1.5502636110592376,-0.43300770510181824,0.5589664712914395,-0.546560815709091,0.4487004413034004,0.46314504951906516,0.04006119845570599,0.3493852876079888,0.33633134328564906,0.13702733313874801,0.07062057113489652,0.1570923582689995,-0.10047047913642874,0.16396639888865608,0.021283385834074863,-0.006013646881386284,-0.5,0.5,0,0.0,0.0,0.0,1.0,5.5499122206858855,1.9477159694369828
770,-0.6401819726020523,-0.5330193099405863,1.5499367150418133,-0.43373746548449127,0.5584067576294969,-0.5470473335187576,0.4480992289201348,0.4639407244654628,0.03998043207537546,0.34995628837627,0.3372607664076782,0.13787778614476034,0.07141066586038976,0.15679186185195015,-0.1003723765108564,0.16374330302131326,0.021006173934164464,-0.006056440280676135,-0.5,0.5,0,0.0,0.0,0.0,1.0,5.543452718520693,0.13131956442064752
777,-0.6400795392656304,-0.5325778761432559,1.5503513984802288,-0.4342525788353431,0.5580173043463632,-0.5474401400671669,0.4476054946804308,0.4644606669439972,0.0399513259081984,0.3503050419566944,0.3378347263003201,0.13835593347367528,0.07148020573290584,0.15664485950928486,-0.10046707584926083,0.164136873678298,0.021263828639818298,-0.006126637948225082,-0.5,0.5,0,0.0,0.0,0.0,1.0,5.543021377302856,4.101394694440757
784,-0.6399688439601589,-0.5321419071957789,1.5506049312251202,-0.43468639813752924,0.5576918409835784,-0.5477700754121849,0.4471861919351913,0.4648704097764062,0.039941659997357805,0.350558064468498,0.3384101345526759,0.13896629480997535,0.0715358373441609,0.1563537303375161,-0.10066103132403414,0.16451045612846354,0.021345025573619655,-0.006308067459592713,-0.5,0.5,0,0.0,0.0,0.0,1.0,5.5421283829142585,0.0
791,-0.6398585701028651,-0.5317159284894005,1.5507530985268443,-0.43511283403709033,0.5573698093647808,-0.5480972547205348,0.4467718843354992,0.4654050428289774,0.03986052990980844,0.35102203131931664,0.3387274819553816,0.13968252405432902,0.07155193041955704,0.15600503676114166,-0.10091686385712231,0.16488468669599218,0.021352904473791904,-0.006598422389113621,-0.5,0.5,0,0.0,0.0,0.0,1.0,5.540360549195471,3.830699415916376
798,-0.6397542203948235,-0.5313136360043323,1.5508984802594197,-0.4355105935489724,0.5570721513888527,-0.5484020383961642,0.44638138999800286,0.46593070107830614,0.039787544181483565,0.3514610368184091,0.3390335608243587,0.1402403315741389,0.07156298748856911,0.155668103167257,-0.10103282505176268,0.16510828187374169,0.021375035494889873,-0.006746436133382703,-0.5,0.5,0,0.0,0.0,0.0,1.0,5.538727279597752,4.451671536585283
