yifeidong0/3D-Soft-Fixture/results/FishFallsInBowl_16-03-2023-20-47-33/data.csv
index,obj_pos_x,obj_pos_y,obj_pos_z,obj_qtn_0,obj_qtn_1,obj_qtn_2,obj_qtn_3,obj_joint_0_pos,obj_joint_1_pos,obj_joint_2_pos,obj_joint_3_pos,obj_joint_4_pos,obj_joint_5_pos,obj_joint_6_pos,obj_joint_7_pos,obj_joint_8_pos,obj_joint_9_pos,obj_joint_10_pos,obs_pos_x,obs_pos_y,obs_pos_z,obs_qtn_0,obs_qtn_1,obs_qtn_2,obs_qtn_3,start_energy,start_gravity_energy,start_elastic_energy,escape_energy_cost
0,0.0,0.0,2.4,-0.0,0.7071067811865475,-0.0,0.7071067811865476,0.0,0.0,0.0,0.0,0.0,0.0,0.0,0.0,0.0,0.0,0.0,-0.5,0.5,0,0.0,0.0,0.0,1.0,14.126400000000004,14.126400000000004,0.0,0.0
5,4.736137965832942e-34,9.479669778952795e-37,2.397445938124821,-4.5531248084943515e-19,0.7071067811865475,-4.553124808494354e-19,0.7071067811865476,2.0165249942787772e-19,9.427926569699229e-19,9.345846844103272e-19,2.5679065925163144e-35,5.52151235800999e-20,-2.3080393383975745e-18,1.6694149183473502e-18,-1.255440473431008e-19,-6.783955490135126e-19,-6.187416229169717e-22,-4.457753252155856e-19,-0.5,0.5,0,0.0,0.0,0.0,1.0,14.111366791802704,14.111366791802704,5.2973542880582626e-36,0.0
10,2.2115809390644815e-33,7.68451973850796e-37,2.3906384505747,-6.927409973196452e-19,0.7071067811865475,-6.927409973196454e-19,0.7071067811865476,9.536472352015631e-19,-2.903746781137842e-19,3.2051242365067304e-18,-1.7975346147614202e-34,1.844327136406651e-18,-3.4024739894444978e-18,-1.7704335504860503e-18,-7.534220690553685e-22,-5.3354884424366195e-19,1.76411954885e-21,-1.0499375667931357e-18,-0.5,0.5,0,0.0,0.0,0.0,1.0,14.071297920082685,14.071297920082685,1.5383217804539456e-35,0.0
15,5.676726225207617e-33,2.1380244006311394e-36,2.3795832500967324,-4.81551358902467e-19,0.7071067811865475,-4.815513589024666e-19,0.7071067811865476,1.3943442546225837e-18,-1.009971770653311e-18,4.707559395110304e-18,-2.311115933264683e-34,2.6429673799745238e-18,-5.1715988199199396e-18,-3.1409103851899437e-18,-1.6946167706691947e-18,-4.2658341766484635e-19,3.096698984727207e-21,-2.4650938678166097e-19,-0.5,0.5,0,0.0,0.0,0.0,1.0,14.006227010069368,14.006227010069368,3.591792959449181e-35,0.0
20,1.1060409696819268e-32,1.121399004368773e-35,2.3642874835597505,1.0841551620444079e-19,0.7071067811865475,1.0841551620444198e-19,0.7071067811865476,2.5245341145424092e-18,-1.7083797824122477e-18,4.885458292393113e-18,-2.0543252740130515e-34,2.2716030511168493e-18,-6.713167223323828e-18,-4.26782805198706e-18,-4.215564370248826e-18,4.0779091810477396e-19,4.363602123820574e-21,6.061358389961346e-19,-0.5,0.5,0,0.0,0.0,0.0,1.0,13.916196128232691,13.916196128232691,5.995269183178775e-35,0.0
25,1.7360155977844476e-32,4.394639591046691e-35,2.3447597224136487,1.0360993678054261e-18,0.7071067811865475,1.0360993678054284e-18,0.7071067811865476,3.583694503921823e-18,-2.9035335281936867e-18,5.414048073890699e-18,-1.5407439555097888e-34,1.930227756735089e-18,-9.08583104184823e-18,-7.64889288000919e-18,-5.081409167534241e-18,1.1043858198526724e-18,7.065772521509107e-21,1.5511460553342428e-18,-0.5,0.5,0,0.0,0.0,0.0,1.0,13.80125572612674,13.80125572612674,1.1240772408701783e-34,0.0
30,2.487326795658327e-32,1.074673419225126e-34,2.3210099512480715,3.2765306997598647e-18,0.7071067811865475,3.276530699759868e-18,0.7071067811865476,4.741424187289043e-18,-6.194074851248948e-18,5.2481187439436655e-18,-1.0691058840368783e-50,8.939403080346838e-19,-1.1566964502257914e-17,-8.834704146236425e-18,-1.0282556124029623e-17,3.257004220895763e-18,8.75242797128122e-21,2.8662045691682197e-18,-0.5,0.5,0,0.0,0.0,0.0,1.0,13.661464573046148,13.661464573046148,2.12795226767818e-34,0.0
35,3.3906066372838505e-32,1.7840674246819102e-34,2.293049554482896,6.183445196254196e-18,0.7071067811865475,6.183445196254199e-18,0.7071067811865476,6.657192894293011e-18,-1.2530452988721966e-17,6.150071033777045e-18,2.054325274013051e-34,2.484039337272068e-19,-1.5820431223872742e-17,-1.2216764416720032e-17,-1.182209278976276e-17,4.922479736664051e-18,1.1775009306299534e-20,4.327516601957057e-18,-0.5,0.5,0,0.0,0.0,0.0,1.0,13.496889677686328,13.496889677686328,4.107355738854012e-34,0.0
40,4.375011235182738e-32,3.089096240578617e-34,2.2608913012281473,9.147526278651057e-18,0.7071067811865475,9.14752627865106e-18,0.7071067811865476,8.367901189326153e-18,-1.710659703211032e-17,5.263991360435746e-18,5.135813185032628e-34,-1.5885064084815404e-18,-1.8634269963242288e-17,-1.7258479337596797e-17,-1.0668466416499227e-17,5.0432662633452746e-18,1.548702905280277e-20,4.687825137827061e-18,-0.5,0.5,0,0.0,0.0,0.0,1.0,13.307606199028875,13.307606199028875,5.996040853744952e-34,0.0
45,5.414200544539709e-32,5.537087720747304e-34,2.2245493283559834,1.234812659108813e-17,0.7071067811865475,1.2348126591088134e-17,0.7071067811865476,1.0051171752499597e-17,-2.142392002479901e-17,2.9402164888811323e-18,1.283953296258157e-33,-4.7241915944674525e-18,-2.1239510219996768e-17,-1.809183121970604e-17,-1.2592374853360262e-17,4.773317872245398e-18,1.64986299305511e-20,4.4030737735083025e-18,-0.5,0.5,0,0.0,0.0,0.0,1.0,13.093697346703324,13.093697346703324,7.85072106067208e-34,0.0
50,6.55881020912988e-32,8.933556633253307e-34,2.184039121832183,1.5350092374512116e-17,0.7071067811865475,1.535009237451212e-17,0.7071067811865476,1.1892184102755161e-17,-2.524625142669796e-17,7.274251526064236e-19,1.2582742303329939e-33,-7.71575927765562e-18,-2.3745242221750788e-17,-2.1281502264117306e-17,-1.2982782735628301e-17,5.3593240604565475e-18,1.929242422041558e-20,4.751207729021482e-18,-0.5,0.5,0,0.0,0.0,0.0,1.0,12.855254271104226,12.855254271104226,1.0377237791159767e-33,0.0
55,7.813273429551337e-32,1.3728142005301753e-33,2.139377496359163,1.8887352296218406e-17,0.7071067811865475,1.8887352296218412e-17,0.7071067811865476,1.3484481459985063e-17,-3.096459454328629e-17,-1.1626070507934201e-18,1.6434602192104412e-33,-1.0323833717508536e-17,-2.6027571434334198e-17,-2.4934812938755245e-17,-1.4554934841471097e-17,6.643899475330228e-18,2.2366939889493385e-20,5.879271389753259e-18,-0.5,0.5,0,0.0,0.0,0.0,1.0,12.592375943570037,12.592375943570037,1.4191518925741682e-33,0.0
60,-0.0019373307939290912,-0.0006075564380438,2.0886642934934576,-0.0002636720531642318,0.7045366088333668,-0.0008076631140462407,0.7096671367415305,0.004222917343270377,-1.6928820299317003e-05,0.0023270625752048217,0.0042580192673300045,0.000852361888384876,0.0049434030921292615,-0.0045919497412993246,-0.003685452444056742,0.0003545823889187595,-0.02635903321018113,0.004049469513395257,-0.5,0.5,0,0.0,0.0,0.0,1.0,10.213453135398586,10.21304686832527,0.00040626707331643526,0.0
65,-0.0125960080124177,-2.7479234924924795e-05,2.0087784692778734,0.020463420012460095,0.6995956976555939,0.01578623444166974,0.7140713571242927,0.005801866312978834,5.013550252124855e-06,0.0030401361412890284,0.004479539533952127,-0.001938473942235099,0.008036119627245103,-0.02126303569186102,-0.0043472623727851606,-0.018682744017996692,-0.034766569967846536,0.0015496358227386712,-0.5,0.5,0,0.0,0.0,0.0,1.0,15.44434899215603,15.443267750486301,0.0010812416697283795,0.0
70,-0.02213802829200496,0.003023442572500068,1.9288258263212978,0.04131296345446638,0.6925769927606135,0.03258002155559953,0.7194226090030197,0.005169526049326063,2.0966003357339528e-05,0.0026220724528812386,0.003447543698840903,-0.003703227280898842,0.009310904330926968,-0.029752087617117576,-0.004407410903972877,-0.02886513324380153,-0.039504257344681444,0.0017266808987659388,-0.5,0.5,0,0.0,0.0,0.0,1.0,14.731680663170952,14.729957029284291,0.0017236338866608496,0.0
75,-0.030829585906849283,0.009111119710269417,1.8473203499754387,0.06167308262842145,0.6841644196021435,0.048660627440073344,0.7250845613903998,0.004953536351579667,3.0208105576343057e-05,0.002461054738715494,0.00298861755304442,-0.004751302146922719,0.010390826915546868,-0.03543788227548379,-0.0044447571747918005,-0.03604899248258999,-0.04209799020933645,0.001486493905470772,-0.5,0.5,0,0.0,0.0,0.0,1.0,14.300127353110216,14.297867527667405,0.002259825442810859,0.0
80,-0.03912097002343863,0.01905378107668415,1.7630660016254676,0.08233924942682071,0.6750086841956873,0.06450288273093513,0.7303580645023604,0.004963276489676905,3.593766781518556e-05,0.002437187363425944,0.0028243969311887965,-0.0054446604244299136,0.011315200833915766,-0.039535286255362276,-0.004292457854250408,-0.041329183828356215,-0.04465048071218841,0.0016104542346853925,-0.5,0.5,0,0.0,0.0,0.0,1.0,13.831053564251357,13.828312536710026,0.0027410275413305204,0.0
85,-0.04744633485675928,0.033090609370635696,1.6757194649788176,0.10362667868555639,0.6663794786756747,0.08037949200170405,0.7339884461829658,0.004929809781048517,4.0415284482184797e-05,0.002396198980740129,0.002646126236886738,-0.0059581130462863716,0.011792630632559054,-0.042291766652979325,-0.004177944354799155,-0.04464809241061078,-0.04659977134348634,0.001851657657208764,-0.5,0.5,0,0.0,0.0,0.0,1.0,13.229370583425037,13.226277542481682,0.0030930409433553414,0.0
90,-0.05622550055288531,0.050974395162334304,1.5858792362669896,0.12473781899229551,0.6607304719982732,0.09589589729361284,0.7339480204811765,0.005155780339525506,4.129316963419181e-05,0.0025114373457470235,0.002807388680071852,-0.006108732280513218,0.012196864648117797,-0.04361534549638651,-0.004180636555192889,-0.046228719358688136,-0.04794966328416044,0.0019981325659288963,-0.5,0.5,0,0.0,0.0,0.0,1.0,12.416614363456926,12.413320920475309,0.0032934429816164545,0.0
95,-0.0640862440211577,0.07435699952344865,1.4914672654589443,0.1479140242381556,0.6502082275926815,0.11214719673496755,0.7367317751182899,0.005730249792307629,4.351090878585246e-05,0.0028037476934035053,0.003210429386748203,-0.006516323430525614,0.013284275705458875,-0.046935369752712036,-0.004298985950485948,-0.05019389638927482,-0.051416587334243806,0.0023614249428437033,-0.5,0.5,0,0.0,0.0,0.0,1.0,11.829084998951457,11.825254989353681,0.0038300095977754907,0.0
100,-0.07154626635193145,0.10283651942479836,1.3945538333091327,0.17209353302473374,0.6387193439426281,0.12872561030279567,0.7388173880037857,0.005889565261051954,4.605920199873474e-05,0.0028744886696414756,0.003274916492241357,-0.006873696490402303,0.013883561858053516,-0.049180927823943704,-0.004381948666203141,-0.052812796749895384,-0.0535943140645241,0.0025926418184679372,-0.5,0.5,0,0.0,0.0,0.0,1.0,11.213900773913775,11.209700820521377,0.004199953392397286,0.0
105,-0.07867798115219797,0.13646687578323755,1.295691418299747,0.19686381486039384,0.6265485314739373,0.1451594036399321,0.7400069754004786,0.006102837135829156,4.733152449580416e-05,0.0029807028525149467,0.0034238988352865937,-0.007086122758495081,0.014389496480814718,-0.050781519942560055,-0.004430701161056646,-0.054734096975193436,-0.055255851745395636,0.002758087827264609,-0.5,0.5,0,0.0,0.0,0.0,1.0,10.569323827411399,10.564838749045625,0.004485078365772958,0.0
110,-0.08548280139696145,0.17531833972662003,1.1952044258944674,0.22217402224210994,0.6138400626582321,0.16144032185248408,0.7401189794868569,0.006325386065658205,4.775068097551169e-05,0.0030964599852513755,0.00360636732305087,-0.007194508216966461,0.014793916642209564,-0.05186239782557592,-0.004451543806272785,-0.05608236449016124,-0.05644290069782192,0.002859877558115532,-0.5,0.5,0,0.0,0.0,0.0,1.0,9.894344944878325,9.889653963001859,0.004690981876466599,0.0
115,-0.09198037398576657,0.21929653704515262,1.0935334295205392,0.24785087525097493,0.6008393027052406,0.1775149433121647,0.7389523129829725,0.006530606092971736,4.745978326501e-05,0.003206869855619563,0.0037959883378748437,-0.007211340113951916,0.015082878737564196,-0.05243631672377985,-0.0044528806181460346,-0.05684567194019528,-0.05717870769982152,0.0029086458598928423,-0.5,0.5,0,0.0,0.0,0.0,1.0,9.189131339609256,9.184318573620255,0.004812765989002064,0.0
120,-0.10397551657181318,0.24399569046245798,1.0251019209807402,0.22835723630638588,0.6068733924563391,0.13931526887770754,0.7484309681009838,0.09186248409301642,-0.0012118173108091501,0.03772371535547091,0.02308682910238047,-0.0016633323433936113,0.02079448507485641,-0.050019231886760905,-0.004395199276998233,-0.056094269721372804,-0.06220469837029207,0.003493901303816664,-0.5,0.5,0,0.0,0.0,0.0,1.0,8.801468970899537,8.791278529687721,0.010190441211815313,0.0
125,-0.11702081195667503,0.23771265807127528,1.0133945872297772,0.16859769531923505,0.6231905988980694,0.05716301745272411,0.7615383667378864,0.22569923055295907,-0.003618344302162375,0.09154051074389574,0.056877796602561384,0.011704775060238289,0.030540758233028494,-0.03054084037787696,-0.004599043642291916,-0.03768424740911072,-0.06773316483367693,0.004898542314554865,-0.5,0.5,0,0.0,0.0,0.0,1.0,9.592750200873168,9.55743845208049,0.03531174879267836,0.0
130,-0.12336210355564985,0.2343339500381678,1.0039259418795305,0.12400949906245531,0.6309425789529799,-0.0025013301817621856,0.7658504093840803,0.3202472641077719,-0.00525481357977592,0.12969423908085279,0.08134645271513663,0.022129564052828385,0.03712674215303567,-0.012661958169389287,-0.0048429792028222545,-0.020302600520002004,-0.06916008082823943,0.005539759119765922,-0.5,0.5,0,0.0,0.0,0.0,1.0,10.807539865374617,10.740889036487705,0.06665082888691276,0.0
135,-0.1244863391120703,0.23159328433268314,0.9938592003921372,0.0866094015226334,0.639318047144453,-0.04386104231073775,0.7627892599733624,0.38941707587545304,-0.0065503204028629506,0.15862297122676455,0.09981277018630741,0.03012416946505912,0.04171697299897786,0.0018483811874815625,-0.004843007921867664,-0.0071806893666824904,-0.06453538402244773,0.004613424014162973,-0.5,0.5,0,0.0,0.0,0.0,1.0,10.672680884967765,10.575818531864472,0.09686235310329137,0.0
140,-0.12571518534195136,0.22721770390793306,0.9883850329496898,0.05445462630159929,0.6429895252053719,-0.08028082224163212,0.759706623461143,0.4369539952902743,-0.003974177063313621,0.18577821735355018,0.12135343018948039,0.03812357482003911,0.04769113168333179,0.01376414355084303,-0.004869404629666169,0.003274024586843946,-0.0657778560626286,0.004404954400142755,-0.5,0.5,0,0.0,0.0,0.0,1.0,6.727431026402105,6.603189700351519,0.12424132605058487,0.8690796417969358
145,-0.12833626493608288,0.21629863158883758,0.996039423702075,0.03564620492951993,0.6426154670372501,-0.10197771861953873,0.758534939540542,0.42849384647929206,0.006359355767011319,0.20327009269134344,0.14728232675138808,0.047336827241578006,0.05428838183169156,0.030749239434944425,-0.004940222188176055,0.01883730115213386,-0.06521573388191024,0.0036347556443707004,-0.5,0.5,0,0.0,0.0,0.0,1.0,3.928377054884883,3.7996584025459903,0.12871865233889285,3.5680937910185206
150,-0.13019888227536303,0.20560858767866333,1.0020290175416118,0.020643771050910874,0.6417045330542883,-0.11846248468575543,0.7574666769544735,0.42247817360696605,0.01386292111756544,0.21563938193335266,0.16583115627723313,0.05430554203190677,0.058866018994904616,0.044641626726750164,-0.004996824060423936,0.0315686501615896,-0.06317797132446366,0.0027994820500715782,-0.5,0.5,0,0.0,0.0,0.0,1.0,2.555484889156517,2.4224307295576826,0.1330541595988346,5.170760047268449
155,-0.13232633673653663,0.1943822793112097,1.0073108135068474,0.0076736037573912905,0.6401090123667695,-0.13287106912751998,0.7566682543103834,0.417474349470602,0.02017153839242455,0.22580949931965183,0.18106656166934415,0.0600173735459848,0.06262587616069103,0.05593927350390169,-0.005046065915379635,0.041772545397943124,-0.06155094509054925,0.002236787770809523,-0.5,0.5,0,0.0,0.0,0.0,1.0,1.8975189726258772,1.7601769869416355,0.1373419856842417,5.697174112787992
160,-0.13526838216725237,0.18233445815755978,1.0123892810080448,-0.0039871591659076545,0.6376697193115425,-0.14668246116698253,0.7562047918526574,0.4130473612039586,0.025798885179895436,0.23471352083712935,0.19439387226346658,0.06502389447415724,0.0659062768474203,0.06579827723665493,-0.005095293389729999,0.05063810384053245,-0.060424571562134044,0.001965895639966374,-0.5,0.5,0,0.0,0.0,0.0,1.0,1.5851793707788981,1.4435296457045788,0.14164972507431944,6.1853168005450865
165,-0.13932914773997243,0.16941860371038708,1.0175384317773188,-0.014766848963439171,0.6343237027320313,-0.16070067502567045,0.7560361587717286,0.40896463211463485,0.03103547830031065,0.24286743169692668,0.20659276818518846,0.06964427638837162,0.0688938799817306,0.07491515530469095,-0.005147425682569559,0.05888120250805941,-0.05971153730057804,0.001918590624690945,-0.5,0.5,0,0.0,0.0,0.0,1.0,1.4461736441965614,1.3000976214049977,0.14607602279156354,6.300770824168502
170,-0.14494234273477985,0.15456994995730866,1.0275307423430122,-0.0274823322061706,0.6300298829406078,-0.17798975445920273,0.7553983818660895,0.4143820295979273,0.028355938002588732,0.24984048019900015,0.22032010442766373,0.07486188797707224,0.0724051320239842,0.0859424298656394,-0.005200407392179476,0.06897568102459894,-0.05908873365322485,0.0021864689726975735,-0.5,0.5,0,0.0,0.0,0.0,1.0,1.4037362664062596,1.2487404693052284,0.15499579710103129,6.053163407444396
175,-0.15057640308163311,0.13848354984339062,1.037890901406177,-0.03879708496178337,0.6250114601974701,-0.19392108955982468,0.7551490394910298,0.4202682505738464,0.024743536606525986,0.25492031742893534,0.23098285192108436,0.07922964720111329,0.07512339380076878,0.0960133213640623,-0.005236526776728133,0.07830377582032443,-0.05748423498011304,0.0021449590902364365,-0.5,0.5,0,0.0,0.0,0.0,1.0,1.4353962234215207,1.2723049979334535,0.16309122548806712,6.148937579370507
180,-0.15223826865450849,0.1213425216141634,1.0461887480111904,-0.05157888328808182,0.6231397454294215,-0.20417693632205966,0.7532252353307394,0.4241551338398601,0.02242227490136977,0.2582991291309805,0.2380785669310399,0.08268114771402338,0.07668610274732254,0.10528507104212752,-0.005240979442436537,0.08699790827079612,-0.05299675805211005,0.0014162300902101277,-0.5,0.5,0,0.0,0.0,0.0,1.0,1.4625376620669164,1.2935282506553354,0.16900941141158093,6.056740847733278
185,-0.1455287637289076,0.10199630089212275,1.056751622744355,-0.07006287851347794,0.6278977130933913,-0.2055658422485961,0.7473809868113587,0.4250053802605991,0.022523613225893285,0.2589493670363816,0.2404783742102802,0.08666052487958381,0.07798115052321847,0.11564019150698966,-0.0052241600571353835,0.096816429545522,-0.047659714107944326,0.0008331910727586779,-0.5,0.5,0,0.0,0.0,0.0,1.0,1.5149567967764772,1.3426277341314115,0.17232906264506584,6.0591556273825615
190,-0.13768085649518905,0.0829870026582766,1.0659755893088791,-0.08760451167408648,0.6326052948487065,-0.20532113470489613,0.7416058401248063,0.4250246302390012,0.022802030234284582,0.2588970535682314,0.24252127607290141,0.0907027464043141,0.0790864912665404,0.1264796115062244,-0.005240699790583615,0.10719103445082313,-0.04166585082992036,-0.00019094534826504558,-0.5,0.5,0,0.0,0.0,0.0,1.0,1.6148753651679573,1.4395041959648132,0.1753711692031441,6.21127595146919
195,-0.12991981036693617,0.06693927606925405,1.0793560964397733,-0.10640127375616704,0.6375547748929569,-0.20584394546887513,0.7347318885607614,0.42622086280724464,0.022954316627361863,0.25977503364431576,0.2452628410041043,0.09467572303993295,0.0802586843176175,0.1378020316466638,-0.005238275872993497,0.11801927611892567,-0.03521211211630746,-0.0011020375660729734,-0.5,0.5,0,0.0,0.0,0.0,1.0,1.7915471834737495,1.6118374339287427,0.17970974954500682,5.721802710193376
200,-0.12293864564514133,0.05294976939598996,1.0811704164516829,-0.11963518545972437,0.6413616180992381,-0.20397073041880737,0.729889469962105,0.42760628828788744,0.022998866627632723,0.2607153259849082,0.24709808259563754,0.0964669685735028,0.08063718271585542,0.14343249649664636,-0.005218731266017673,0.12345563981889027,-0.031680559087279944,-0.00139166312954107,-0.5,0.5,0,0.0,0.0,0.0,1.0,1.8883677746451633,1.7058371414960651,0.1825306331490981,5.941945181460833
205,-0.1142543777366176,0.03819214163825942,1.085025590379976,-0.13454734848882033,0.6459246114825709,-0.2010663793600135,0.724051599257106,0.4271071420269795,0.023238109917902,0.2604077743471,0.24832678334737612,0.09940896921158054,0.08148191905938955,0.151262326160735,-0.005196746294145313,0.13096004367367778,-0.027217606338425075,-0.001426469683845744,-0.5,0.5,0,0.0,0.0,0.0,1.0,2.03054128380914,1.8456607685483644,0.18488051526077598,5.290200474292947
210,-0.10354890484197146,0.02304955140416378,1.090482611526471,-0.15177744748034108,0.6510622299923192,-0.19774087550568142,0.7169240721778195,0.4271023105486194,0.023444138256477016,0.2604713213477095,0.24982221017296768,0.10259968677085912,0.08236759006979348,0.15966002950954067,-0.005164628284393058,0.1390345908939942,-0.022366962524434077,-0.001170092021610642,-0.5,0.5,0,0.0,0.0,0.0,1.0,2.2218709675710064,2.0339290481432353,0.18794191942777122,5.440252519702464
215,-0.09039505563254689,0.007688452040475545,1.094704556573711,-0.17053698448856933,0.657008616692976,-0.19281693044371057,0.7085749401771085,0.42741899395546307,0.023576939652532696,0.2607660705232429,0.25134551296358093,0.10533775284019654,0.08343387745432648,0.16636800414638656,-0.005160733201142649,0.14541873101227284,-0.019001548556110952,-0.0015230220098477057,-0.5,0.5,0,0.0,0.0,0.0,1.0,2.444886706783026,2.2540424244208053,0.19084428236222084,5.0018187745694425
220,-0.07408697541632726,-0.00796039855046874,1.096950016051441,-0.19114994776197422,0.6642948119497069,-0.18544710214427385,0.6984149716276058,0.4276574050075478,0.0236618418149481,0.2609875222201474,0.25242372982221134,0.1071992043604205,0.08425754937189645,0.17074348160615874,-0.005163372791506739,0.14956027184121562,-0.016957438655076356,-0.001897269609465321,-0.5,0.5,0,0.0,0.0,0.0,1.0,2.7137085255890216,2.520851827994019,0.1928566975950028,4.709185245429494
225,-0.0552498146245125,-0.0234001499654241,1.0977002604765262,-0.2137154487981825,0.6724771552160721,-0.17657641359777396,0.6862368052053448,0.4277729445374799,0.023736835943723104,0.2611147064017457,0.25325443103040657,0.10868688142722996,0.0849240321614006,0.17422833499842294,-0.005165762259271673,0.15285988486918234,-0.015335014089206045,-0.002193933950481189,-0.5,0.5,0,0.0,0.0,0.0,1.0,3.036807059844762,2.842364522920175,0.19444253692458707,4.524214467888427
230,-0.04134850648408615,-0.03986779334436787,1.116836900602034,-0.23656292120084277,0.6735015388125872,-0.17917254297665328,0.677001374720377,0.4269836313472294,0.024049023943169445,0.26069099438023186,0.25506587210556825,0.11275075309017972,0.08678964503485528,0.18373982247935777,-0.005178317171294408,0.16186921916728378,-0.01101187637199512,-0.0029872923592837264,-0.5,0.5,0,0.0,0.0,0.0,1.0,3.32394685157836,3.1258088954549286,0.19813795612343166,4.112779647119788
235,-0.030629247172471147,-0.05654854858655972,1.1351450338745184,-0.2560658822293736,0.6716919690493308,-0.1847950646576545,0.6701574044587574,0.4273639321185831,0.0241556979837067,0.26104696144075734,0.2564928355654374,0.11516181540276677,0.08788403262551507,0.18936463695657182,-0.005180550540582628,0.1672102046970426,-0.008311070627146278,-0.0034729040531990365,-0.5,0.5,0,0.0,0.0,0.0,1.0,3.5129828672437586,3.3119480886146944,0.20103477862906405,3.850367266799041
240,-0.022254818800514,-0.07305449327511286,1.1517098423864573,-0.2729565200771934,0.6682435398673757,-0.1919951052928481,0.6648933667261661,0.42745704265640744,0.02423977328946423,0.26117202995319744,0.2573522432822413,0.11671743725968381,0.0885971869252521,0.1929927294104001,-0.005182555882091158,0.17065830168384932,-0.006574047846496866,-0.003784353881791208,-0.5,0.5,0,0.0,0.0,0.0,1.0,3.6418165631209662,3.4389788802043406,0.20283768291662585,3.932846543147593
245,-0.0213559370379879,-0.09037536402412275,1.1721858182384886,-0.28350362001863044,0.6601310810753876,-0.20458628014831418,0.6648286299563577,0.4259758689670609,0.02429771881101155,0.2603668850553431,0.2558616529014087,0.1172187320406429,0.08844692329053451,0.19647241121475692,-0.005178094425179089,0.17413491974891412,-0.00406647547458926,-0.0042010064547552736,-0.5,0.5,0,0.0,0.0,0.0,1.0,3.6714925014221076,3.4685673085692583,0.20292519285284913,3.9620246543918713
250,-0.023540418498484955,-0.10666163412050463,1.190898472022282,-0.2924310399736569,0.6498339663320549,-0.21951186417009252,0.666344088703161,0.4255127096253626,0.024316814297983824,0.26012069349803,0.2554007472955357,0.11740319048192663,0.0884045991628568,0.19765065268984683,-0.0051773210123095955,0.17531137864693305,-0.0032212384701470263,-0.004340973426859367,-0.5,0.5,0,0.0,0.0,0.0,1.0,3.6578023699847666,3.454802641096734,0.2029997288880327,3.7617306909475987
255,-0.029022160887085688,-0.12184948718814256,1.2094027642508702,-0.2995136539016588,0.6379709759654087,-0.23522669192584064,0.6692929167097519,0.42261217518367994,0.024454362080497876,0.25846316730679253,0.2529427862505676,0.11822401852133148,0.08746219266842331,0.20550386415258826,-0.005260410996569832,0.1833378264330863,0.0037681311077989907,-0.004696061463653602,-0.5,0.5,0,0.0,0.0,0.0,1.0,3.6409545294973586,3.4371958281861446,0.20375870131121404,3.851924362616023
260,-0.029959577603371212,-0.1325964498153021,1.2384940844267778,-0.31640470432079665,0.6297837150339229,-0.24874326095180493,0.664369871000185,0.4210547482824805,0.024620254722887307,0.2584064673238232,0.24991565096944818,0.1225163216087918,0.08714888525436096,0.22346044596829437,-0.005354904880917741,0.2013401189103617,0.01786093599588501,-0.004978367550888742,-0.5,0.5,0,0.0,0.0,0.0,1.0,3.8256576178945703,3.615370089499909,0.21028752839466142,3.719130259903484
265,-0.029685327450528442,-0.14341429536869965,1.2620850199208267,-0.3330349548787552,0.6228041508953216,-0.2602741490746725,0.658376849365102,0.4222822930920835,0.024650151664366616,0.25997913626797686,0.24978728596887473,0.1261502770653198,0.08834663494425649,0.23365179928914193,-0.005420601237122229,0.21131483100076626,0.02384001412087623,-0.005963649312728213,-0.5,0.5,0,0.0,0.0,0.0,1.0,3.9881817783622457,3.77192565821811,0.21625612014413567,3.5240503755914148
270,-0.03303956455245964,-0.15710872919856253,1.2828414051471737,-0.34308580641881703,0.6147668425195726,-0.2706859768731188,0.6565690829583056,0.4212298284702819,0.024698366594068384,0.259444148266901,0.2485367285830362,0.12658534041401656,0.08822261393703364,0.23640188945740706,-0.005433685393527115,0.2141369408111529,0.026171212727719006,-0.006266984392099007,-0.5,0.5,0,0.0,0.0,0.0,1.0,4.086798332628379,3.870084511421986,0.21671382120639326,3.43234791570241
275,-0.033422136946288365,-0.17156651339933413,1.306498642987835,-0.35231894441192146,0.608008877420677,-0.27777856958603764,0.6550081164877672,0.41837739395619333,0.0247657170674991,0.25760327045747,0.24588266520160976,0.12290930548608395,0.08659369931565748,0.2419875735095005,-0.0051955016121411745,0.2202032095449026,0.034098656936387244,-0.006491847912043383,-0.5,0.5,0,0.0,0.0,0.0,1.0,4.221252656701404,4.00457506889801,0.21667758780339455,3.4766956323736213
280,-0.030716926563365346,-0.1836396379335797,1.3307999890258952,-0.36492881737535304,0.6023036735548875,-0.28424532935053726,0.6505857636113154,0.41715557036372186,0.02489973294078148,0.2569377001706718,0.24511431608662668,0.12209434150332482,0.08567854200715927,0.24813931198988748,-0.005273760685266963,0.22652238748792716,0.040101768767519815,-0.00663046222305572,-0.5,0.5,0,0.0,0.0,0.0,1.0,4.39173488111817,4.172959853757869,0.218775027360301,3.299342645255866
285,-0.02819421657798336,-0.19537139409517762,1.3488557281795508,-0.3773606146088327,0.5964521245323916,-0.290739199018449,0.6459988760338142,0.4176492048651014,0.024929284761482196,0.257278538055829,0.24577953614212905,0.12265845213535631,0.08596145586323596,0.24966196396346985,-0.005273760685266963,0.22801035697215277,0.04097122916082016,-0.006769137202708553,-0.5,0.5,0,0.0,0.0,0.0,1.0,4.518481949893649,4.298402591696762,0.22007935819688615,2.8072168506506454
290,-0.02610014659567248,-0.2096795660253054,1.3634172505047912,-0.3865380755568232,0.5920472875308919,-0.2943697609777329,0.6429733814817327,0.4156907706397518,0.02495132191906065,0.25595389923732265,0.24379351581342998,0.11947097641082861,0.08497815275423795,0.25090354746835314,-0.004756369345426552,0.22956447951179187,0.04410332545449218,-0.006866751985907635,-0.5,0.5,0,0.0,0.0,0.0,1.0,4.626867543172566,4.408102052256478,0.21876549091608818,3.915117113993447
295,-0.024012701302342388,-0.2267688796703912,1.3810437359610972,-0.3933941513719194,0.5877524788041976,-0.2967845481146693,0.6416439801995029,0.4135401501290593,0.024958666735534416,0.2544449381290013,0.2418162202487243,0.11591669039585602,0.07760530515066623,0.24985652500140845,-0.004830415284639004,0.22889291856737654,0.048438264958631475,-0.007065763087193083,-0.5,0.5,0,0.0,0.0,0.0,1.0,4.739159378959264,4.52338200950087,0.21577736945839407,3.0143295034480646
300,-0.022258934546831723,-0.24109428584562892,1.4004490281751867,-0.40195465968050725,0.5822562606454703,-0.30104732111170485,0.6393595302736542,0.4121436324448407,0.02503469470715098,0.25365579232417657,0.24075929999037204,0.11535376829191166,0.07542505635699734,0.2527435484636862,-0.004825597301781802,0.23203168264780424,0.052854795674622465,-0.0072163172641254,-0.5,0.5,0,0.0,0.0,0.0,1.0,4.86401729515247,4.647828377005801,0.2161889181466684,2.6587386644636277
305,-0.020294061224855414,-0.25768665876751534,1.4166537742333436,-0.4081850972446498,0.5771732914724397,-0.30386201639401617,0.638689120770981,0.41165009949482356,0.024958831652153034,0.25318881049062897,0.23947595987517561,0.11391673637469676,0.07250131288529973,0.24775379646773157,-0.005182239450122734,0.227518175913907,0.05224388150085224,-0.007117023895820384,-0.5,0.5,0,0.0,0.0,0.0,1.0,4.952543357670684,4.739683900256592,0.2128594574140911,2.6638217228650394
310,-0.01650011208602983,-0.27501767099265667,1.4318842022861729,-0.4131073442941364,0.573735307813378,-0.30429152831157946,0.6384174061351533,0.4103370225171602,0.024781780991147296,0.2521534204677804,0.23682717721532479,0.11217439847101239,0.06959311742868692,0.237845213327314,-0.0055403114142657545,0.2183035739126659,0.049348338823868555,-0.006688631431747931,-0.5,0.5,0,0.0,0.0,0.0,1.0,5.041873709113734,4.83546228262577,0.20641142648796432,2.447763736284452
315,-0.012476112697445252,-0.29039369838084256,1.4484373653943075,-0.41841150499637125,0.5699285944526881,-0.30520828765583896,0.6379350365499967,0.4090367142227636,0.024614937585106952,0.25114178755999333,0.2342042872037941,0.11055540187673031,0.06664893476433277,0.2281375191018522,-0.005842158033509722,0.2092253461664413,0.04658606820299933,-0.006269283910742321,-0.5,0.5,0,0.0,0.0,0.0,1.0,5.140819031243524,4.940533520588746,0.20028551065477843,2.464211204745445
320,-0.008735958094734927,-0.3036624337260304,1.4656679094602036,-0.4241806393624374,0.5656775800121214,-0.3068535857234834,0.6371189351999708,0.40790860965139125,0.024525309301325942,0.25033687327450604,0.23229163399545905,0.10946925025092612,0.06457858574411714,0.22306246192307427,-0.005984199247478054,0.20519484836774024,0.04742710193214055,-0.006095501094578486,-0.5,0.5,0,0.0,0.0,0.0,1.0,5.246637666317783,5.049659230345705,0.19697843597207768,2.3349099312486716
325,-0.004652518057813478,-0.3164220357327576,1.4815432254326077,-0.4297413411830026,0.5615047854236378,-0.30827891611436364,0.636395211722984,0.40714091833772315,0.0244147958889066,0.24972216799543395,0.2305290834469508,0.10849461367984181,0.06231917805477932,0.21617084004595075,-0.006153330911444239,0.198707845350131,0.045616521432793954,-0.005811102900361002,-0.5,0.5,0,0.0,0.0,0.0,1.0,5.343183178694984,5.150239913888439,0.19294326480654517,2.289906204493441
330,-0.00016545665116737872,-0.328189604780325,1.4967720625388374,-0.4352222321112782,0.5572900284501491,-0.3093683921712474,0.6358463893044339,0.4061669649231925,0.02433519533213032,0.24902522363017793,0.2287988249502465,0.10760512735239688,0.0602526036921921,0.21153148595232882,-0.006224515911616107,0.19512534274151608,0.046896824959124964,-0.0057393765375214215,-0.5,0.5,0,0.0,0.0,0.0,1.0,5.437414481204952,5.247301493567215,0.19011298763773654,2.248020205963564
335,0.004705261345617131,-0.33987633619000374,1.5100139686542395,-0.4404811763656383,0.5531553945263731,-0.3101413848835917,0.635458703738019,0.40567179438889356,0.02425442849701567,0.24861369362310873,0.2274908690195246,0.10694667307071724,0.058381048489366656,0.2061467285710366,-0.00633848754336752,0.19007355908895163,0.045574171699280644,-0.005523840468158637,-0.5,0.5,0,0.0,0.0,0.0,1.0,5.517794978991837,5.330626574071122,0.18716840492071507,2.072281282046565
340,0.009622011389312958,-0.351330760443967,1.521879909778634,-0.44502060976946267,0.5492623571649063,-0.3103732037366996,0.6355595914501517,0.40465162148316797,0.024166680448694643,0.24787028975185996,0.22554062017428408,0.10580927103299975,0.056243940300220105,0.2000986663534099,-0.0064758096308814295,0.18425924687691203,0.04384039281884907,-0.005262572543527009,-0.5,0.5,0,0.0,0.0,0.0,1.0,5.589481648223673,5.405993270764228,0.18348837745944493,2.032685620390395
345,0.015328585886156576,-0.3618958962159324,1.5328866509495278,-0.4496221603713996,0.5455484362958734,-0.31002582416412283,0.6356892361126143,0.40366373439546527,0.02410094016685588,0.24717895466050518,0.22379727449363176,0.10492811724915908,0.05421291220937667,0.19558559778743478,-0.006525766410868145,0.18057389395589468,0.04444936953376192,-0.00505438321155824,-0.5,0.5,0,0.0,0.0,0.0,1.0,5.65855053806375,5.477769834448929,0.18078070361482118,1.8547072499873485
350,0.021454398752292294,-0.37235242353155107,1.5421740064855098,-0.4538633790147939,0.5420235864945991,-0.30920509345067665,0.6360901469579322,0.402905809169349,0.02402443727063577,0.24660842788685122,0.2221231222248375,0.10406386157264456,0.0520699394216842,0.18974299510724815,-0.006687154564953923,0.17494042063602666,0.04259129179017287,-0.0047399211542683796,-0.5,0.5,0,0.0,0.0,0.0,1.0,5.715562438006634,5.538015944683254,0.1775464933233802,1.9305901611472054
355,0.027596693865246123,-0.38241258892811947,1.5505795656276498,-0.45757936553482753,0.538779891966131,-0.30800000671957045,0.6367678918652019,0.40184781480974613,0.023947521341463513,0.2458571754626131,0.22008701712551432,0.1030900965584844,0.04959917472285817,0.18359865149028215,-0.006828556034393785,0.16924674753336222,0.041432350027417846,-0.004579192666376245,-0.5,0.5,0,0.0,0.0,0.0,1.0,5.767516326250892,5.593434323144636,0.17408200310625577,1.7633714543680599
360,0.0174588435752411,-0.3866239521936612,1.551443119056199,-0.45535482712194325,0.5349495429726216,-0.3114888802576009,0.6398872130039749,0.4015283659888692,0.023948351164489394,0.24567849304725806,0.21987679960706719,0.10306112775623359,0.049699762966743825,0.18409286138813957,-0.0071484747472997994,0.16957896634925584,0.04260064979598109,-0.004558598449254369,-0.5,0.5,0,0.0,0.0,0.0,1.0,5.731713909438997,5.557649985449911,0.1740639239890866,1.6741897768674514
365,0.015564141931239917,-0.39085499630053305,1.5461960652503146,-0.45564467816344706,0.5401291026572056,-0.3091721216217768,0.6364440894029421,0.4012675850555094,0.023935962855867066,0.24548174805718828,0.21917007648929146,0.10274874704005024,0.04833956665279641,0.18224944997287335,-0.0071154319969513186,0.16858601991600056,0.043380655670261274,-0.004541123954301405,-0.5,0.5,0,0.0,0.0,0.0,1.0,5.744100685302225,5.5709163475490655,0.17318433775315967,2.019561948844796
370,0.012367628729836662,-0.3985778216363455,1.5374745577016713,-0.4521392234885417,0.5442692341361154,-0.30585719237491993,0.637018446537144,0.40078135051581926,0.023948899281336606,0.24512535510142644,0.21774809108051976,0.10214420244446006,0.04533317266498151,0.17696418381207626,-0.008167579707849126,0.16509641406133863,0.04211480135450658,-0.004456995431371429,-0.5,0.5,0,0.0,0.0,0.0,1.0,5.698177097985079,5.527366185402256,0.1708109125828232,1.896895810377492
375,0.009748043639919353,-0.40639418155118034,1.5282330201567795,-0.4476008200870902,0.547807489993081,-0.3020603960602093,0.6389991994492593,0.39967717763387206,0.023956637546105948,0.24440767903349092,0.2158377578178449,0.1013365391498871,0.04244643133066126,0.1717421231198405,-0.009270776665684611,0.16146622059758992,0.04048207505510664,-0.00450395239027133,-0.5,0.5,0,0.0,0.0,0.0,1.0,5.637923592464951,5.469913922310192,0.16800967015475857,2.1294572737516573
380,0.00830878673475763,-0.4134879458193831,1.5184964424607361,-0.44328664950554814,0.551170031791196,-0.2981451557928523,0.6409508627833286,0.39863736410250017,0.02397982427974306,0.24373991737013032,0.21399185632760473,0.10059338856884292,0.03952162974500856,0.16660337411185494,-0.01055845255783552,0.1577807003630348,0.038142799625898595,-0.004108451300763445,-0.5,0.5,0,0.0,0.0,0.0,1.0,5.575193709227632,5.409891660180139,0.16530204904749266,2.064789019849451
385,0.008135955742992801,-0.42002275330703975,1.5081015228313206,-0.43915022841132867,0.5543848163893391,-0.29396940916126746,0.6429514279637397,0.39765114975056326,0.02401112469028571,0.24311542832101327,0.21224619759423677,0.09994943980969248,0.03667788813697739,0.16191101956779116,-0.011734672959035394,0.15442650415092232,0.03614081923257012,-0.0039460055232781914,-0.5,0.5,0,0.0,0.0,0.0,1.0,5.50840870504976,5.345551782724849,0.16285692232491095,1.8220166895184127
390,0.009228858004123422,-0.42621259908987075,1.4967801083687395,-0.43501477118488974,0.5575795546119922,-0.2893514321124213,0.6450914182223644,0.39665103954106357,0.02405538780038466,0.24249466725902388,0.21045381437002317,0.09942962431761261,0.03354461759793183,0.1573799227923039,-0.012999103019676357,0.1511169410782576,0.034040064908669475,-0.0037715936513498445,-0.5,0.5,0,0.0,0.0,0.0,1.0,5.435678386934294,5.275196702113865,0.16048168482042888,2.1086554484723887
395,0.01076522687783747,-0.432376912048056,1.4846336920542542,-0.43077564719922046,0.5608147756706819,-0.2844407144181256,0.6473118330069687,0.3956883990611382,0.024097702836957766,0.24189892464228913,0.2086006601491492,0.09914132750859908,0.029885361886613247,0.15264239240850197,-0.013923714609227525,0.14752198611389594,0.03194225144600398,-0.003629982540229717,-0.5,0.5,0,0.0,0.0,0.0,1.0,5.357613649319484,5.199518018497992,0.1580956308214918,2.273744639902473
400,0.012336038892669333,-0.4386335146772125,1.4717536521706427,-0.42634516794342286,0.5641534325143339,-0.27931229782546274,0.6495732003685571,0.3947097345113443,0.0241371777887889,0.24129308123901477,0.20668498694241602,0.09893169468492496,0.025987855945899373,0.1476830847838742,-0.014678807745202064,0.14367037710787156,0.029753675027565346,-0.0034766593128212125,-0.5,0.5,0,0.0,0.0,0.0,1.0,5.275180082910203,5.119506798837819,0.1556732840723835,2.378373145643592
405,0.013899450347200555,-0.4449351731581288,1.4582286759023801,-0.42171566092310764,0.5675934924906325,-0.273980791863045,0.6518650583553101,0.39367481650045544,0.02417754567697514,0.24065841158993873,0.20467341482098306,0.09881318741404511,0.02189352268325218,0.14265542053662106,-0.01542155974535037,0.13957898898703733,0.0274797924240479,-0.0032650007579383944,-0.5,0.5,0,0.0,0.0,0.0,1.0,5.1891012580169456,5.035875282062331,0.15322597595461523,2.484733082776139
410,0.015451887336968676,-0.4512423395776633,1.4441400532462985,-0.41691227867912795,0.571108652329624,-0.2684736455226932,0.6541719657556206,0.3926217514725538,0.02420666513327361,0.24000599145297177,0.20258362575945144,0.09867225507423408,0.017818532329959617,0.13743285886446208,-0.016102591385279415,0.13510937906712642,0.025305383561094505,-0.0030514838995306156,-0.5,0.5,0,0.0,0.0,0.0,1.0,5.09982334674947,4.949080436654822,0.15074291009464813,2.511291606410351
415,0.016997458717672765,-0.4575122844387414,1.4295711144668335,-0.41196316223380863,0.5746769638962563,-0.262812984044771,0.6564770182929366,0.39155702215468685,0.024229243572352017,0.23934070001373997,0.20044983179660097,0.09847709403480386,0.013767707595137813,0.13200826754482145,-0.01674452336439365,0.13041851483271505,0.02314353207985554,-0.0028502797237959106,-0.5,0.5,0,0.0,0.0,0.0,1.0,5.0079447412270905,4.859687416546719,0.14825732468037195,2.3828558481217437
420,0.01792795529194931,-0.46137269715758294,1.4177258449341703,-0.4110530413031779,0.5753259981936034,-0.2617854491789945,0.6568894668329626,0.3987088178683721,0.024173856140979326,0.2422261224390035,0.20027217163438876,0.09881382025685617,0.010058145917568916,0.12620911914230953,-0.017360788109024753,0.12573618710560008,0.02086267015539106,-0.0026906590785490832,-0.5,0.5,0,0.0,0.0,0.0,1.0,4.91625814871337,4.765916604022695,0.15034154469067515,2.5928254145350094
425,0.017842687665945402,-0.4610308024302033,1.4134759996899617,-0.41550192984697165,0.5721121394484382,-0.26687065975645746,0.654847995454156,0.4135541348555959,0.024043835458660793,0.24852321323166532,0.20261506546259667,0.09997143917488323,0.007607592323354396,0.12205547728162387,-0.017619030409960223,0.12258390387057974,0.019406880684927234,-0.002591426415753754,-0.5,0.5,0,0.0,0.0,0.0,1.0,4.857739376602891,4.700193341291514,0.15754603531137717,2.493132224141405
430,0.017805765689524192,-0.4607629199245913,1.4104330358694954,-0.4186499420750851,0.5698126809954136,-0.2704485563410213,0.6533783842081128,0.4241198216305103,0.023945837702914922,0.2530037769929176,0.20426835374578434,0.100741494415903,0.005823677854949243,0.11882965006198382,-0.017620139428090577,0.12038291482744212,0.0187136718435168,-0.0025475988343656884,-0.5,0.5,0,0.0,0.0,0.0,1.0,4.816913608719449,4.654088631378373,0.16282497734107526,2.9764457547085073
435,0.017771221822470522,-0.46050796386832615,1.4077164899726595,-0.4214125277367286,0.5677757453052038,-0.2735901487583804,0.6520664191721794,0.43344062108430303,0.023860857861103313,0.2569636484427585,0.20573019748774815,0.10138727975340543,0.00425333286171373,0.11592741084223157,-0.01762484559808118,0.1184658319771437,0.01824143298772261,-0.0025201307513531106,-0.5,0.5,0,0.0,0.0,0.0,1.0,4.781328126946073,4.613720192591658,0.16760793435441476,3.036249473495981
440,0.017730893430196324,-0.46024585818830016,1.405068392172731,-0.424051157408988,0.5658096001421709,-0.2765992007392113,0.6507941260010601,0.44239783792680043,0.023782843083846726,0.26077764100666073,0.20713101353755012,0.1020176462750469,0.0027004995246649025,0.11316553795029054,-0.01766166072061455,0.11662893937031842,0.017843602950519344,-0.0024928434167931805,-0.5,0.5,0,0.0,0.0,0.0,1.0,4.747412713552507,4.575087768819045,0.17232494473346202,3.119582251069314
445,0.01768408819611897,-0.4599707404384473,1.4024186106694252,-0.4266392188938299,0.5638608576119587,-0.2795596873943798,0.6495277448567736,0.4512389093727611,0.023709293500572572,0.2645501589845539,0.20850748359764382,0.10266270197356986,0.0011095781353695213,0.11047903084887714,-0.017717474555191674,0.11481076705416136,0.0174712379270044,-0.00246203926952202,-0.5,0.5,0,0.0,0.0,0.0,1.0,4.714201772801733,4.537104749806286,0.17709702299544736,2.9186788339723133
450,0.017551515573741776,-0.4593985331665916,1.401251108848418,-0.4277680872370375,0.5630049743882615,-0.2808507080856447,0.6489705248494967,0.4520402687364688,0.025038061674018633,0.26721400361470193,0.21112095675157116,0.10352000348563528,-7.237087335238053e-05,0.10819671349860635,-0.017686715977902744,0.1134251758418536,0.01722069623528164,-0.0024269085941496433,-0.5,0.5,0,0.0,0.0,0.0,1.0,4.701576993928589,4.523153919392926,0.17842307453566347,2.9247529540831936
455,0.017416782235954678,-0.45884589410708443,1.4008042394138138,-0.4283935980272717,0.5625379673445875,-0.28156049070443073,0.6486552632480124,0.45116376142188136,0.0262939320088815,0.2690156396704075,0.21332445513868256,0.10417282095756426,-0.0008568778074162387,0.10638745154671918,-0.017508702750474753,0.11256326928288213,0.017422907675116263,-0.0024025582408708068,-0.5,0.5,0,0.0,0.0,0.0,1.0,4.696992781207675,4.5182056697064885,0.17878711150118645,2.7866061420503545
460,0.01728309889358826,-0.45832639608261605,1.4003879118995477,-0.4289963963067203,0.5620847811774188,-0.28224592528887726,0.6483517782673278,0.4503441803751042,0.027487834206470767,0.2707350331457756,0.21542502519213425,0.10477601689416051,-0.0015639462405343074,0.10465429905937823,-0.017362557448800314,0.11170349027832371,0.017671095322330806,-0.0023739006516325244,-0.5,0.5,0,0.0,0.0,0.0,1.0,4.69268760004158,4.513537162746611,0.17915043729496916,2.945980761057114
465,0.017148270956474396,-0.4578028243880451,1.3999616192918067,-0.4295914807351577,0.5616342877970096,-0.28292534184403273,0.6480519557820634,0.4495206498402093,0.028681658038370337,0.2724472150728218,0.21751478153152015,0.10539357885213164,-0.002298970003438315,0.1029559393049182,-0.017242057318282863,0.11085546918215924,0.017921606968500658,-0.002347255969134186,-0.5,0.5,0,0.0,0.0,0.0,1.0,4.688358749399576,4.50882997355667,0.1795287758429061,2.69260258180742
470,0.017011896144795917,-0.4572722613085672,1.3995227085427995,-0.43018195114269947,0.5611853286844027,-0.28360125714529655,0.6477536898590746,0.4486892691444409,0.029880284198726258,0.27416042974028415,0.2196046501601994,0.10603027054314977,-0.0030681066782316377,0.10125532300645376,-0.017109689449136847,0.11001425302488257,0.018174768181071776,-0.002320980658234015,-0.5,0.5,0,0.0,0.0,0.0,1.0,4.683990658234576,4.504070111377059,0.17992054685751713,2.5700623349482496
475,0.016874020811484373,-0.456737435310102,1.3990765730374908,-0.43077147736089577,0.5607353860277353,-0.2842770669566802,0.6474552574125453,0.4478531428820468,0.031083632017254264,0.2758765458968107,0.2216984428785615,0.10667917798873504,-0.003855142287065666,0.09955693519885866,-0.016976037231884684,0.109169226059044,0.018422997528708518,-0.0022953054850922837,-0.5,0.5,0,0.0,0.0,0.0,1.0,4.679612208126649,4.499285022412808,0.18032718571384107,2.7769583012881016
480,0.016734975336704545,-0.4561989421068016,1.3986246037715702,-0.43136078816497686,0.560283952597133,-0.2849533637492237,0.6471563515749699,0.44701337275713643,0.03229142987017731,0.2775956362384149,0.2237964368789797,0.10733725055365248,-0.004654550191050193,0.09786428215049339,-0.01684689106119047,0.10831782747117667,0.018665560673681105,-0.002270150912581887,-0.5,0.5,0,0.0,0.0,0.0,1.0,4.675231242501613,4.494482058288227,0.1807491842133853,2.906705926695113
485,0.016595326625136658,-0.4556570813341961,1.398167690218394,-0.43195017971177196,0.5598307188709164,-0.28563030832415864,0.6468569667415563,0.4461709235684815,0.033503276954437805,0.2793174280119002,0.22589819190215604,0.10800033255258898,-0.005460130192025351,0.09618087786403304,-0.016728246948996377,0.1074578623500835,0.018904791457691958,-0.0022450655910564495,-0.5,0.5,0,0.0,0.0,0.0,1.0,4.670851998354496,4.489665355701113,0.18118664265338333,3.5934971252992414
490,0.016456098915948472,-0.45511233933442086,1.3977071979063276,-0.43253974148791136,0.559375373065513,-0.2863077660233011,0.646557365711764,0.44532592228295204,0.0347186659875917,0.2810411221875892,0.22800288022345727,0.10866110632313322,-0.006259227631468172,0.09451274838464435,-0.016631033014761848,0.10658283659686668,0.01914734288521004,-0.002219504042717942,-0.5,0.5,0,0.0,0.0,0.0,1.0,4.666481145253684,4.484842594556268,0.1816385506974161,2.9184119394927333
495,0.01631931207146609,-0.4545678383855532,1.3972490388518366,-0.4331306770366699,0.5589171983853007,-0.2869858068895973,0.6462573238291455,0.4444760614535687,0.035934390945793794,0.28276343659713804,0.230111696715461,0.10929671812690504,-0.00698476163579895,0.09282470038323438,-0.016537236158463343,0.10563938510644703,0.01942160156432976,-0.0021907095018522376,-0.5,0.5,0,0.0,0.0,0.0,1.0,4.662153138071916,4.480061665136943,0.1820914729349731,2.8699856878138377
500,0.016182744120995476,-0.45402989488781126,1.3968035700648207,-0.43373227820136956,0.5584499557912831,-0.28767357236062535,0.6459519126748057,0.4436387969585029,0.037149981408199084,0.2844916529703731,0.2322251164084755,0.10990343769174621,-0.007640083802042118,0.09113412048796911,-0.016480512959605023,0.10463813724275224,0.019731468841572293,-0.002155368046006563,-0.5,0.5,0,0.0,0.0,0.0,1.0,4.657921282523281,4.475362884249607,0.18255839827367418,2.781504373233896
