yifeidong0/3D-Soft-Fixture/results/BimanualRubic_19-05-2023-21-01-44_dynamics/data.csv
index,obj_pos_x,obj_pos_y,obj_pos_z,obj_qtn_x,obj_qtn_y,obj_qtn_z,obj_qtn_w,obs_pos_x,obs_pos_y,obs_pos_z,obs_qtn_x,obs_qtn_y,obs_qtn_z,obs_qtn_w,obs_joint_0_pos,obs_joint_1_pos,obs_joint_2_pos,obs_joint_3_pos,obs_joint_4_pos,obs_joint_5_pos,obs_joint_6_pos,obs_joint_7_pos,obs_joint_8_pos,obs_joint_9_pos,obs_joint_10_pos,obs_joint_11_pos,obs_pos_x,obs_pos_y,obs_pos_z,obs_qtn_x,obs_qtn_y,obs_qtn_z,obs_qtn_w,obs_joint_0_pos,obs_joint_1_pos,obs_joint_2_pos,obs_joint_3_pos,obs_joint_4_pos,obs_joint_5_pos,obs_joint_6_pos,obs_joint_7_pos,obs_joint_8_pos,obs_joint_9_pos,obs_joint_10_pos,obs_joint_11_pos
0,0.0,0.0,2.0,0.0,0.0,0.0,1.0,0,0,1,0.706825181105366,0.0,0.0,0.7073882691671998,0.0,0.0,0.0,0.0,0.0,0.0,0.0,0.0,0.0,0.0,0.0,0.0,0,0,3.999,-0.49999984146591736,-0.49960183664463337,0.49999984146591736,0.5003981633553667,0.0,0.0,0.0,0.0,0.0,0.0,0.0,0.0,0.0,0.0,0.0,0.0
10,0.0,0.0,1.9906384505747,0.0,0.0,0.0,1.0,0,0,1,0.706825181105366,0.0,0.0,0.7073882691671998,0.0,0.0,0.0,0.0,0.0,0.0,0.0,0.0,0.0,0.0,0.0,0.0,0,0,3.989000000000001,-0.49999984146591736,-0.49960183664463337,0.49999984146591736,0.5003981633553667,0.0,0.0,0.0,0.0,0.0,0.0,0.0,0.0,0.0,0.0,0.0,0.0
20,7.149121273736085e-06,0.00047075426984560516,1.9875607649867075,-0.0004578867111613012,9.877012367574628e-05,-8.444549964163247e-05,0.9999998867265836,0,0,1,0.706825181105366,0.0,0.0,0.7073882691671998,0.0,0.0,0.0,0.0,0.0,0.0,0.0,0.0,0.0,0.0,0.0,0.0,0,0,3.9790000000000023,-0.49999984146591736,-0.49960183664463337,0.49999984146591736,0.5003981633553667,0.0,0.0,0.0,0.0,0.0,0.0,0.0,0.0,0.0,0.0,0.0,0.0
30,7.269730462557353e-05,0.0004523469415015509,1.9869969961327894,-0.0004423076424466836,0.00032085356564164383,-4.868062944441838e-05,0.9999998495235563,0,0,1,0.706825181105366,0.0,0.0,0.7073882691671998,0.0,0.0,0.0,0.0,0.0,0.0,0.0,0.0,0.0,0.0,0.0,0.0,0,0,3.9690000000000034,-0.49999984146591736,-0.49960183664463337,0.49999984146591736,0.5003981633553667,0.0,0.0,0.0,0.0,0.0,0.0,0.0,0.0,0.0,0.0,0.0,0.0
40,0.00014929327505047287,0.0004452575783204971,1.9867516770062996,-0.0004361372151084301,0.0006051352098870221,-3.3257586599078106e-05,0.9999997212447813,0,0,1,0.706825181105366,0.0,0.0,0.7073882691671998,0.0,0.0,0.0,0.0,0.0,0.0,0.0,0.0,0.0,0.0,0.0,0.0,0,0,3.9590000000000045,-0.49999984146591736,-0.49960183664463337,0.49999984146591736,0.5003981633553667,0.0,0.0,0.0,0.0,0.0,0.0,0.0,0.0,0.0,0.0,0.0,0.0
50,0.0002519252479631648,0.000441916812188275,1.9866442494422183,-0.00043319213914101885,0.0009985172410940028,-2.662690829128938e-05,0.9999994072992732,0,0,1,0.706825181105366,0.0,0.0,0.7073882691671998,0.0,0.0,0.0,0.0,0.0,0.0,0.0,0.0,0.0,0.0,0.0,0.0,0,0,3.9490000000000056,-0.49999984146591736,-0.49960183664463337,0.49999984146591736,0.5003981633553667,0.0,0.0,0.0,0.0,0.0,0.0,0.0,0.0,0.0,0.0,0.0,0.0
60,0.0003991812427695881,0.0004404075797750405,1.9865957693400222,-0.0004319462050231173,0.0015686833771909956,-2.4468556078480985e-05,0.9999986760272375,0,0,1,0.706825181105366,0.0,0.0,0.7073882691671998,0.0,0.0,0.0,0.0,0.0,0.0,0.0,0.0,0.0,0.0,0.0,0.0,0,0,3.9390000000000067,-0.49999984146591736,-0.49960183664463337,0.49999984146591736,0.5003981633553667,0.0,0.0,0.0,0.0,0.0,0.0,0.0,0.0,0.0,0.0,0.0,0.0
70,0.000616826237659923,0.0004388718788548187,1.9865691942378905,-0.0004308983624663625,0.0024151518160478625,-2.358955254008294e-05,0.999996990401391,0,0,1,0.706825181105366,0.0,0.0,0.7073882691671998,0.0,0.0,0.0,0.0,0.0,0.0,0.0,0.0,0.0,0.0,0.0,0.0,0,0,3.929000000000008,-0.49999984146591736,-0.49960183664463337,0.49999984146591736,0.5003981633553667,0.0,0.0,0.0,0.0,0.0,0.0,0.0,0.0,0.0,0.0,0.0,0.0
80,0.0009359266384554615,0.00043791579557613095,1.9865453565306086,-0.0004305521370111684,0.0036580894792976426,-2.3821015259883832e-05,0.9999932161963789,0,0,1,0.706825181105366,0.0,0.0,0.7073882691671998,0.0,0.0,0.0,0.0,0.0,0.0,0.0,0.0,0.0,0.0,0.0,0.0,0,0,3.919000000000009,-0.49999984146591736,-0.49960183664463337,0.49999984146591736,0.5003981633553667,0.0,0.0,0.0,0.0,0.0,0.0,0.0,0.0,0.0,0.0,0.0,0.0
90,0.0012860111609954488,0.00044193577251004266,1.9865177854328127,-0.00043316771562357936,0.005023241448164119,-2.612476438283477e-05,0.999987289283509,0,0,1,0.706825181105366,0.0,0.0,0.7073882691671998,0.0,0.0,0.0,0.0,0.0,0.0,0.0,0.0,0.0,0.0,0.0,0.0,0,0,3.90900000000001,-0.49999984146591736,-0.49960183664463337,0.49999984146591736,0.5003981633553667,0.0,0.0,0.0,0.0,0.0,0.0,0.0,0.0,0.0,0.0,0.0,0.0
100,0.0016353056296197143,0.00044372666894113266,1.986484648248072,-0.00043415924621912087,0.006384916978880526,-2.738237127258489e-05,0.999979521585881,0,0,1,0.706825181105366,0.0,0.0,0.7073882691671998,0.0,0.0,0.0,0.0,0.0,0.0,0.0,0.0,0.0,0.0,0.0,0.0,0,0,3.899000000000011,-0.49999984146591736,-0.49960183664463337,0.49999984146591736,0.5003981633553667,0.0,0.0,0.0,0.0,0.0,0.0,0.0,0.0,0.0,0.0,0.0,0.0
110,0.0019835358028411154,0.00044424878954322453,1.986444906843501,-0.00043422649790073547,0.007742204748435123,-2.8033351142260313e-05,0.9999699340115747,0,0,1,0.706825181105366,0.0,0.0,0.7073882691671998,0.0,0.0,0.0,0.0,0.0,0.0,0.0,0.0,0.0,0.0,0.0,0.0,0,0,3.8890000000000122,-0.49999984146591736,-0.49960183664463337,0.49999984146591736,0.5003981633553667,0.0,0.0,0.0,0.0,0.0,0.0,0.0,0.0,0.0,0.0,0.0,0.0
120,0.0023305642213772644,0.00044421424730553603,1.9863981872916443,-0.00043388641873422424,0.009094728581526984,-2.8414807583315606e-05,0.9999585475644491,0,0,1,0.706825181105366,0.0,0.0,0.7073882691671998,0.0,0.0,0.0,0.0,0.0,0.0,0.0,0.0,0.0,0.0,0.0,0.0,0,0,3.8790000000000133,-0.49999984146591736,-0.49960183664463337,0.49999984146591736,0.5003981633553667,0.0,0.0,0.0,0.0,0.0,0.0,0.0,0.0,0.0,0.0,0.0,0.0
130,0.002676270057540823,0.0004446010637121812,1.9863444354044897,-0.0004338485882578515,0.010442313311524908,-2.901287086978782e-05,0.9999453830216727,0,0,1,0.706825181105366,0.0,0.0,0.7073882691671998,0.0,0.0,0.0,0.0,0.0,0.0,0.0,0.0,0.0,0.0,0.0,0.0,0,0,3.8690000000000144,-0.49999984146591736,-0.49960183664463337,0.49999984146591736,0.5003981633553667,0.0,0.0,0.0,0.0,0.0,0.0,0.0,0.0,0.0,0.0,0.0,0.0
140,0.0030206785816704993,0.00044513660337721104,1.986283613929461,-0.0004339239679961177,0.011784958796281612,-2.9690218041733417e-05,0.9999304603694453,0,0,1,0.706825181105366,0.0,0.0,0.7073882691671998,0.0,0.0,0.0,0.0,0.0,0.0,0.0,0.0,0.0,0.0,0.0,0.0,0,0,3.8590000000000155,-0.49999984146591736,-0.49960183664463337,0.49999984146591736,0.5003981633553667,0.0,0.0,0.0,0.0,0.0,0.0,0.0,0.0,0.0,0.0,0.0,0.0
150,0.003367236212996093,0.00037043394180126294,1.9862101276131732,-0.00038094902738719137,0.013122175301153729,7.2852601295068095e-06,0.9999138279572541,0,0,1,0.706825181105366,0.0,0.0,0.7073882691671998,0.0,0.0,0.0,0.0,0.0,0.0,0.0,0.0,0.0,0.0,0.0,0.0,0,0,3.8490000000000166,-0.49999984146591736,-0.49960183664463337,0.49999984146591736,0.5003981633553667,0.0,0.0,0.0,0.0,0.0,0.0,0.0,0.0,0.0,0.0,0.0,0.0
160,0.0037078607503110653,0.0003662159564551172,1.9861375645970187,-0.0003764869724867092,0.014456082064627071,9.681621079823963e-06,0.9998954344606072,0,0,1,0.706825181105366,0.0,0.0,0.7073882691671998,0.0,0.0,0.0,0.0,0.0,0.0,0.0,0.0,0.0,0.0,0.0,0.0,0,0,3.8390000000000177,-0.49999984146591736,-0.49960183664463337,0.49999984146591736,0.5003981633553667,0.0,0.0,0.0,0.0,0.0,0.0,0.0,0.0,0.0,0.0,0.0,0.0
170,0.00404800056980532,0.0003655733807824183,1.986056758393718,-0.0003746192244748636,0.01578481952548601,1.0373600460226309e-05,0.999875341742846,0,0,1,0.706825181105366,0.0,0.0,0.7073882691671998,0.0,0.0,0.0,0.0,0.0,0.0,0.0,0.0,0.0,0.0,0.0,0.0,0,0,3.829000000000019,-0.49999984146591736,-0.49960183664463337,0.49999984146591736,0.5003981633553667,0.0,0.0,0.0,0.0,0.0,0.0,0.0,0.0,0.0,0.0,0.0,0.0
180,0.0043871733081791734,0.0003661579239191548,1.985968626746498,-0.00037354286295063666,0.01710860459597394,1.0406924042162577e-05,0.9998535672818316,0,0,1,0.706825181105366,0.0,0.0,0.7073882691671998,0.0,0.0,0.0,0.0,0.0,0.0,0.0,0.0,0.0,0.0,0.0,0.0,0,0,3.81900000000002,-0.49999984146591736,-0.49960183664463337,0.49999984146591736,0.5003981633553667,0.0,0.0,0.0,0.0,0.0,0.0,0.0,0.0,0.0,0.0,0.0,0.0
190,0.004725252235766444,0.0003672852613096678,1.9858734248689565,-0.00037292441128873236,0.018427577038963104,1.0257417302423086e-05,0.9998301281851042,0,0,1,0.706825181105366,0.0,0.0,0.7073882691671998,0.0,0.0,0.0,0.0,0.0,0.0,0.0,0.0,0.0,0.0,0.0,0.0,0,0,3.809000000000021,-0.49999984146591736,-0.49960183664463337,0.49999984146591736,0.5003981633553667,0.0,0.0,0.0,0.0,0.0,0.0,0.0,0.0,0.0,0.0,0.0,0.0
200,0.005062230145026789,0.0003692407336192397,1.9857713252855818,-0.00037293655680466827,0.01974189153573799,9.731255681316487e-06,0.9998050402664603,0,0,1,0.706825181105366,0.0,0.0,0.7073882691671998,0.0,0.0,0.0,0.0,0.0,0.0,0.0,0.0,0.0,0.0,0.0,0.0,0,0,3.799000000000022,-0.49999984146591736,-0.49960183664463337,0.49999984146591736,0.5003981633553667,0.0,0.0,0.0,0.0,0.0,0.0,0.0,0.0,0.0,0.0,0.0,0.0
210,0.005398024782365141,0.0003712428622010125,1.9856625307478135,-0.0003729998422921063,0.021051593660182843,9.194898261578862e-06,0.999778321024685,0,0,1,0.706825181105366,0.0,0.0,0.7073882691671998,0.0,0.0,0.0,0.0,0.0,0.0,0.0,0.0,0.0,0.0,0.0,0.0,0,0,3.7890000000000232,-0.49999984146591736,-0.49960183664463337,0.49999984146591736,0.5003981633553667,0.0,0.0,0.0,0.0,0.0,0.0,0.0,0.0,0.0,0.0,0.0,0.0
220,0.0057325238734571024,0.0003730181331666224,1.9855470793357572,-0.000372918052660177,0.022356585150188697,8.786778914597848e-06,0.9997499907253518,0,0,1,0.706825181105366,0.0,0.0,0.7073882691671998,0.0,0.0,0.0,0.0,0.0,0.0,0.0,0.0,0.0,0.0,0.0,0.0,0,0,3.7790000000000243,-0.49999984146591736,-0.49960183664463337,0.49999984146591736,0.5003981633553667,0.0,0.0,0.0,0.0,0.0,0.0,0.0,0.0,0.0,0.0,0.0,0.0
230,0.006065900327154503,0.00037507083874858016,1.9854251198933908,-0.0003730356418240797,0.023657124639484852,8.235434577057191e-06,0.9997200614323889,0,0,1,0.706825181105366,0.0,0.0,0.7073882691671998,0.0,0.0,0.0,0.0,0.0,0.0,0.0,0.0,0.0,0.0,0.0,0.0,0,0,3.7690000000000254,-0.49999984146591736,-0.49960183664463337,0.49999984146591736,0.5003981633553667,0.0,0.0,0.0,0.0,0.0,0.0,0.0,0.0,0.0,0.0,0.0,0.0
240,0.006397834312259584,0.00037372588799045866,1.9852970673703199,-0.00037144538987704285,0.024953114870710554,9.7220876698569e-06,0.9996885534965639,0,0,1,0.706825181105366,0.0,0.0,0.7073882691671998,0.0,0.0,0.0,0.0,0.0,0.0,0.0,0.0,0.0,0.0,0.0,0.0,0,0,3.7590000000000265,-0.49999984146591736,-0.49960183664463337,0.49999984146591736,0.5003981633553667,0.0,0.0,0.0,0.0,0.0,0.0,0.0,0.0,0.0,0.0,0.0,0.0
250,0.006730454242352136,0.0003931632681753497,1.9851596094622543,-0.0003841170268941697,0.026244225599822736,3.074299466136551e-07,0.9996554871938036,0,0,1,0.706825181105366,0.0,0.0,0.7073882691671998,0.0,0.0,0.0,0.0,0.0,0.0,0.0,0.0,0.0,0.0,0.0,0.0,0,0,3.7490000000000276,-0.49999984146591736,-0.49960183664463337,0.49999984146591736,0.5003981633553667,0.0,0.0,0.0,0.0,0.0,0.0,0.0,0.0,0.0,0.0,0.0,0.0
260,0.007060120091648725,0.0004563783592052756,1.9850191248947855,-0.0004271621056186674,0.027531982303861946,-3.1637782550059694e-05,0.999620831356573,0,0,1,0.706825181105366,0.0,0.0,0.7073882691671998,0.0,0.0,0.0,0.0,0.0,0.0,0.0,0.0,0.0,0.0,0.0,0.0,0,0,3.7390000000000287,-0.49999984146591736,-0.49960183664463337,0.49999984146591736,0.5003981633553667,0.0,0.0,0.0,0.0,0.0,0.0,0.0,0.0,0.0,0.0,0.0,0.0
270,0.007387568872192498,0.0004638552978359769,1.984873996704636,-0.0004301559747971615,0.028815530158927172,-3.631645379207488e-05,0.9995846531778149,0,0,1,0.706825181105366,0.0,0.0,0.7073882691671998,0.0,0.0,0.0,0.0,0.0,0.0,0.0,0.0,0.0,0.0,0.0,0.0,0,0,3.72900000000003,-0.49999984146591736,-0.49960183664463337,0.49999984146591736,0.5003981633553667,0.0,0.0,0.0,0.0,0.0,0.0,0.0,0.0,0.0,0.0,0.0,0.0
280,0.007714590463099902,0.00046820368411144863,1.9847215337735602,-0.00043155245149508495,0.03009443061698251,-3.883969089760705e-05,0.9995469661300562,0,0,1,0.706825181105366,0.0,0.0,0.7073882691671998,0.0,0.0,0.0,0.0,0.0,0.0,0.0,0.0,0.0,0.0,0.0,0.0,0,0,3.719000000000031,-0.49999984146591736,-0.49960183664463337,0.49999984146591736,0.5003981633553667,0.0,0.0,0.0,0.0,0.0,0.0,0.0,0.0,0.0,0.0,0.0,0.0
290,0.008040810421690553,0.0004712077844610408,1.9845624505910329,-0.00043231969125074563,0.03136895957444137,-4.038102433300976e-05,0.9995077787812732,0,0,1,0.706825181105366,0.0,0.0,0.7073882691671998,0.0,0.0,0.0,0.0,0.0,0.0,0.0,0.0,0.0,0.0,0.0,0.0,0,0,3.709000000000032,-0.49999984146591736,-0.49960183664463337,0.49999984146591736,0.5003981633553667,0.0,0.0,0.0,0.0,0.0,0.0,0.0,0.0,0.0,0.0,0.0,0.0
300,0.00836615239661807,0.0004727342414704758,1.9843969929582819,-0.00043225244524996336,0.03263931378212901,-4.101241371422845e-05,0.9994671013453306,0,0,1,0.706825181105366,0.0,0.0,0.7073882691671998,0.0,0.0,0.0,0.0,0.0,0.0,0.0,0.0,0.0,0.0,0.0,0.0,0,0,3.699000000000033,-0.49999984146591736,-0.49960183664463337,0.49999984146591736,0.5003981633553667,0.0,0.0,0.0,0.0,0.0,0.0,0.0,0.0,0.0,0.0,0.0,0.0
310,0.008690511990344416,0.00047354181997407324,1.9842253770082308,-0.0004317756285203924,0.03390558075479263,-4.121469410098527e-05,0.9994249463890902,0,0,1,0.706825181105366,0.0,0.0,0.7073882691671998,0.0,0.0,0.0,0.0,0.0,0.0,0.0,0.0,0.0,0.0,0.0,0.0,0,0,3.6890000000000343,-0.49999984146591736,-0.49960183664463337,0.49999984146591736,0.5003981633553667,0.0,0.0,0.0,0.0,0.0,0.0,0.0,0.0,0.0,0.0,0.0,0.0
320,0.00901376185622992,0.00047486353549939587,1.9840478208758703,-0.00043164684272533124,0.03516778687093904,-4.169106070334578e-05,0.9993813279771935,0,0,1,0.706825181105366,0.0,0.0,0.7073882691671998,0.0,0.0,0.0,0.0,0.0,0.0,0.0,0.0,0.0,0.0,0.0,0.0,0,0,3.6790000000000354,-0.49999984146591736,-0.49960183664463337,0.49999984146591736,0.5003981633553667,0.0,0.0,0.0,0.0,0.0,0.0,0.0,0.0,0.0,0.0,0.0,0.0
330,0.009335926708602503,0.00047643838542314347,1.9838643735845058,-0.0004316952403731642,0.0364259898965937,-4.230134022980699e-05,0.9993362592790623,0,0,1,0.706825181105366,0.0,0.0,0.7073882691671998,0.0,0.0,0.0,0.0,0.0,0.0,0.0,0.0,0.0,0.0,0.0,0.0,0,0,3.6690000000000365,-0.49999984146591736,-0.49960183664463337,0.49999984146591736,0.5003981633553667,0.0,0.0,0.0,0.0,0.0,0.0,0.0,0.0,0.0,0.0,0.0,0.0
340,0.009657025474732543,0.0004781191836137012,1.9836750832254562,-0.0004318235551955928,0.037680239341800946,-4.2968835466543786e-05,0.9992897533975024,0,0,1,0.706825181105366,0.0,0.0,0.7073882691671998,0.0,0.0,0.0,0.0,0.0,0.0,0.0,0.0,0.0,0.0,0.0,0.0,0,0,3.6590000000000376,-0.49999984146591736,-0.49960183664463337,0.49999984146591736,0.5003981633553667,0.0,0.0,0.0,0.0,0.0,0.0,0.0,0.0,0.0,0.0,0.0,0.0
350,0.00997708976080747,0.00047964417249797493,1.9834799802328793,-0.0004318639619924868,0.038930588928877186,-4.355104167287678e-05,0.9992418230050601,0,0,1,0.706825181105366,0.0,0.0,0.7073882691671998,0.0,0.0,0.0,0.0,0.0,0.0,0.0,0.0,0.0,0.0,0.0,0.0,0,0,3.6490000000000387,-0.49999984146591736,-0.49960183664463337,0.49999984146591736,0.5003981633553667,0.0,0.0,0.0,0.0,0.0,0.0,0.0,0.0,0.0,0.0,0.0,0.0
360,0.01029864930923388,0.0004023667061586179,1.9832747586369905,-0.0003796354769730513,0.040175959262881186,-2.735823678406099e-06,0.9991925480940734,0,0,1,0.706825181105366,0.0,0.0,0.7073882691671998,0.0,0.0,0.0,0.0,0.0,0.0,0.0,0.0,0.0,0.0,0.0,0.0,0,0,3.6390000000000398,-0.49999984146591736,-0.49960183664463337,0.49999984146591736,0.5003981633553667,0.0,0.0,0.0,0.0,0.0,0.0,0.0,0.0,0.0,0.0,0.0,0.0
370,0.01061511154525749,0.00038809710672322423,1.983070941536833,-0.00037044778008590016,0.04141923913500405,5.801261626516838e-06,0.9991417864168554,0,0,1,0.706825181105366,0.0,0.0,0.7073882691671998,0.0,0.0,0.0,0.0,0.0,0.0,0.0,0.0,0.0,0.0,0.0,0.0,0,0,3.629000000000041,-0.49999984146591736,-0.49960183664463337,0.49999984146591736,0.5003981633553667,0.0,0.0,0.0,0.0,0.0,0.0,0.0,0.0,0.0,0.0,0.0,0.0
380,0.010931500976670437,0.00038279600359125227,1.982859984282857,-0.00036589153090946545,0.042658392423736514,8.280923935480118e-06,0.9990896494362438,0,0,1,0.706825181105366,0.0,0.0,0.7073882691671998,0.0,0.0,0.0,0.0,0.0,0.0,0.0,0.0,0.0,0.0,0.0,0.0,0,0,3.619000000000042,-0.49999984146591736,-0.49960183664463337,0.49999984146591736,0.5003981633553667,0.0,0.0,0.0,0.0,0.0,0.0,0.0,0.0,0.0,0.0,0.0,0.0
390,0.01124725694820916,0.0003807333776871672,1.982642841776804,-0.0003629000027524471,0.04389373955121166,8.492752950988865e-06,0.9990361394162233,0,0,1,0.706825181105366,0.0,0.0,0.7073882691671998,0.0,0.0,0.0,0.0,0.0,0.0,0.0,0.0,0.0,0.0,0.0,0.0,0,0,3.609000000000043,-0.49999984146591736,-0.49960183664463337,0.49999984146591736,0.5003981633553667,0.0,0.0,0.0,0.0,0.0,0.0,0.0,0.0,0.0,0.0,0.0,0.0
400,0.011562147748030556,0.00037997630133543606,1.9824198595397093,-0.000361223565644893,0.04512539787624635,8.508153324522497e-06,0.9989812650453748,0,0,1,0.706825181105366,0.0,0.0,0.7073882691671998,0.0,0.0,0.0,0.0,0.0,0.0,0.0,0.0,0.0,0.0,0.0,0.0,0,0,3.599000000000044,-0.49999984146591736,-0.49960183664463337,0.49999984146591736,0.5003981633553667,0.0,0.0,0.0,0.0,0.0,0.0,0.0,0.0,0.0,0.0,0.0,0.0
410,0.011876191291599928,0.00038074629556607997,1.982191152757868,-0.00036079730684554463,0.04635342320626052,7.978795127347375e-06,0.9989250371868269,0,0,1,0.706825181105366,0.0,0.0,0.7073882691671998,0.0,0.0,0.0,0.0,0.0,0.0,0.0,0.0,0.0,0.0,0.0,0.0,0,0,3.5890000000000453,-0.49999984146591736,-0.49960183664463337,0.49999984146591736,0.5003981633553667,0.0,0.0,0.0,0.0,0.0,0.0,0.0,0.0,0.0,0.0,0.0,0.0
420,0.012189323900584923,0.00038227463219063507,1.9819568912756278,-0.0003609967086661442,0.0475778394977769,7.187337977596769e-06,0.9988674680949632,0,0,1,0.706825181105366,0.0,0.0,0.7073882691671998,0.0,0.0,0.0,0.0,0.0,0.0,0.0,0.0,0.0,0.0,0.0,0.0,0,0,3.5790000000000464,-0.49999984146591736,-0.49960183664463337,0.49999984146591736,0.5003981633553667,0.0,0.0,0.0,0.0,0.0,0.0,0.0,0.0,0.0,0.0,0.0,0.0
430,0.01250144683433111,0.00038335579378539797,1.9817172712068967,-0.00036094787200246066,0.04879865430865242,6.682504582660521e-06,0.9988085707529959,0,0,1,0.706825181105366,0.0,0.0,0.7073882691671998,0.0,0.0,0.0,0.0,0.0,0.0,0.0,0.0,0.0,0.0,0.0,0.0,0,0,3.5690000000000475,-0.49999984146591736,-0.49960183664463337,0.49999984146591736,0.5003981633553667,0.0,0.0,0.0,0.0,0.0,0.0,0.0,0.0,0.0,0.0,0.0,0.0
440,0.012812587736601199,0.0003842338745211853,1.9814723206009095,-0.0003607853806595089,0.05001590545920448,6.304647900073494e-06,0.9987483561915166,0,0,1,0.706825181105366,0.0,0.0,0.7073882691671998,0.0,0.0,0.0,0.0,0.0,0.0,0.0,0.0,0.0,0.0,0.0,0.0,0,0,3.5590000000000486,-0.49999984146591736,-0.49960183664463337,0.49999984146591736,0.5003981633553667,0.0,0.0,0.0,0.0,0.0,0.0,0.0,0.0,0.0,0.0,0.0,0.0
450,0.013122763970368077,0.00038502400811135044,1.9812220759913026,-0.0003605744826441485,0.05122962956385106,5.980625445473103e-06,0.9986868353017503,0,0,1,0.706825181105366,0.0,0.0,0.7073882691671998,0.0,0.0,0.0,0.0,0.0,0.0,0.0,0.0,0.0,0.0,0.0,0.0,0,0,3.5490000000000497,-0.49999984146591736,-0.49960183664463337,0.49999984146591736,0.5003981633553667,0.0,0.0,0.0,0.0,0.0,0.0,0.0,0.0,0.0,0.0,0.0,0.0
460,0.013435096532160426,0.0004524350337013758,1.9809603214235751,-0.000405340770009436,0.05243876578238756,-2.8775754049031407e-05,0.9986240587498562,0,0,1,0.706825181105366,0.0,0.0,0.7073882691671998,0.0,0.0,0.0,0.0,0.0,0.0,0.0,0.0,0.0,0.0,0.0,0.0,0,0,3.5390000000000508,-0.49999984146591736,-0.49960183664463337,0.49999984146591736,0.5003981633553667,0.0,0.0,0.0,0.0,0.0,0.0,0.0,0.0,0.0,0.0,0.0,0.0
470,0.013741528617390239,0.00047655898446399315,1.980703226972147,-0.0004217176249868992,0.05364583678401453,-3.9891121323138976e-05,0.9985599354864414,0,0,1,0.706825181105366,0.0,0.0,0.7073882691671998,0.0,0.0,0.0,0.0,0.0,0.0,0.0,0.0,0.0,0.0,0.0,0.0,0,0,3.529000000000052,-0.49999984146591736,-0.49960183664463337,0.49999984146591736,0.5003981633553667,0.0,0.0,0.0,0.0,0.0,0.0,0.0,0.0,0.0,0.0,0.0,0.0
480,0.014048015611108473,0.0004885818391719273,1.9804390094852329,-0.00042946848422319633,0.054849275311117184,-4.533301246159258e-05,0.9984945520630467,0,0,1,0.706825181105366,0.0,0.0,0.7073882691671998,0.0,0.0,0.0,0.0,0.0,0.0,0.0,0.0,0.0,0.0,0.0,0.0,0,0,3.519000000000053,-0.49999984146591736,-0.49960183664463337,0.49999984146591736,0.5003981633553667,0.0,0.0,0.0,0.0,0.0,0.0,0.0,0.0,0.0,0.0,0.0,0.0
490,0.014354076423511466,0.0004945224428852409,1.9801687207399588,-0.0004329032776658636,0.05604926716952796,-4.789906591259975e-05,0.9984279092404171,0,0,1,0.706825181105366,0.0,0.0,0.7073882691671998,0.0,0.0,0.0,0.0,0.0,0.0,0.0,0.0,0.0,0.0,0.0,0.0,0,0,3.509000000000054,-0.49999984146591736,-0.49960183664463337,0.49999984146591736,0.5003981633553667,0.0,0.0,0.0,0.0,0.0,0.0,0.0,0.0,0.0,0.0,0.0,0.0
500,0.014659396666291102,0.0004982828456823096,1.9798929858295673,-0.0004347342389147918,0.05724587403941265,-4.9499021546870084e-05,0.9983600144544312,0,0,1,0.706825181105366,0.0,0.0,0.7073882691671998,0.0,0.0,0.0,0.0,0.0,0.0,0.0,0.0,0.0,0.0,0.0,0.0,0,0,3.499000000000055,-0.49999984146591736,-0.49960183664463337,0.49999984146591736,0.5003981633553667,0.0,0.0,0.0,0.0,0.0,0.0,0.0,0.0,0.0,0.0,0.0,0.0
510,0.014963988102883963,0.0004998278398937839,1.9796119093902342,-0.0004349941387437927,0.058439169761371076,-5.0053695460586e-05,0.9982908753025485,0,0,1,0.706825181105366,0.0,0.0,0.7073882691671998,0.0,0.0,0.0,0.0,0.0,0.0,0.0,0.0,0.0,0.0,0.0,0.0,0,0,3.4890000000000563,-0.49999984146591736,-0.49960183664463337,0.49999984146591736,0.5003981633553667,0.0,0.0,0.0,0.0,0.0,0.0,0.0,0.0,0.0,0.0,0.0,0.0
520,0.015267706258597243,0.0005009847904505286,1.9793257631705798,-0.00043494438746690805,0.05962917288643772,-5.047072323366979e-05,0.9982205017013852,0,0,1,0.706825181105366,0.0,0.0,0.7073882691671998,0.0,0.0,0.0,0.0,0.0,0.0,0.0,0.0,0.0,0.0,0.0,0.0,0,0,3.4790000000000574,-0.49999984146591736,-0.49960183664463337,0.49999984146591736,0.5003981633553667,0.0,0.0,0.0,0.0,0.0,0.0,0.0,0.0,0.0,0.0,0.0,0.0
530,0.015570505569337137,0.0005023976514791434,1.9790346731035104,-0.0004350454386246769,0.06081590841513363,-5.104688442110693e-05,0.9981489034274015,0,0,1,0.706825181105366,0.0,0.0,0.7073882691671998,0.0,0.0,0.0,0.0,0.0,0.0,0.0,0.0,0.0,0.0,0.0,0.0,0,0,3.4690000000000585,-0.49999984146591736,-0.49960183664463337,0.49999984146591736,0.5003981633553667,0.0,0.0,0.0,0.0,0.0,0.0,0.0,0.0,0.0,0.0,0.0,0.0
540,0.01587240559599259,0.0005039191950899281,1.9787386690663042,-0.0004352123251162487,0.06199941068586369,-5.169017209012536e-05,0.998076089781217,0,0,1,0.706825181105366,0.0,0.0,0.7073882691671998,0.0,0.0,0.0,0.0,0.0,0.0,0.0,0.0,0.0,0.0,0.0,0.0,0,0,3.4590000000000596,-0.49999984146591736,-0.49960183664463337,0.49999984146591736,0.5003981633553667,0.0,0.0,0.0,0.0,0.0,0.0,0.0,0.0,0.0,0.0,0.0,0.0
550,0.0161734331289607,0.0005053101692777621,1.9784377660750772,-0.00043528994814694594,0.06317971501189584,-5.226960630046361e-05,0.998002069838317,0,0,1,0.706825181105366,0.0,0.0,0.7073882691671998,0.0,0.0,0.0,0.0,0.0,0.0,0.0,0.0,0.0,0.0,0.0,0.0,0,0,3.4490000000000607,-0.49999984146591736,-0.49960183664463337,0.49999984146591736,0.5003981633553667,0.0,0.0,0.0,0.0,0.0,0.0,0.0,0.0,0.0,0.0,0.0,0.0
560,0.016473644172427023,0.0005059696858682911,1.978131935663578,-0.00043487465217782094,0.06435686384219193,-5.2480681505864985e-05,0.9979268521320651,0,0,1,0.706825181105366,0.0,0.0,0.7073882691671998,0.0,0.0,0.0,0.0,0.0,0.0,0.0,0.0,0.0,0.0,0.0,0.0,0,0,3.439000000000062,-0.49999984146591736,-0.49960183664463337,0.49999984146591736,0.5003981633553667,0.0,0.0,0.0,0.0,0.0,0.0,0.0,0.0,0.0,0.0,0.0,0.0
570,0.016776268042343178,0.0003815639242328448,1.9778150784232535,-0.00035051986064945094,0.06553128757421625,1.2026059416931109e-05,0.9978504533947292,0,0,1,0.706825181105366,0.0,0.0,0.7073882691671998,0.0,0.0,0.0,0.0,0.0,0.0,0.0,0.0,0.0,0.0,0.0,0.0,0,0,3.429000000000063,-0.49999984146591736,-0.49960183664463337,0.49999984146591736,0.5003981633553667,0.0,0.0,0.0,0.0,0.0,0.0,0.0,0.0,0.0,0.0,0.0,0.0
580,0.017073126206509925,0.00039086325006863336,1.977502940340294,-0.0003549834723074549,0.0667038924093622,6.060162468343783e-06,0.9977727520269578,0,0,1,0.706825181105366,0.0,0.0,0.7073882691671998,0.0,0.0,0.0,0.0,0.0,0.0,0.0,0.0,0.0,0.0,0.0,0.0,0,0,3.419000000000064,-0.49999984146591736,-0.49960183664463337,0.49999984146591736,0.5003981633553667,0.0,0.0,0.0,0.0,0.0,0.0,0.0,0.0,0.0,0.0,0.0,0.0
590,0.01729495688032502,0.0004172828268060462,1.9772649367795692,-0.00037286270872325707,0.06757005141316497,-5.931075417981328e-06,0.9977144627047585,0,0,1,0.706825181105366,0.0,0.0,0.7073882691671998,0.0,0.0,0.0,0.0,0.0,0.0,0.0,0.0,0.0,0.0,0.0,0.0,0,0,3.409000000000065,-0.49999984146591736,-0.49960183664463337,0.49999984146591736,0.5003981633553667,0.0,0.0,0.0,0.0,0.0,0.0,0.0,0.0,0.0,0.0,0.0,0.0
600,0.017392030336099984,0.00043194965465495453,1.9771598637041041,-0.00038099807880529753,0.06794855365572543,-9.450511728013451e-06,0.9976887534733699,0,0,1,0.706825181105366,0.0,0.0,0.7073882691671998,0.0,0.0,0.0,0.0,0.0,0.0,0.0,0.0,0.0,0.0,0.0,0.0,0,0,3.399000000000066,-0.49999984146591736,-0.49960183664463337,0.49999984146591736,0.5003981633553667,0.0,0.0,0.0,0.0,0.0,0.0,0.0,0.0,0.0,0.0,0.0,0.0
610,0.0174341057041518,0.0004401382656801356,1.9771139959445252,-0.0003841082512694796,0.06811271809497872,-1.0670928936536811e-05,0.9976775581222105,0,0,1,0.706825181105366,0.0,0.0,0.7073882691671998,0.0,0.0,0.0,0.0,0.0,0.0,0.0,0.0,0.0,0.0,0.0,0.0,0,0,3.3890000000000673,-0.49999984146591736,-0.49960183664463337,0.49999984146591736,0.5003981633553667,0.0,0.0,0.0,0.0,0.0,0.0,0.0,0.0,0.0,0.0,0.0,0.0
620,0.017452247414510545,0.000446718421120904,1.9770935500118234,-0.0003852071811613261,0.06818279829535888,-1.1356756288091202e-05,0.9976727707535503,0,0,1,0.706825181105366,0.0,0.0,0.7073882691671998,0.0,0.0,0.0,0.0,0.0,0.0,0.0,0.0,0.0,0.0,0.0,0.0,0,0,3.3790000000000684,-0.49999984146591736,-0.49960183664463337,0.49999984146591736,0.5003981633553667,0.0,0.0,0.0,0.0,0.0,0.0,0.0,0.0,0.0,0.0,0.0,0.0
630,0.01746033279142586,0.0004631895552288534,1.9770830850950214,-0.0003919400202017871,0.06820990450603572,-1.8301848295133082e-05,0.9976709151695966,0,0,1,0.706825181105366,0.0,0.0,0.7073882691671998,0.0,0.0,0.0,0.0,0.0,0.0,0.0,0.0,0.0,0.0,0.0,0.0,0,0,3.3690000000000695,-0.49999984146591736,-0.49960183664463337,0.49999984146591736,0.5003981633553667,0.0,0.0,0.0,0.0,0.0,0.0,0.0,0.0,0.0,0.0,0.0,0.0
640,0.017464793290265273,0.0004659399049033132,1.9770776544967024,-0.0003951691658434018,0.06821771766267022,-1.6846595248393484e-05,0.9976703797118659,0,0,1,0.706825181105366,0.0,0.0,0.7073882691671998,0.0,0.0,0.0,0.0,0.0,0.0,0.0,0.0,0.0,0.0,0.0,0.0,0,0,3.3590000000000706,-0.49999984146591736,-0.49960183664463337,0.49999984146591736,0.5003981633553667,0.0,0.0,0.0,0.0,0.0,0.0,0.0,0.0,0.0,0.0,0.0,0.0
650,0.017466620165476433,0.0004642319363663913,1.9770752744293185,-0.00039601219351359724,0.06822127251142882,-1.53305110889912e-05,0.9976701363257494,0,0,1,0.706825181105366,0.0,0.0,0.7073882691671998,0.0,0.0,0.0,0.0,0.0,0.0,0.0,0.0,0.0,0.0,0.0,0.0,0,0,3.3490000000000717,-0.49999984146591736,-0.49960183664463337,0.49999984146591736,0.5003981633553667,0.0,0.0,0.0,0.0,0.0,0.0,0.0,0.0,0.0,0.0,0.0,0.0
660,0.017467257875158994,0.0004617304803322241,1.9770742447057414,-0.00039634099955556946,0.06822319653648959,-1.3252940680869165e-05,0.9976700046571086,0,0,1,0.706825181105366,0.0,0.0,0.7073882691671998,0.0,0.0,0.0,0.0,0.0,0.0,0.0,0.0,0.0,0.0,0.0,0.0,0,0,3.339000000000073,-0.49999984146591736,-0.49960183664463337,0.49999984146591736,0.5003981633553667,0.0,0.0,0.0,0.0,0.0,0.0,0.0,0.0,0.0,0.0,0.0,0.0
670,0.01746730437707588,0.0004590978507165911,1.9770736650091687,-0.00039670272280422795,0.06822435323960707,-1.03930802434056e-05,0.9976699254482772,0,0,1,0.706825181105366,0.0,0.0,0.7073882691671998,0.0,0.0,0.0,0.0,0.0,0.0,0.0,0.0,0.0,0.0,0.0,0.0,0,0,3.329000000000074,-0.49999984146591736,-0.49960183664463337,0.49999984146591736,0.5003981633553667,0.0,0.0,0.0,0.0,0.0,0.0,0.0,0.0,0.0,0.0,0.0,0.0
680,0.017467346199501216,0.00045845486832448985,1.9770738599934115,-0.00039705614181360823,0.06822562735508574,-9.030388772054022e-06,0.9976698381914115,0,0,1,0.706825181105366,0.0,0.0,0.7073882691671998,0.0,0.0,0.0,0.0,0.0,0.0,0.0,0.0,0.0,0.0,0.0,0.0,0,0,3.319000000000075,-0.49999984146591736,-0.49960183664463337,0.49999984146591736,0.5003981633553667,0.0,0.0,0.0,0.0,0.0,0.0,0.0,0.0,0.0,0.0,0.0,0.0
690,0.017467282477353848,0.0004585472017557249,1.977074137067051,-0.0003973229285836804,0.06822674486283056,-8.078420879610744e-06,0.9976697616719933,0,0,1,0.706825181105366,0.0,0.0,0.7073882691671998,0.0,0.0,0.0,0.0,0.0,0.0,0.0,0.0,0.0,0.0,0.0,0.0,0,0,3.309000000000076,-0.49999984146591736,-0.49960183664463337,0.49999984146591736,0.5003981633553667,0.0,0.0,0.0,0.0,0.0,0.0,0.0,0.0,0.0,0.0,0.0,0.0
700,0.01746717193604221,0.00045914652948968686,1.9770744165481036,-0.0003975189618797232,0.06822773663435382,-7.355074892927731e-06,0.9976696937756159,0,0,1,0.706825181105366,0.0,0.0,0.7073882691671998,0.0,0.0,0.0,0.0,0.0,0.0,0.0,0.0,0.0,0.0,0.0,0.0,0,0,3.299000000000077,-0.49999984146591736,-0.49960183664463337,0.49999984146591736,0.5003981633553667,0.0,0.0,0.0,0.0,0.0,0.0,0.0,0.0,0.0,0.0,0.0,0.0
710,0.017467048221134474,0.00046018216536757863,1.9770746842621751,-0.0003976645094433024,0.06822863316277174,-6.819483671975539e-06,0.997669632410034,0,0,1,0.706825181105366,0.0,0.0,0.7073882691671998,0.0,0.0,0.0,0.0,0.0,0.0,0.0,0.0,0.0,0.0,0.0,0.0,0,0,3.2890000000000783,-0.49999984146591736,-0.49960183664463337,0.49999984146591736,0.5003981633553667,0.0,0.0,0.0,0.0,0.0,0.0,0.0,0.0,0.0,0.0,0.0,0.0
720,0.017466925800339116,0.00046158788591563616,1.9770749340293732,-0.00039777198922169024,0.06822944767832907,-6.436623282237961e-06,0.9976695766663052,0,0,1,0.706825181105366,0.0,0.0,0.7073882691671998,0.0,0.0,0.0,0.0,0.0,0.0,0.0,0.0,0.0,0.0,0.0,0.0,0,0,3.2790000000000794,-0.49999984146591736,-0.49960183664463337,0.49999984146591736,0.5003981633553667,0.0,0.0,0.0,0.0,0.0,0.0,0.0,0.0,0.0,0.0,0.0,0.0
730,0.017466810698299393,0.00046330435411453977,1.9770751634306687,-0.00039784986441844956,0.0682301868101083,-6.176779021277349e-06,0.9976695260882686,0,0,1,0.706825181105366,0.0,0.0,0.7073882691671998,0.0,0.0,0.0,0.0,0.0,0.0,0.0,0.0,0.0,0.0,0.0,0.0,0,0,3.2690000000000805,-0.49999984146591736,-0.49960183664463337,0.49999984146591736,0.5003981633553667,0.0,0.0,0.0,0.0,0.0,0.0,0.0,0.0,0.0,0.0,0.0,0.0
740,0.017466705191405613,0.0004652795941525386,1.9770753718898797,-0.0003979043994462669,0.06823085496994209,-6.014934090152757e-06,0.9976694803721221,0,0,1,0.706825181105366,0.0,0.0,0.7073882691671998,0.0,0.0,0.0,0.0,0.0,0.0,0.0,0.0,0.0,0.0,0.0,0.0,0,0,3.2590000000000816,-0.49999984146591736,-0.49960183664463337,0.49999984146591736,0.5003981633553667,0.0,0.0,0.0,0.0,0.0,0.0,0.0,0.0,0.0,0.0,0.0,0.0
750,0.017466609873921922,0.0004674686732000402,1.9770755597772636,-0.0003979404846952972,0.06823145605881505,-5.930168328972134e-06,0.9976694392494428,0,0,1,0.706825181105366,0.0,0.0,0.7073882691671998,0.0,0.0,0.0,0.0,0.0,0.0,0.0,0.0,0.0,0.0,0.0,0.0,0,0,3.2490000000000827,-0.49999984146591736,-0.49960183664463337,0.49999984146591736,0.5003981633553667,0.0,0.0,0.0,0.0,0.0,0.0,0.0,0.0,0.0,0.0,0.0,0.0
760,0.017466524577219904,0.000469833088092366,1.9770757279697824,-0.0003979620518307431,0.0682319940507245,-5.905101087224208e-06,0.9976694024471218,0,0,1,0.706825181105366,0.0,0.0,0.7073882691671998,0.0,0.0,0.0,0.0,0.0,0.0,0.0,0.0,0.0,0.0,0.0,0.0,0,0,3.239000000000084,-0.49999984146591736,-0.49960183664463337,0.49999984146591736,0.5003981633553667,0.0,0.0,0.0,0.0,0.0,0.0,0.0,0.0,0.0,0.0,0.0,0.0
770,0.017466448786280602,0.0004723400701335339,1.9770758776203832,-0.0003979723053490052,0.06823247312232814,-5.9253893396043746e-06,0.9976693696784245,0,0,1,0.706825181105366,0.0,0.0,0.7073882691671998,0.0,0.0,0.0,0.0,0.0,0.0,0.0,0.0,0.0,0.0,0.0,0.0,0,0,3.229000000000085,-0.49999984146591736,-0.49960183664463337,0.49999984146591736,0.5003981633553667,0.0,0.0,0.0,0.0,0.0,0.0,0.0,0.0,0.0,0.0,0.0,0.0
780,0.01746638183392006,0.0004749618978753945,1.977076010026857,-0.00039797386843404314,0.06823289761282318,-5.979282373915856e-06,0.9976693406456902,0,0,1,0.706825181105366,0.0,0.0,0.7073882691671998,0.0,0.0,0.0,0.0,0.0,0.0,0.0,0.0,0.0,0.0,0.0,0.0,0,0,3.219000000000086,-0.49999984146591736,-0.49960183664463337,0.49999984146591736,0.5003981633553667,0.0,0.0,0.0,0.0,0.0,0.0,0.0,0.0,0.0,0.0,0.0,0.0
790,0.017466322995201605,0.0004776752541845357,1.977076126551187,-0.00039796888605734263,0.06823327193272433,-6.057230355785553e-06,0.9976693150465391,0,0,1,0.706825181105366,0.0,0.0,0.7073882691671998,0.0,0.0,0.0,0.0,0.0,0.0,0.0,0.0,0.0,0.0,0.0,0.0,0,0,3.209000000000087,-0.49999984146591736,-0.49960183664463337,0.49999984146591736,0.5003981633553667,0.0,0.0,0.0,0.0,0.0,0.0,0.0,0.0,0.0,0.0,0.0,0.0
800,0.01746627153580864,0.0004804606405159604,1.9770762285667498,-0.00039795910444124697,0.06823360046896468,-6.151542508700251e-06,0.9976692925803377,0,0,1,0.706825181105366,0.0,0.0,0.7073882691671998,0.0,0.0,0.0,0.0,0.0,0.0,0.0,0.0,0.0,0.0,0.0,0.0,0,0,3.199000000000088,-0.49999984146591736,-0.49960183664463337,0.49999984146591736,0.5003981633553667,0.0,0.0,0.0,0.0,0.0,0.0,0.0,0.0,0.0,0.0,0.0,0.0
810,0.0174662533354033,0.0004833006559107327,1.977076313109537,-0.00039793235061563395,0.06823382480688528,-6.29636586734781e-06,0.9976692772469359,0,0,1,0.706825181105366,0.0,0.0,0.7073882691671998,0.0,0.0,0.0,0.0,0.0,0.0,0.0,0.0,0.0,0.0,0.0,0.0,0,0,3.1890000000000893,-0.49999984146591736,-0.49960183664463337,0.49999984146591736,0.5003981633553667,0.0,0.0,0.0,0.0,0.0,0.0,0.0,0.0,0.0,0.0,0.0,0.0
820,0.017466242742732074,0.0004861452220897235,1.9770763711642663,-0.0003979022430321942,0.06823397714114546,-6.451590658396491e-06,0.9976692668393087,0,0,1,0.706825181105366,0.0,0.0,0.7073882691671998,0.0,0.0,0.0,0.0,0.0,0.0,0.0,0.0,0.0,0.0,0.0,0.0,0,0,3.1790000000000904,-0.49999984146591736,-0.49960183664463337,0.49999984146591736,0.5003981633553667,0.0,0.0,0.0,0.0,0.0,0.0,0.0,0.0,0.0,0.0,0.0,0.0
830,0.017466227346371283,0.0004889825045471742,1.9770764136564856,-0.00039787669194514156,0.06823410564980359,-6.589219886712474e-06,0.9976692580594491,0,0,1,0.706825181105366,0.0,0.0,0.7073882691671998,0.0,0.0,0.0,0.0,0.0,0.0,0.0,0.0,0.0,0.0,0.0,0.0,0,0,3.1690000000000915,-0.49999984146591736,-0.49960183664463337,0.49999984146591736,0.5003981633553667,0.0,0.0,0.0,0.0,0.0,0.0,0.0,0.0,0.0,0.0,0.0,0.0
840,0.01746621108931314,0.0004918127323847665,1.977076447274636,-0.0003978545429617741,0.06823421671009673,-6.7111922735768545e-06,0.9976692504716591,0,0,1,0.706825181105366,0.0,0.0,0.7073882691671998,0.0,0.0,0.0,0.0,0.0,0.0,0.0,0.0,0.0,0.0,0.0,0.0,0,0,3.1590000000000926,-0.49999984146591736,-0.49960183664463337,0.49999984146591736,0.5003981633553667,0.0,0.0,0.0,0.0,0.0,0.0,0.0,0.0,0.0,0.0,0.0,0.0
850,0.017466195549160464,0.000494636453910633,1.9770764751667766,-0.0003978351310393753,0.0682343138946356,-6.819267071012768e-06,0.9976692438318596,0,0,1,0.706825181105366,0.0,0.0,0.7073882691671998,0.0,0.0,0.0,0.0,0.0,0.0,0.0,0.0,0.0,0.0,0.0,0.0,0,0,3.1490000000000937,-0.49999984146591736,-0.49960183664463337,0.49999984146591736,0.5003981633553667,0.0,0.0,0.0,0.0,0.0,0.0,0.0,0.0,0.0,0.0,0.0,0.0
860,0.017466181287252514,0.0004974543028048783,1.9770764989142213,-0.000397818024069683,0.06823439947280617,-6.915015702404178e-06,0.9976692379850086,0,0,1,0.706825181105366,0.0,0.0,0.7073882691671998,0.0,0.0,0.0,0.0,0.0,0.0,0.0,0.0,0.0,0.0,0.0,0.0,0,0,3.139000000000095,-0.49999984146591736,-0.49960183664463337,0.49999984146591736,0.5003981633553667,0.0,0.0,0.0,0.0,0.0,0.0,0.0,0.0,0.0,0.0,0.0,0.0
870,0.017466168437431276,0.0005002669048787712,1.9770765193929887,-0.0003978029075375274,0.06823447506604417,-6.999836359394939e-06,0.9976692328203323,0,0,1,0.706825181105366,0.0,0.0,0.7073882691671998,0.0,0.0,0.0,0.0,0.0,0.0,0.0,0.0,0.0,0.0,0.0,0.0,0,0,3.129000000000096,-0.49999984146591736,-0.49960183664463337,0.49999984146591736,0.5003981633553667,0.0,0.0,0.0,0.0,0.0,0.0,0.0,0.0,0.0,0.0,0.0,0.0
880,0.017466156960292602,0.0005030748425858953,1.9770765371510257,-0.00039778953244327226,0.06823454194188125,-7.074970699657736e-06,0.9976692282512347,0,0,1,0.706825181105366,0.0,0.0,0.7073882691671998,0.0,0.0,0.0,0.0,0.0,0.0,0.0,0.0,0.0,0.0,0.0,0.0,0,0,3.119000000000097,-0.49999984146591736,-0.49960183664463337,0.49999984146591736,0.5003981633553667,0.0,0.0,0.0,0.0,0.0,0.0,0.0,0.0,0.0,0.0,0.0,0.0
890,0.0174661467522514,0.0005058786441197883,1.9770765525746317,-0.00039777769100294295,0.06823460114995529,-7.141520301612026e-06,0.997669224206006,0,0,1,0.706825181105366,0.0,0.0,0.7073882691671998,0.0,0.0,0.0,0.0,0.0,0.0,0.0,0.0,0.0,0.0,0.0,0.0,0,0,3.109000000000098,-0.49999984146591736,-0.49960183664463337,0.49999984146591736,0.5003981633553667,0.0,0.0,0.0,0.0,0.0,0.0,0.0,0.0,0.0,0.0,0.0,0.0
900,0.017466137691675886,0.0005086787827060622,1.977076565962966,-0.0003977672046336824,0.06823465358840762,-7.2004619816960264e-06,0.9976692206232857,0,0,1,0.706825181105366,0.0,0.0,0.7073882691671998,0.0,0.0,0.0,0.0,0.0,0.0,0.0,0.0,0.0,0.0,0.0,0.0,0,0,3.0990000000000992,-0.49999984146591736,-0.49960183664463337,0.49999984146591736,0.5003981633553667,0.0,0.0,0.0,0.0,0.0,0.0,0.0,0.0,0.0,0.0,0.0,0.0
910,0.017466129657815462,0.0005114756798741386,1.97707657756236,-0.00039775791745337666,0.06823470003920293,-7.252661694793148e-06,0.9976692174496504,0,0,1,0.706825181105366,0.0,0.0,0.7073882691671998,0.0,0.0,0.0,0.0,0.0,0.0,0.0,0.0,0.0,0.0,0.0,0.0,0,0,3.0890000000001003,-0.49999984146591736,-0.49960183664463337,0.49999984146591736,0.5003981633553667,0.0,0.0,0.0,0.0,0.0,0.0,0.0,0.0,0.0,0.0,0.0,0.0
920,0.017466122538034194,0.0005142697100534042,1.9770765875829304,-0.0003977496923230115,0.06823474118920712,-7.298887003615237e-06,0.9976692146381737,0,0,1,0.706825181105366,0.0,0.0,0.7073882691671998,0.0,0.0,0.0,0.0,0.0,0.0,0.0,0.0,0.0,0.0,0.0,0.0,0,0,3.0790000000001014,-0.49999984146591736,-0.49960183664463337,0.49999984146591736,0.5003981633553667,0.0,0.0,0.0,0.0,0.0,0.0,0.0,0.0,0.0,0.0,0.0,0.0
930,0.017466116230074158,0.0005170612053833926,1.977076596207314,-0.00039774240812360926,0.06823477764442636,-7.339818198183383e-06,0.997669212147453,0,0,1,0.706825181105366,0.0,0.0,0.7073882691671998,0.0,0.0,0.0,0.0,0.0,0.0,0.0,0.0,0.0,0.0,0.0,0.0,0,0,3.0690000000001025,-0.49999984146591736,-0.49960183664463337,0.49999984146591736,0.5003981633553667,0.0,0.0,0.0,0.0,0.0,0.0,0.0,0.0,0.0,0.0,0.0,0.0
940,0.01746611064225956,0.0005198504602962282,1.9770766035957983,-0.00039773595768213756,0.06823480994069504,-7.37605818529069e-06,0.9976692099408796,0,0,1,0.706825181105366,0.0,0.0,0.7073882691671998,0.0,0.0,0.0,0.0,0.0,0.0,0.0,0.0,0.0,0.0,0.0,0.0,0,0,3.0590000000001036,-0.49999984146591736,-0.49960183664463337,0.49999984146591736,0.5003981633553667,0.0,0.0,0.0,0.0,0.0,0.0,0.0,0.0,0.0,0.0,0.0,0.0
950,0.017466105692893565,0.0005226377357146343,1.9770766098897383,-0.000397730246080352,0.06823483855231047,-7.408141268817284e-06,0.9976692079860493,0,0,1,0.706825181105366,0.0,0.0,0.7073882691671998,0.0,0.0,0.0,0.0,0.0,0.0,0.0,0.0,0.0,0.0,0.0,0.0,0,0,3.0490000000001047,-0.49999984146591736,-0.49960183664463337,0.49999984146591736,0.5003981633553667,0.0,0.0,0.0,0.0,0.0,0.0,0.0,0.0,0.0,0.0,0.0,0.0
960,0.017466101309384398,0.000525423262831455,1.9770766152140928,-0.0003977251892182711,0.06823486389932004,-7.436540942121183e-06,0.9976692062542639,0,0,1,0.706825181105366,0.0,0.0,0.7073882691671998,0.0,0.0,0.0,0.0,0.0,0.0,0.0,0.0,0.0,0.0,0.0,0.0,0,0,3.039000000000106,-0.49999984146591736,-0.49960183664463337,0.49999984146591736,0.5003981633553667,0.0,0.0,0.0,0.0,0.0,0.0,0.0,0.0,0.0,0.0,0.0,0.0
970,0.017466097427322008,0.0005282072464830048,1.977076619679454,-0.0003977207125675992,0.06823488635382063,-7.4616767985706605e-06,0.9976692047201012,0,0,1,0.706825181105366,0.0,0.0,0.7073882691671998,0.0,0.0,0.0,0.0,0.0,0.0,0.0,0.0,0.0,0.0,0.0,0.0,0,0,3.029000000000107,-0.49999984146591736,-0.49960183664463337,0.49999984146591736,0.5003981633553667,0.0,0.0,0.0,0.0,0.0,0.0,0.0,0.0,0.0,0.0,0.0,0.0
980,0.017466093989596226,0.000530989868148888,1.9770766233837576,-0.00039771675007800155,0.0682349062454728,-7.483920659836189e-06,0.9976692033610385,0,0,1,0.706825181105366,0.0,0.0,0.7073882691671998,0.0,0.0,0.0,0.0,0.0,0.0,0.0,0.0,0.0,0.0,0.0,0.0,0,0,3.019000000000108,-0.49999984146591736,-0.49960183664463337,0.49999984146591736,0.5003981633553667,0.0,0.0,0.0,0.0,0.0,0.0,0.0,0.0,0.0,0.0,0.0,0.0
990,0.017288033471116224,0.00224888178589953,1.977288753969918,-0.0009691774352693219,0.06784308340031095,-0.00046880938595129993,0.9976954229360767,0,0,1,0.706825181105366,0.0,0.0,0.7073882691671998,0.0,0.0,0.0,0.0,0.0,0.0,0.0,0.0,0.0,0.0,0.0,0.0,0,0,3.009000000000109,-0.49999984146591736,-0.49960183664463337,0.49999984146591736,0.5003981633553667,0.0,0.0,0.0,0.0,0.0,0.0,0.0,0.0,0.0,0.0,0.0,0.0
1000,0.016889397986962536,0.005945358460785521,1.9777752960105033,-0.002270477847571178,0.06694573570900893,-0.0015070703205414503,0.9977528963324398,0,-0.00157,1.0,0.7062696635894389,0.0,0.0,0.7079429089222243,0.0,0.0,0.0,0.0,0.0,0.0,0.0,0.0,0.0,0.0,0.0,0.0,0,0.00157,3.00000000000011,-0.5003921872449635,-0.4992088701931799,0.5003921872449635,0.5000058217749588,0.0,0.0,0.0,0.0,0.0,0.0,0.0,0.0,0.0,0.0001,0.0,0.0
1010,0.016790315498983972,0.009223830103613499,1.977666091904922,-0.004768088892851429,0.0666836365677038,-0.001562933500857489,0.9977615522665163,0,-0.01726925505566614,1.0001355664368459,0.7006906078911173,0.0,0.0,0.7134652563462195,0.0,0.0,0.0,0.0,0.0,0.0,0.0,0.0,0.0,0.0,0.0,0.0,0,0.01726925505566614,2.999864433563263,-0.5042986457582253,-0.495262326354696,0.5042986457582253,0.4960654995729645,0.0,0.0,0.0,0.0,0.0,0.0,0.0,0.0,0.0,0.0011000000000000003,0.0,0.0
1020,0.01660337489490675,0.011273127435842089,1.9778696951478314,-0.00646554325551482,0.06540197355557076,-0.0005486879714575251,0.9978379014383837,0,-0.03296444699076452,1.000517584344909,0.69506837410754,0.0,0.0,0.718943638483227,0.0,0.0,0.0,0.0,0.0,0.0,0.0,0.0,0.0,0.0,0.0,0.0,0,0.03296444699076452,2.999482415655201,-0.5081740282877708,-0.491285263370229,0.5081740282877708,0.4920946087316996,0.0,0.0,0.0,0.0,0.0,0.0,0.0,0.0,0.0,0.0021000000000000003,0.0,0.0
1030,0.015450354727270547,0.01336108939367396,1.9776179589949099,-0.010098217348281546,0.06446713862261916,0.0014732641512536103,0.9978676483065976,0,-0.0486517071769009,1.0011459595625292,0.6894033086930292,0.0,0.0,0.7243777177433772,0.0,0.0,0.0,0.0,0.0,0.0,0.0,0.0,0.0,0.0,0.0,0.0,0,0.0486517071769009,2.998854040437581,-0.5120180960240669,-0.4872779263150841,0.5120180960240669,0.48809339394612844,0.0,0.0,0.0,0.0,0.0,0.0,0.0,0.0,0.0,0.0030999999999999986,0.0,0.0
1040,0.015176271671928315,0.014838006987466353,1.9788060948926254,-0.011940378451798383,0.0629861037502327,0.002191625939171784,0.9979405668037228,0,-0.06432716894073764,1.00202053720468,0.683695760741286,0.0,0.0,0.7297671592668405,0.0,0.0,0.0,0.0,0.0,0.0,0.0,0.0,0.0,0.0,0.0,0.0,0,0.06432716894073764,2.99797946279543,-0.5158306120872655,-0.48324056213012084,0.5158306120872655,0.4840621017798428,0.0,0.0,0.0,0.0,0.0,0.0,0.0,0.0,0.0,0.004099999999999998,0.0,0.0
1050,0.01529305006218804,0.016219621500265465,1.9807491861429245,-0.013052413577692459,0.06115693371419723,0.0023753112311959315,0.9980399901081264,0,-0.07998696851707054,1.0031411017011471,0.6779460819638777,0.0,0.0,0.7351116309444623,0.0,0.0,0.0,0.0,0.0,0.0,0.0,0.0,0.0,0.0,0.0,0.0,0,0.07998696851707054,2.9968588982989632,-0.5196113415418022,-0.4791734196065362,0.5196113415418021,0.48000098064986874,0.0,0.0,0.0,0.0,0.0,0.0,0.0,0.0,0.0,0.0051,0.0,0.0
1060,0.015452779267048848,0.01771024781895324,1.9830693113111104,-0.01408984983500874,0.05924631276541208,0.0025016553819789435,0.9981408178587227,0,-0.09562724600118867,1.0045073768496613,0.6721546266685653,0.0,0.0,0.7404108034382275,0.0,0.0,0.0,0.0,0.0,0.0,0.0,0.0,0.0,0.0,0.0,0.0,0,0.09562724600118867,2.99549262315045,-0.5233600514108725,-0.4750767493705333,0.5233600514108725,0.47591028081135794,0.0,0.0,0.0,0.0,0.0,0.0,0.0,0.0,0.0,0.006100000000000003,0.0,0.0
1070,0.015645036819444434,0.01925563979918959,1.9856301526929243,-0.015051092246840892,0.057376650610628424,0.0025852636864767257,0.9982357942883807,0,-0.11124414630028272,1.006119025883978,0.6663217517374702,0.0,0.0,0.7456643502015563,0.0,0.0,0.0,0.0,0.0,0.0,0.0,0.0,0.0,0.0,0.0,0.0,0,0.11124414630028272,2.9938809741161325,-0.5270765106907886,-0.4709508038678773,0.5270765106907886,0.4717902543421666,0.0,0.0,0.0,0.0,0.0,0.0,0.0,0.0,0.0,0.007100000000000006,0.0,0.0
1080,0.015880643858455713,0.020848126805373852,1.9883650942046405,-0.015923063303656247,0.055586531593642276,0.002621743975527856,0.9983234546072448,0,-0.12683382008366745,1.0079756515568876,0.6604478166050819,0.0,0.0,0.7508719474994255,0.0,0.0,0.0,0.0,0.0,0.0,0.0,0.0,0.0,0.0,0.0,0.0,0,0.12683382008366745,2.9920243484432234,-0.5307604903652149,-0.46679583734833935,0.5307604903652148,0.46764115512732213,0.0,0.0,0.0,0.0,0.0,0.0,0.0,0.0,0.0,0.008100000000000007,0.0,0.0
1090,0.015810897162968404,0.022605586210493436,1.990840062372427,-0.01710413714151631,0.05366512893574912,0.00251003871551018,0.998409335961258,0,-0.14239242473158353,1.0100767962381272,0.6545331832361095,0.0,0.0,0.7560332744283187,0.0,0.0,0.0,0.0,0.0,0.0,0.0,0.0,0.0,0.0,0.0,0.0,0,0.14239242473158353,2.989923203761984,-0.5344117634192793,-0.4626121058500291,0.5344117634192793,0.463463238843378,0.0,0.0,0.0,0.0,0.0,0.0,0.0,0.0,0.0,0.0091,0.0,0.0
1100,0.014922333309714557,0.024378730833790316,1.9924733473919767,-0.019913557591820036,0.05168256689274358,0.002855514483865723,0.9984609198864254,0,-0.15791612528234564,1.0124219420271832,0.648578216103176,0.0,0.0,0.7611480129360004,0.0,0.0,0.0,0.0,0.0,0.0,0.0,0.0,0.0,0.0,0.0,0.0,0,0.15791612528234564,2.987578057972928,-0.5380301048535638,-0.45839986718361686,0.5380301048535637,0.4592567629426582,0.0,0.0,0.0,0.0,0.0,0.0,0.0,0.0,0.0,0.010099999999999994,0.0,0.0
1110,0.013481183893632905,0.02603047342095939,1.9934199760678404,-0.024312863058161348,0.04971361932916751,0.004157301583931105,0.9984588912852898,0,-0.17340109537760248,1.0150105108809435,0.6425832821643592,0.0,0.0,0.7662158478411155,0.0,0.0,0.0,0.0,0.0,0.0,0.0,0.0,0.0,0.0,0.0,0.0,0,0.17340109537760248,2.9849894891191675,-0.5416152916979681,-0.45415938091644675,0.5416152916979681,0.455021986637393,0.0,0.0,0.0,0.0,0.0,0.0,0.0,0.0,0.0,0.011099999999999988,0.0,0.0
1120,0.01185125411767803,0.027497145289899615,1.9940738390107458,-0.02954195785878196,0.04751667703613792,0.005907624490769358,0.9984160145461356,0,-0.18884351820547682,1.0178418647561778,0.6365487508405787,0.0,0.0,0.7712364668526112,0.0,0.0,0.0,0.0,0.0,0.0,0.0,0.0,0.0,0.0,0.0,0.0,0,0.18884351820547682,2.9821581352439335,-0.5451671030254505,-0.4498909083565421,0.5451671030254506,0.45075917088374506,0.0,0.0,0.0,0.0,0.0,0.0,0.0,0.0,0.0,0.012099999999999982,0.0,0.0
1130,0.010209989931137356,0.02874554429968625,1.9946927882266126,-0.035182453599729,0.04498412958206095,0.0077561261159208635,0.9983378514070882,0,-0.20423958744135182,1.0209153057668046,0.6304749939928315,0.0,0.0,0.7762095605889813,0.0,0.0,0.0,0.0,0.0,0.0,0.0,0.0,0.0,0.0,0.0,0.0,0,0.20423958744135182,2.979084694233307,-0.5486853199656414,-0.44559471253650235,0.5486853199656414,0.4464685783657292,0.0,0.0,0.0,0.0,0.0,0.0,0.0,0.0,0.0,0.013099999999999976,0.0,0.0
1140,0.008659440994594552,0.029754993345044552,1.995450716017554,-0.04101655370075917,0.042028163694593085,0.009477476403907767,0.9982291586704861,0,-0.21958550818607284,1.0242300763559098,0.6243623858992766,0.0,0.0,0.7811348225973304,0.0,0.0,0.0,0.0,0.0,0.0,0.0,0.0,0.0,0.0,0.0,0.0,0,0.21958550818607284,2.975769923644202,-0.5521697257183308,-0.441271058197295,0.5521697257183308,0.44215047347902514,0.0,0.0,0.0,0.0,0.0,0.0,0.0,0.0,0.0,0.01409999999999997,0.0,0.0
1150,0.0072808357636752405,0.030495350687801848,1.9964914065623505,-0.04693657740542345,0.03853131685878668,0.010899364565619449,0.9980949349509084,0,-0.23487749790133305,1.027785359482474,0.6182113032321722,0.0,0.0,0.7860119493722594,0.0,0.0,0.0,0.0,0.0,0.0,0.0,0.0,0.0,0.0,0.0,0.0,0,0.23487749790133305,2.9722146405176377,-0.5556201055668278,-0.4369202117719414,0.5556201055668278,0.43780512231468494,0.0,0.0,0.0,0.0,0.0,0.0,0.0,0.0,0.0,0.015099999999999964,0.0,0.0
1160,0.006171313837931196,0.030902215281608438,1.9979791420958488,-0.05289900630606033,0.03429667901842568,0.011832965497572059,0.9979405863415275,0,-0.25011178734201195,1.0315802788227602,0.6120221250346636,0.0,0.0,0.7908406403745666,0.0,0.0,0.0,0.0,0.0,0.0,0.0,0.0,0.0,0.0,0.0,0.0,0,0.25011178734201195,2.968419721177352,-0.559036246891192,-0.4325424413690984,0.559036246891192,0.43343279264273554,0.0,0.0,0.0,0.0,0.0,0.0,0.0,0.0,0.0,0.016099999999999958,0.0,0.0
1170,0.005995764605803892,0.03026420005660914,2.000703134865666,-0.05892514719166124,0.028274183420800493,0.011133225213392961,0.9977998040071344,0,-0.26528462148523746,1.035613898986314,0.6057952326974255,0.0,0.0,0.795620598049769,0.0,0.0,0.0,0.0,0.0,0.0,0.0,0.0,0.0,0.0,0.0,0.0,0,0.26528462148523746,2.964386101013798,-0.5624179391813358,-0.42813801675653756,0.5624179391813358,0.42903375389567866,0.0,0.0,0.0,0.0,0.0,0.0,0.0,0.0,0.0,0.017099999999999952,0.0,0.0
1180,0.007719618614303549,0.0277467372718599,2.0059825677798093,-0.06601471995723777,0.018169330869040174,0.006838922146135395,0.9976297716631245,0,-0.2803922604559428,1.0398852257465236,0.5995310099351607,0.0,0.0,0.8003515278464373,0.0,0.0,0.0,0.0,0.0,0.0,0.0,0.0,0.0,0.0,0.0,0.0,0,0.2803922604559428,2.9601147742535883,-0.5657649740499958,-0.4237072093445206,0.5657649740499958,0.4246082771518872,0.0,0.0,0.0,0.0,0.0,0.0,0.0,0.0,0.0,0.018099999999999946,0.0,0.0
1190,0.009024029629687152,0.02602190351188401,2.011249857814379,-0.07357947922519524,0.00754342018897555,0.0032774108663155455,0.9972554415127626,0,-0.295430980448689,1.0443932062856824,0.5932298427629539,0.0,0.0,0.8050331382343469,0.0,0.0,0.0,0.0,0.0,0.0,0.0,0.0,0.0,0.0,0.0,0.0,0,0.295430980448689,2.9556067937144297,-0.5690771452455753,-0.41925029216907533,0.5690771452455753,0.4201566351189016,0.0,0.0,0.0,0.0,0.0,0.0,0.0,0.0,0.0,0.01909999999999994,0.0,0.0
1200,0.009447964866957249,0.025354132986033163,2.0140264414412585,-0.08085930581622673,0.0012940458357938672,0.0018447937516343298,0.9967229779855117,0,-0.3103970746455272,1.049136729454491,0.5868921194724853,0.0,0.0,0.8096651407224433,0.0,0.0,0.0,0.0,0.0,0.0,0.0,0.0,0.0,0.0,0.0,0.0,0,0.3103970746455272,2.9508632705456206,-0.5723542486648527,-0.41476753987516995,0.5723542486648527,0.4156791021166243,0.0,0.0,0.0,0.0,0.0,0.0,0.0,0.0,0.0,0.020099999999999934,0.0,0.0
1210,0.008987413237863253,0.02581655823795547,2.0134262688843756,-0.08800073806382426,0.0007577466612495795,0.0025792928751803227,0.9961167818928078,0,-0.32528685412967306,1.0541146260459409,0.5805182306081029,0.0,0.0,0.8142472498766191,0.0,0.0,0.0,0.0,0.0,0.0,0.0,0.0,0.0,0.0,0.0,0.0,0,0.32528685412967306,2.9458853739541717,-0.5755960823655599,-0.4102592286997893,0.5755960823655599,0.41117595406041607,0.0,0.0,0.0,0.0,0.0,0.0,0.0,0.0,0.0,0.021099999999999928,0.0,0.0
1220,0.008423962380735329,0.026302971669522116,2.01259057432951,-0.09500401479999326,0.0007836912747841868,0.003511285904598586,0.9954703882442535,0,-0.3400966487947697,1.0593256690835038,0.5741085689427562,0.0,0.0,0.8187791833373029,0.0,0.0,0.0,0.0,0.0,0.0,0.0,0.0,0.0,0.0,0.0,0.0,0,0.3400966487947697,2.9406743309166083,-0.5788024465788251,-0.405725636454912,0.5788024465788251,0.4066474684440925,0.0,0.0,0.0,0.0,0.0,0.0,0.0,0.0,0.0,0.022099999999999922,0.0,0.0
1230,0.007941500923654598,0.026721372287585463,2.0118371560601664,-0.10211606606601634,0.0008367919273116291,0.0043039564902881446,0.9947628284113762,0,-0.35482280824951296,1.064768574123566,0.5676635294537928,0.0,0.0,0.823260661836859,0.0,0.0,0.0,0.0,0.0,0.0,0.0,0.0,0.0,0.0,0.0,0.0,0,0.35482280824951296,2.935231425876546,-0.5819731437214845,-0.40116704251039165,0.5819731437214845,0.402093924322826,0.0,0.0,0.0,0.0,0.0,0.0,0.0,0.0,0.0,0.023099999999999916,0.0,0.0
1240,0.007421366788648906,0.02732543944527087,2.010879407505364,-0.10894531250158605,0.0008509635576846357,0.00499519817899426,0.9940348297419501,0,-0.3694617027174184,1.0704419995720218,0.5611835092986193,0.0,0.0,0.8276914092167966,0.0,0.0,0.0,0.0,0.0,0.0,0.0,0.0,0.0,0.0,0.0,0.0,0,0.3694617027174184,2.92955800042809,-0.5851079784082566,-0.396583727776741,0.5851079784082565,0.39751560229594796,0.0,0.0,0.0,0.0,0.0,0.0,0.0,0.0,0.0,0.02409999999999991,0.0,0.0
1250,0.006993102719863899,0.027643622648695028,2.010120170366377,-0.1161657224146143,0.000916370749502694,0.005642815111097532,0.9932133929011239,0,-0.3840097239315064,1.0763445470149575,0.5546689077902269,0.0,0.0,0.8320711524447875,0.0,0.0,0.0,0.0,0.0,0.0,0.0,0.0,0.0,0.0,0.0,0.0,0,0.3840097239315064,2.923655452985155,-0.588206757463783,-0.3919759746878218,0.5882067574637829,0.3929127844896587,0.0,0.0,0.0,0.0,0.0,0.0,0.0,0.0,0.0,0.025099999999999904,0.0,0.0
1260,0.006645197746548682,0.02792914578921227,2.009429346380143,-0.12349478482695508,0.0009700521659079741,0.006176038347013545,0.9923255280751754,0,-0.3984632860236856,1.0824747615633383,0.5481201263725858,0.0,0.0,0.8363996216314906,0.0,0.0,0.0,0.0,0.0,0.0,0.0,0.0,0.0,0.0,0.0,0.0,0,0.3984632860236856,2.917525238436774,-0.5912692899345319,-0.3873440671834407,0.591269289934532,0.3882857545396421,0.0,0.0,0.0,0.0,0.0,0.0,0.0,0.0,0.0,0.026099999999999898,0.0,0.0
1270,0.0063554884146895235,0.02817197022242637,2.0087848239151667,-0.13089326126546125,0.00101362205384713,0.006621938433300983,0.9913738329495132,0,-0.412818826408615,1.0888311322116184,0.5415375685959064,0.0,0.0,0.8406765500471831,0.0,0.0,0.0,0.0,0.0,0.0,0.0,0.0,0.0,0.0,0.0,0.0,0,0.412818826408615,2.9111688677884935,-0.5942953871005653,-0.38268829069185223,0.5942953871005653,0.383634797573587,0.0,0.0,0.0,0.0,0.0,0.0,0.0,0.0,0.0,0.02709999999999989,0.0,0.0
1280,0.0061143457365714264,0.028377810416405993,2.0081764941301743,-0.13835233362742452,0.0010514940936729232,0.006994624901038263,0.9903578148136716,0,-0.4270728066618285,1.0954120922101793,0.5349216400917723,0.0,0.0,0.8449016741381972,0.0,0.0,0.0,0.0,0.0,0.0,0.0,0.0,0.0,0.0,0.0,0.0,0,0.4270728066618285,2.904587907789933,-0.5972848624871681,-0.3780089321121699,0.5972848624871682,0.37896020019361715,0.0,0.0,0.0,0.0,0.0,0.0,0.0,0.0,0.0,0.028099999999999885,0.0,0.0
1290,0.0059136535764010715,0.028552330643155325,2.0075971400216925,-0.14586113869450032,0.0010864775460537738,0.007305993839702941,0.9892774991069492,0,-0.4412217133919022,1.1022160194515107,0.5282727485481444,0.0,0.0,0.8490747335431604,0.0,0.0,0.0,0.0,0.0,0.0,0.0,0.0,0.0,0.0,0.0,0.0,0,0.4412217133919022,2.8977839805486014,-0.6002375318763393,-0.373306279796687,0.6002375318763393,0.37426225045863043,0.0,0.0,0.0,0.0,0.0,0.0,0.0,0.0,0.0,0.02909999999999988,0.0,0.0
1300,0.005746727758651644,0.028700433469118564,2.007041431675523,-0.1534093773951208,0.0011202663810363526,0.0075659078922830445,0.9881331210764278,0,-0.4552620591064532,1.1092412368700355,0.5215913036842377,0.0,0.0,0.8531954711090404,0.0,0.0,0.0,0.0,0.0,0.0,0.0,0.0,0.0,0.0,0.0,0.0,0,0.4552620591064532,2.890758763130077,-0.603153213318144,-0.36858062353310783,0.603153213318144,0.3695412378665478,0.0,0.0,0.0,0.0,0.0,0.0,0.0,0.0,0.0,0.030099999999999873,0.0,0.0
1310,0.005608103243761294,0.02882614290822742,2.006505320704773,-0.1609881044962722,0.0011538282172518228,0.007782491265432873,0.9869249878895792,0,-0.4691903830717534,1.1164860128554819,0.5148777172252739,0.0,0.0,0.8572636329069903,0.0,0.0,0.0,0.0,0.0,0.0,0.0,0.0,0.0,0.0,0.0,0.0,0,0.4691903830717534,2.8835139871446303,-0.606031727141925,-0.36383225452669,0.606031727141925,0.36479745333647373,0.0,0.0,0.0,0.0,0.0,0.0,0.0,0.0,0.0,0.031099999999999867,0.0,0.0
1320,0.005493313055642707,0.028932691268230053,2.0059856630544157,-0.16858981612508364,0.0011876760244781128,0.00796242614920785,0.9856534193591527,0,-0.4830032521657489,1.1239485616796976,0.5081324028771103,0.0,0.0,0.861278968247997,0.0,0.0,0.0,0.0,0.0,0.0,0.0,0.0,0.0,0.0,0.0,0.0,0,0.4830032521657489,2.8760514383204145,-0.608872895967375,-0.3590614653823001,0.608872895967375,0.36003118919076926,0.0,0.0,0.0,0.0,0.0,0.0,0.0,0.0,0.0,0.03209999999999989,0.0,0.0
1330,0.005398698151345637,0.029022656306542993,2.005479976600192,-0.17620829811810315,0.0012220458787360563,0.00811121113172267,0.9843187240585076,0,-0.496697261724272,1.1316270439368066,0.5013557763007456,0.0,0.0,0.8652412296983292,0.0,0.0,0.0,0.0,0.0,0.0,0.0,0.0,0.0,0.0,0.0,0.0,0,0.496697261724272,2.8683729560633053,-0.6116765447154673,-0.3542685500863826,0.6116765447154673,0.35524273913703885,0.0,0.0,0.0,0.0,0.0,0.0,0.0,0.0,0.0,0.03309999999999992,0.0,0.0
1340,0.0053212546282873,0.02909809379511399,2.004986280141607,-0.18383841825486374,0.0012570090887296724,0.008233373939695069,0.9829211908669331,0,-0.5102690363802405,1.1395195669965936,0.49454825508670675,0.0,0.0,0.8691501730947844,0.0,0.0,0.0,0.0,0.0,0.0,0.0,0.0,0.0,0.0,0.0,0.0,0,0.5102690363802405,2.8604804330035183,-0.614442500619244,-0.3494538039888433,0.6144425006192441,0.35043239825003014,0.0,0.0,0.0,0.0,0.0,0.0,0.0,0.0,0.0,0.03409999999999995,0.0,0.0
1350,0.005258513739393619,0.029160649659233425,2.0045029825809872,-0.19147592842500247,0.0012925414451170308,0.008332642690290404,0.9814610869699277,0,-0.523715230895634,1.1476241854710105,0.4877102587293155,0.0,0.0,0.8730055575597352,0.0,0.0,0.0,0.0,0.0,0.0,0.0,0.0,0.0,0.0,0.0,0.0,0,0.523715230895634,2.8523758145291023,-0.6171705932344629,-0.3446175237848502,0.6171705932344629,0.3456004629534524,0.0,0.0,0.0,0.0,0.0,0.0,0.0,0.0,0.0,0.03509999999999998,0.0,0.0
1360,0.00520844789096684,0.02921165018481201,2.0040288037535894,-0.1991172958859192,0.0013285654561623476,0.00841208298456854,0.9799386584132543,0,-0.5370325309860455,1.1559389016936832,0.4808422086008386,0.0,0.0,0.8768071455159725,0.0,0.0,0.0,0.0,0.0,0.0,0.0,0.0,0.0,0.0,0.0,0.0,0,0.5370325309860455,2.8440610983064296,-0.6198606544500999,-0.33976000749654983,0.6198606544500999,0.3407472310017094,0.0,0.0,0.0,0.0,0.0,0.0,0.0,0.0,0.0,0.03610000000000001,0.0,0.0
1370,0.005169396434157693,0.02925217325338347,2.0035627157551796,-0.20675956528883008,0.0013649758816885532,0.00847420797790794,0.9783541315911962,0,-0.5502176541376023,1.1644616662123084,0.473944527925522,0.0,0.0,0.8805547027013451,0.0,0.0,0.0,0.0,0.0,0.0,0.0,0.0,0.0,0.0,0.0,0.0,0,0.5502176541376023,2.8355383337878037,-0.6225125184987089,-0.33488155445470236,0.622512518498709,0.33587300146155136,0.0,0.0,0.0,0.0,0.0,0.0,0.0,0.0,0.0,0.037100000000000036,0.0,0.0
1380,0.005140006384565711,0.029283104353078855,2.003103897949379,-0.21440024756687148,0.0014016550235721591,0.008521067368658404,0.9767077150393345,0,-0.5632673504160556,1.1731903782938111,0.4670176417535102,0.0,0.0,0.8842479981831963,0.0,0.0,0.0,0.0,0.0,0.0,0.0,0.0,0.0,0.0,0.0,0.0,0,0.5632673504160556,2.8268096217063,-0.6251260219666372,-0.32998246528023667,0.6251260219666371,0.33097807469364565,0.0,0.0,0.0,0.0,0.0,0.0,0.0,0.0,0.0,0.038100000000000064,0.0,0.0
1390,0.005119184447068856,0.029305180709215554,2.002651701403276,-0.2220372307063338,0.0014384817426049566,0.00855431996137425,0.9749996013130143,0,-0.5761784032678419,1.1821228864421447,0.4600619769346543,0.0,0.0,0.8878868043725944,0.0,0.0,0.0,0.0,0.0,0.0,0.0,0.0,0.0,0.0,0.0,0.0,0,0.5761784032678419,2.8178771135579663,-0.6277010038040939,-0.32506304186572516,0.6277010038040939,0.3260627523340681,0.0,0.0,0.0,0.0,0.0,0.0,0.0,0.0,0.0,0.03910000000000009,0.0,0.0
1400,0.005106057695118894,0.02931902620699,2.002205620034771,-0.22966870787605534,0.0014753366246904333,0.008575293370049706,0.9732299688912197,0,-0.5889476303129126,1.191256988928601,0.4530779620922084,0.0,0.0,0.8914708970383561,0.0,0.0,0.0,0.0,0.0,0.0,0.0,0.0,0.0,0.0,0.0,0.0,0,0.5889476303129126,2.8087430110715106,-0.6302373053350757,-0.3201235873567804,0.6302373053350757,0.3211273372757153,0.0,0.0,0.0,0.0,0.0,0.0,0.0,0.0,0.0,0.04010000000000012,0.0,0.0
1410,0.005099940898162761,0.029325179155273676,2.001765266636905,-0.2372931191765776,0.0015121048006024387,0.008585033650272453,0.9713989841088708,0,-0.6015718841291452,1.2005904343345053,0.4460660275964172,0.0,0.0,0.8950000553208656,0.0,0.0,0.0,0.0,0.0,0.0,0.0,0.0,0.0,0.0,0.0,0.0,0,0.6015718841291452,2.7994095656656057,-0.6327347702671442,-0.31516440613337493,0.6327347702671442,0.3161721336496401,0.0,0.0,0.0,0.0,0.0,0.0,0.0,0.0,0.0,0.04110000000000015,0.0,0.0
1420,0.005100309385719773,0.02932411441933441,2.001330352828603,-0.24490910432431007,0.001548677199561137,0.00858434657493592,0.969506803076635,0,-0.614048053028134,1.2101209221061553,0.4390266055379953,0.0,0.0,0.8984740617456831,0.0,0.0,0.0,0.0,0.0,0.0,0.0,0.0,0.0,0.0,0.0,0.0,0,0.614048053028134,2.7898790778939566,-0.6351932447010568,-0.3101858037910842,0.6351932447010569,0.3111974468063096,0.0,0.0,0.0,0.0,0.0,0.0,0.0,0.0,0.0,0.04210000000000018,0.0,0.0
1430,0.005106775743330803,0.02931626112365573,2.000900671591649,-0.25251546363991184,0.0015849510811211153,0.00857383282453089,0.9675535736813171,0,-0.6263730618221744,1.2198461031218732,0.4319601297015007,0.0,0.0,0.9018927022369472,0.0,0.0,0.0,0.0,0.0,0.0,0.0,0.0,0.0,0.0,0.0,0.0,0,0.6263730618221744,2.7801538968782387,-0.6376125771402508,-0.30518808712225576,0.6376125771402508,0.3062035832967898,0.0,0.0,0.0,0.0,0.0,0.0,0.0,0.0,0.0,0.04310000000000021,0.0,0.0
1440,0.005119070101021146,0.029302016761248648,2.0004760822719985,-0.2601111259809204,0.0016208299018006707,0.008553917730807048,0.9655394375906257,0,-0.6385438725822516,1.22976358027103,0.4248670355386048,0.0,0.0,0.905255766130566,0.0,0.0,0.0,0.0,0.0,0.0,0.0,0.0,0.0,0.0,0.0,0.0,0,0.6385438725822516,2.770236419729082,-0.6399926185001784,-0.30017156409710355,0.6399926185001784,0.30119085085385455,0.0,0.0,0.0,0.0,0.0,0.0,0.0,0.0,0.0,0.044100000000000236,0.0,0.0
1450,0.005137023160853698,0.029281758407111728,2.0000564974214345,-0.26769512217442687,0.0016562228901358684,0.008524876748290264,0.9634645322824205,0,-0.6505574853868429,1.2398709090448965,0.41774776014125786,0.0,0.0,0.908563046187199,0.0,0.0,0.0,0.0,0.0,0.0,0.0,0.0,0.0,0.0,0.0,0.0,0,0.6505574853868429,2.7601290909552154,-0.6423332221174942,-0.2951365438447301,0.6423332221174942,0.2961595583730225,0.0,0.0,0.0,0.0,0.0,0.0,0.0,0.0,0.0,0.045100000000000265,0.0,0.0
1460,0.005160551463693741,0.029255851553379654,1.9996418711570443,-0.27526656290463664,0.001691044454675949,0.008486857434549197,0.9613289930956028,0,-0.6624109390613535,1.2501655981391766,0.41060274221475523,0.0,0.0,0.9118143386050273,0.0,0.0,0.0,0.0,0.0,0.0,0.0,0.0,0.0,0.0,0.0,0.0,0,0.6624109390613535,2.7498344018609355,-0.6446342437590924,-0.2900833366340776,0.6446342437590923,0.29111001589352226,0.0,0.0,0.0,0.0,0.0,0.0,0.0,0.0,0.0,0.046100000000000294,0.0,0.0
1470,0.005189644527012564,0.029224656973164478,1.9992321888136788,-0.28282462026565186,0.0017252135090156978,0.008439898522116624,0.959132955289763,0,-0.6741013119080024,1.2606451100680784,0.4034324220507032,0.0,0.0,0.9150094430323128,0.0,0.0,0.0,0.0,0.0,0.0,0.0,0.0,0.0,0.0,0.0,0.0,0,0.6741013119080024,2.7393548899320344,-0.6468955416309948,-0.28501225385480855,0.6468955416309949,0.2860425345791878,0.0,0.0,0.0,0.0,0.0,0.0,0.0,0.0,0.0,0.04710000000000032,0.0,0.0
1480,0.005224353543762376,0.029188535936852555,1.998827457705142,-0.29036851234300237,0.001758652772443683,0.008383946566814618,0.9568765561032951,0,-0.6856257224259756,1.2713068617897652,0.39623724149988704,0.0,0.0,0.9181481625797442,0.0,0.0,0.0,0.0,0.0,0.0,0.0,0.0,0.0,0.0,0.0,0.0,0,0.6856257224259756,2.728693138210348,-0.6491169763870893,-0.27992360799811666,0.6491169763870893,0.2809574266992826,0.0,0.0,0.0,0.0,0.0,0.0,0.0,0.0,0.0,0.04810000000000035,0.0,0.0
1490,0.0052647813931043595,0.02914785404099161,1.998427698852104,-0.297897490316494,0.0017912880828558704,0.008318870563968439,0.9545599367995068,0,-0.6969813300216734,1.2821482253430359,0.38901764394504323,0.0,0.0,0.9212303038325691,0.0,0.0,0.0,0.0,0.0,0.0,0.0,0.0,0.0,0.0,0.0,0.0,0,0.6969813300216734,2.7178517746570776,-0.6512984111377154,-0.2748177126374709,0.6512984111377154,0.2758550056092577,0.0,0.0,0.0,0.0,0.0,0.0,0.0,0.0,0.0,0.04910000000000038,0.0,0.0
1500,0.0053110737606179865,0.02910298386147779,1.9980329395658512,-0.305410827676214,0.001823047744142803,0.008244474851702729,0.9521832446905754,0,-0.7081653357088739,1.2931665284950788,0.38177407427353766,0.0,0.0,0.9242556768625138,0.0,0.0,0.0,0.0,0.0,0.0,0.0,0.0,0.0,0.0,0.0,0.0,0,0.7081653357088739,2.706833471505034,-0.6534397114581003,-0.2696948824092925,0.6534397114581003,0.2707355857314423,0.0,0.0,0.0,0.0,0.0,0.0,0.0,0.0,0.0,0.05010000000000041,0.0,0.0
1510,0.0053638209164440075,0.029054349829267273,1.9976434400777654,-0.3129080433709007,0.0018538520053906357,0.008159967694157838,0.9497465633282212,0,-0.7191749827986404,1.304359055400137,0.37450697884995016,0.0,0.0,0.9272240952394858,0.0,0.0,0.0,0.0,0.0,0.0,0.0,0.0,0.0,0.0,0.0,0.0,0,0.7191749827986404,2.6956409445999756,-0.6555407453966429,-0.26455543299356615,0.655540745396643,0.26559948253566773,0.0,0.0,0.0,0.0,0.0,0.0,0.0,0.0,0.0,0.05110000000000044,0.0,0.0
1520,0.005422786724660605,0.02900232723622883,1.9972589635614801,-0.3203881589246723,0.0018836558373213593,0.008065614888079657,0.9472501387268426,0,-0.7300075575788048,1.3157230472689219,0.3672168054885689,0.0,0.0,0.9301353760430632,0.0,0.0,0.0,0.0,0.0,0.0,0.0,0.0,0.0,0.0,0.0,0.0,0,0.7300075575788048,2.68427695273119,-0.657601383483044,-0.259399681094387,0.657601383483044,0.2604470125198279,0.0,0.0,0.0,0.0,0.0,0.0,0.0,0.0,0.0,0.052100000000000465,0.0,0.0
1530,0.005488213249214084,0.02894730178043333,1.9968795279917342,-0.3278504768074109,0.0019123804684660572,0.00796109066061621,0.9446941455802458,0,-0.7406603899828549,1.3272557030486143,0.35990400342579487,0.0,0.0,0.9329893398737659,0.0,0.0,0.0,0.0,0.0,0.0,0.0,0.0,0.0,0.0,0.0,0.0,0,0.7406603899828549,2.6727442969514974,-0.6596214987362853,-0.25422794442044505,0.6596214987362853,0.2552784931903759,0.0,0.0,0.0,0.0,0.0,0.0,0.0,0.0,0.0,0.053100000000000494,0.0,0.0
1540,0.005560353499116762,0.02888967980162493,1.9965051285991473,-0.3352942908124279,0.0019399558766767806,0.007846041312584488,0.9420787731158732,0,-0.751130854248068,1.338954180113282,0.35256902329245915,0.0,0.0,0.935785810864111,0.0,0.0,0.0,0.0,0.0,0.0,0.0,0.0,0.0,0.0,0.0,0.0,0,0.751130854248068,2.66104581988683,-0.6616009666724538,-0.2490405416654469,0.6616009666724538,0.25009424304275857,0.0,0.0,0.0,0.0,0.0,0.0,0.0,0.0,0.0,0.05410000000000052,0.0,0.0
1550,0.0056394666535262115,0.02882987669843724,1.996135738733123,-0.34271888151057334,0.001966313626259182,0.007720096136736057,0.9394042271474535,0,-0.7614163695627199,1.3508155949645433,0.34521231708605377,0.0,0.0,0.9385246166894494,0.0,0.0,0.0,0.0,0.0,0.0,0.0,0.0,0.0,0.0,0.0,0.0,0,0.7614163695627199,2.649184405035569,-0.6635396653124129,-0.2438377924884773,0.663539665312413,0.24489458154178997,0.0,0.0,0.0,0.0,0.0,0.0,0.0,0.0,0.0,0.05510000000000055,0.0,0.0
1560,0.005725815196374975,0.028768314632549787,1.9957713069969871,-0.3501235149502176,0.0019913855800024285,0.0075828738261316635,0.9366707312000911,0,-0.7715144007022169,1.3628370239423067,0.3378343381428791,0.0,0.0,0.9412055885785863,0.0,0.0,0.0,0.0,0.0,0.0,0.0,0.0,0.0,0.0,0.0,0.0,0,0.7715144007022169,2.6371629760578057,-0.6654374751893193,-0.23862001749430092,0.6654374751893194,0.23967982910196584,0.0,0.0,0.0,0.0,0.0,0.0,0.0,0.0,0.0,0.05610000000000058,0.0,0.0
1570,0.005819661301402968,0.02870542023143901,1.9954117544044516,-0.3575074409127239,0.00201510321546055,0.007433988690916238,0.9338785278949343,0,-0.7814224586539906,1.3750155039454084,0.33043554111010764,0.0,0.0,0.9438285613241795,0.0,0.0,0.0,0.0,0.0,0.0,0.0,0.0,0.0,0.0,0.0,0.0,0,0.7814224586539906,2.624984496054704,-0.6672942793559844,-0.23338753821360642,0.6672942793559845,0.23445030706771797,0.0,0.0,0.0,0.0,0.0,0.0,0.0,0.0,0.0,0.05710000000000061,0.0,0.0
1580,0.005921262998198637,0.028641622030437595,1.995056971871929,-0.364869891370928,0.002037397064287994,0.007273056567809195,0.9310278803732631,0,-0.7911381012310015,1.3873480331619736,0.32301638191776855,0.0,0.0,0.9463933732929212,0.0,0.0,0.0,0.0,0.0,0.0,0.0,0.0,0.0,0.0,0.0,0.0,0,0.7911381012310015,2.6126519668381394,-0.6691099633920811,-0.22814067708319238,0.6691099633920811,0.2292063376936131,0.0,0.0,0.0,0.0,0.0,0.0,0.0,0.0,0.0,0.05810000000000064,0.0,0.0
1590,0.006030870331801654,0.028577346109701113,1.9947068203512015,-0.37221008317172577,0.002058193214875068,0.007099700171723975,0.9281190721472428,0,-0.8006589336737019,1.3998315718093155,0.3155773177506511,0.0,0.0,0.9488998664354973,0.0,0.0,0.0,0.0,0.0,0.0,0.0,0.0,0.0,0.0,0.0,0.0,0,0.8006589336737019,2.600168428190797,-0.6708844154111941,-0.22287975742609836,0.6708844154111941,0.22394824412449474,0.0,0.0,0.0,0.0,0.0,0.0,0.0,0.0,0.0,0.059100000000000666,0.0,0.0
1600,0.006887592333604563,0.028605368075830303,1.9940720517233421,-0.37901990306407035,0.002259502456187692,0.007314526204099721,0.9253568530228555,0,-0.8099826092403073,1.4124630428831986,0.3081188070201331,0.0,0.0,0.9513478862963275,0.0,0.0,0.0,0.0,0.0,0.0,0.0,0.0,0.0,0.0,0.0,0.0,0,0.8099826092403073,2.5875369571169142,-0.6726175260677157,-0.2176051034316813,0.6726175260677157,0.2186763503755697,0.0,0.0,0.0,0.0,0.0,0.0,0.0,0.0,0.0,0.060100000000000695,0.0,0.0
1610,0.007380229724295406,0.028566759447060285,1.9935461352653299,-0.3860097474975848,0.002384852094604271,0.007430170435925709,0.9224616956191898,0,-0.8191068297852341,1.4252393329162714,0.30064130933593175,0.0,0.0,0.9537372820230824,0.0,0.0,0.0,0.0,0.0,0.0,0.0,0.0,0.0,0.0,0.0,0.0,0,0.8191068297852341,2.574760667083842,-0.6743091885635828,-0.21231704013563782,0.6743091885635828,0.21339098131244252,0.0,0.0,0.0,0.0,0.0,0.0,0.0,0.0,0.0,0.06110000000000072,0.0,0.0
1620,0.007356328638723359,0.0284511271536328,1.993236383131625,-0.393353446409441,0.0023755048961457866,0.007254483647090855,0.9193556415453802,0,-0.8280293463255562,1.438157292745491,0.2931452854777819,0.0,0.0,0.95606790637598,0.0,0.0,0.0,0.0,0.0,0.0,0.0,0.0,0.0,0.0,0.0,0.0,0,0.8280293463255562,2.5618427072546224,-0.6759592986548585,-0.20701589339997492,0.6759592986548586,0.20809246263109557,0.0,0.0,0.0,0.0,0.0,0.0,0.0,0.0,0.0,0.06210000000000075,0.0,0.0
1630,0.006922978053959759,0.028311909334096393,1.9930957708384411,-0.4009679233012449,0.002249584897133466,0.006770431753720567,0.9160643127560126,0,-0.8367479595953475,1.451213738288344,0.2856311973670417,0.0,0.0,0.9583396157368588,0.0,0.0,0.0,0.0,0.0,0.0,0.0,0.0,0.0,0.0,0.0,0.0,0,0.8367479595953475,2.5487862617117703,-0.677567754658156,-0.20170198989292995,0.677567754658156,0.20278112083781974,0.0,0.0,0.0,0.0,0.0,0.0,0.0,0.0,0.0,0.06310000000000078,0.0,0.0
1640,0.00679217556468198,0.02821715535400566,1.9928550361122876,-0.40835269196813806,0.0021976000287990383,0.0064135058240666655,0.912799055904164,0,-0.8452605205877656,1.4644054513276736,0.27809950803822797,0.0,0.0,0.9605522701180274,0.0,0.0,0.0,0.0,0.0,0.0,0.0,0.0,0.0,0.0,0.0,0.0,0,0.8452605205877656,2.5355945486724405,-0.6791344574569042,-0.19637565706883992,0.6791344574569042,0.1974572832290937,0.0,0.0,0.0,0.0,0.0,0.0,0.0,0.0,0.0,0.06410000000000081,0.0,0.0
1650,0.006816152656029658,0.028142801974689692,1.9925714050681396,-0.415620896013535,0.00217761254566648,0.006104006742404619,0.9095148541404896,0,-0.8535649310847513,1.4777291803049235,0.27055068161048296,0.0,0.0,0.9627057331708913,0.0,0.0,0.0,0.0,0.0,0.0,0.0,0.0,0.0,0.0,0.0,0.0,0,0.8535649310847513,2.5222708196951906,-0.6806593105074555,-0.1910372231479638,0.6806593105074555,0.19212127787141575,0.0,0.0,0.0,0.0,0.0,0.0,0.0,0.0,0.0,0.06510000000000084,0.0,0.0
1660,0.006920691192844793,0.028078662455148222,1.9922690592469616,-0.4228202822060481,0.002171480250152328,0.005808509011440742,0.9061923387734996,0,-0.8616591441742072,1.4911816411215972,0.2629851832589744,0.0,0.0,0.9647998721943549,0.0,0.0,0.0,0.0,0.0,0.0,0.0,0.0,0.0,0.0,0.0,0.0,0,0.8616591441742072,2.508818358878517,-0.6821422198450355,-0.1856870170962568,0.6821422198450355,0.18677343358108786,0.0,0.0,0.0,0.0,0.0,0.0,0.0,0.0,0.0,0.06610000000000087,0.0,0.0
1670,0.007069172867579197,0.028020485450200448,1.9919587321672694,-0.42997165502478263,0.0021708660760204413,0.005511970367532842,0.9028229513024116,0,-0.8695411647545304,1.5047595179487385,0.2554034791862306,0.0,0.0,0.9668345581429993,0.0,0.0,0.0,0.0,0.0,0.0,0.0,0.0,0.0,0.0,0.0,0.0,0,0.8695411647545304,2.4952404820513756,-0.6835830940895329,-0.18032536860509824,0.6835830940895327,0.1814140799039523,0.0,0.0,0.0,0.0,0.0,0.0,0.0,0.0,0.0,0.0671000000000009,0.0,0.0
1680,0.007243703011511813,0.027966579149430373,1.9916452238621438,-0.4370840390307812,0.002171773134825422,0.005207343096480302,0.8994029740910716,0,-0.8772090500263748,1.518459464044234,0.2478060365934114,0.0,0.0,0.9688096656350332,0.0,0.0,0.0,0.0,0.0,0.0,0.0,0.0,0.0,0.0,0.0,0.0,0,0.8772090500263748,2.48154053595588,-0.6849818444511301,-0.17495260807097565,0.6849818444511301,0.17604354709508527,0.0,0.0,0.0,0.0,0.0,0.0,0.0,0.0,0.0,0.06810000000000092,0.0,0.0
1690,0.007435563839258205,0.027916344725055966,1.9913305716393237,-0.4441611177210373,0.0021722213123574084,0.004891272534902661,0.8959309451137171,0,-0.8846609099715234,1.5322781025777348,0.2401933236515187,0.0,0.0,0.9707250729600204,0.0,0.0,0.0,0.0,0.0,0.0,0.0,0.0,0.0,0.0,0.0,0.0,0,0.8846609099715234,2.4677218974223796,-0.6863383847357759,-0.1695690665751248,0.6863383847357759,0.17066216609844506,0.0,0.0,0.0,0.0,0.0,0.0,0.0,0.0,0.0,0.06910000000000095,0.0,0.0
1700,0.00764048996552705,0.027869636048904425,1.991015486199004,-0.4512041052910802,0.0021711923734166324,0.0045621742298587184,0.8924064812956313,0,-0.8918949078187473,1.5462120274629931,0.23256580947254685,0.0,0.0,0.9725806620863788,0.0,0.0,0.0,0.0,0.0,0.0,0.0,0.0,0.0,0.0,0.0,0.0,0,0.8918949078187473,2.453787972537122,-0.6876526313504958,-0.16417507586312802,0.6876526313504958,0.16527026852647958,0.0,0.0,0.0,0.0,0.0,0.0,0.0,0.0,0.0,0.07010000000000098,0.0,0.0
1710,0.007856361500076974,0.02782648379408244,1.9907000317712245,-0.458213064662639,0.002168130681988803,0.0042193290753021985,0.8888297271378655,0,-0.8989092604965434,1.5602578041974122,0.22492396408057486,0.0,0.0,0.974376318668655,0.0,0.0,0.0,0.0,0.0,0.0,0.0,0.0,0.0,0.0,0.0,0.0,0,0.8989092604965434,2.439742195802703,-0.6889245033085436,-0.15877096832447107,0.6889245033085436,0.15986818663969055,0.0,0.0,0.0,0.0,0.0,0.0,0.0,0.0,0.0,0.07110000000000101,0.0,0.0
1720,0.008082094240992682,0.027786983457567044,1.9903839595220556,-0.4651875230480233,0.00216269998971014,0.003862433291831904,0.8852010916951387,0,-0.9057022390726344,1.5744119707086002,0.21726825838280203,0.0,0.0,0.9761119320545693,0.0,0.0,0.0,0.0,0.0,0.0,0.0,0.0,0.0,0.0,0.0,0.0,0,0.9057022390726344,2.4255880292915153,-0.6901539222343922,-0.15335707697206064,0.6901539222343922,0.15445625332615964,0.0,0.0,0.0,0.0,0.0,0.0,0.0,0.0,0.0,0.07210000000000104,0.0,0.0
1730,0.008317126063186027,0.02775126194103747,1.9900668791472296,-0.4721267633631016,0.002154661070949124,0.003491345352450996,0.8815211212782035,0,-0.9122721691801242,1.5886710382077167,0.20959916414053023,0.0,0.0,0.977787395291835,0.0,0.0,0.0,0.0,0.0,0.0,0.0,0.0,0.0,0.0,0.0,0.0,0,0.9122721691801242,2.4113289617923988,-0.6913408123685627,-0.1479337354217034,0.6913408123685626,0.14903480208103476,0.0,0.0,0.0,0.0,0.0,0.0,0.0,0.0,0.0,0.07310000000000107,0.0,0.0
1740,0.00856121359707961,0.02771948980926007,1.9897483564111336,-0.4790299638231671,0.0021438065386561993,0.0031058972605982763,0.8777904369810067,0,-0.9186174314302047,1.6030314920494082,0.20191715394009246,0.0,0.0,0.979402605134749,0.0,0.0,0.0,0.0,0.0,0.0,0.0,0.0,0.0,0.0,0.0,0.0,0,0.9186174314302047,2.396968507950707,-0.6924851005722935,-0.1425012778715477,0.6924851005722934,0.14360416698597983,0.0,0.0,0.0,0.0,0.0,0.0,0.0,0.0,0.0,0.0741000000000011,0.0,0.0
1750,0.008814413502941522,0.027691931218647683,1.9894279789667757,-0.48589626392860336,0.002129923002293831,0.0027056883149838987,0.8740097043963365,0,-0.9247364618113104,1.6174897925981158,0.19422270116373147,0.0,0.0,0.9809574620505539,0.0,0.0,0.0,0.0,0.0,0.0,0.0,0.0,0.0,0.0,0.0,0.0,0,0.9247364618113104,2.382510207401999,-0.6935867163320468,-0.13706003908149017,0.6935867163320468,0.13816468268858745,0.0,0.0,0.0,0.0,0.0,0.0,0.0,0.0,0.0,0.07510000000000112,0.0,0.0
1760,0.009077203335730416,0.02766903372633563,1.9891054078696584,-0.49272478931557856,0.002112769518484219,0.002289801320799423,0.8701796222670304,0,-0.9306277520746236,1.6320423761005407,0.18651627996042858,0.0,0.0,0.9824518702255715,0.0,0.0,0.0,0.0,0.0,0.0,0.0,0.0,0.0,0.0,0.0,0.0,0,0.9306277520746236,2.367957623899574,-0.6946455917638542,-0.131610354352546,0.6946455917638543,0.1327166843817574,0.0,0.0,0.0,0.0,0.0,0.0,0.0,0.0,0.0,0.07610000000000115,0.0,0.0
1770,0.00941632038757986,0.027703653515408985,1.9889292593940815,-0.49963469642458813,0.002107146080831733,0.0018260027625441638,0.8662317217569527,0,-0.9362898501058352,1.6466856555640557,0.17879836521668574,0.0,0.0,0.9838857375711068,0.0,0.0,0.0,0.0,0.0,0.0,0.0,0.0,0.0,0.0,0.0,0.0,0,0.9362898501058352,2.353314344436059,-0.6956616616174993,-0.1261525595061881,0.6956616616174993,0.12726050778304132,0.0,0.0,0.0,0.0,0.0,0.0,0.0,0.0,0.0,0.07710000000000118,0.0,0.0
1780,0.009784175504252991,0.02776685187629984,1.9886671814896728,-0.5063858705119466,0.0019954002868616265,0.0013062329569161343,0.862303694923671,0,-0.9417213602830693,1.661416021640846,0.17106943252726192,0.0,0.0,0.985258975729123,0.0,0.0,0.0,0.0,0.0,0.0,0.0,0.0,0.0,0.0,0.0,0.0,0,0.9417213602830693,2.338583978359268,-0.6966348632805391,-0.12068699086365209,0.6966348632805393,0.1217964891139553,0.0,0.0,0.0,0.0,0.0,0.0,0.0,0.0,0.0,0.07810000000000121,0.0,0.0
1790,0.00947874606205068,0.027242216153439098,1.988462430624187,-0.5136473761681839,0.0018190396251565532,0.0017232494651257858,0.8579977240422396,0,-0.9469209438208824,1.6762298435175582,0.16332995816586607,0.0,0.0,0.9865715000776865,0.0,0.0,0.0,0.0,0.0,0.0,0.0,0.0,0.0,0.0,0.0,0.0,0,0.9469209438208824,2.323770156482556,-0.6975651367821623,-0.11521398522521231,0.6975651367821623,0.1163249650792606,0.0,0.0,0.0,0.0,0.0,0.0,0.0,0.0,0.0,0.07910000000000124,0.0,0.0
1800,0.0089091899653401,0.02672830548260025,1.9879768777668925,-0.520438475437106,0.0019362917945698404,0.0025100455291964213,0.8538932859147146,0,-0.9518873191002543,1.6911234698102415,0.1555804190558079,0.0,0.0,0.9878232297361808,0.0,0.0,0.0,0.0,0.0,0.0,0.0,0.0,0.0,0.0,0.0,0.0,0,0.9518873191002543,2.3088765301898726,-0.6984524247968841,-0.10973387984942685,0.6984524247968841,0.11084627284621558,0.0,0.0,0.0,0.0,0.0,0.0,0.0,0.0,0.0,0.08010000000000127,0.0,0.0
1810,0.00840523241608946,0.026345019307942457,1.987369109963897,-0.526864830937032,0.0021929323816977154,0.0032079033271106084,0.8499402039705534,0,-0.9566192619844873,1.7060932294643585,0.1478212927406089,0.0,0.0,0.9890140875702911,0.0,0.0,0.0,0.0,0.0,0.0,0.0,0.0,0.0,0.0,0.0,0.0,0,0.9566192619844873,2.2939067705357568,-0.6992966726480797,-0.10424701243235485,0.6992966726480797,0.10536075002379869,0.0,0.0,0.0,0.0,0.0,0.0,0.0,0.0,0.0,0.0811000000000013,0.0,0.0
1820,0.00797580909291632,0.026017220151315863,1.9867475263033736,-0.5331705415016728,0.0024721807935111488,0.0038054442226099056,0.8459956149952585,0,-0.9611156061209378,1.7211354326596442,0.14005305735457504,0.0,0.0,0.9901440001967573,0.0,0.0,0.0,0.0,0.0,0.0,0.0,0.0,0.0,0.0,0.0,0.0,0,0.9611156061209378,2.2788645673404706,-0.7000978283113533,-0.09875372108674751,0.7000978283113533,0.09986873464190421,0.0,0.0,0.0,0.0,0.0,0.0,0.0,0.0,0.0,0.08210000000000132,0.0,0.0
1830,0.007619648570985499,0.025714746958859627,1.9861552395889859,-0.5394539788813311,0.002727645327789578,0.004303064352586914,0.84199967236172,0,-0.9653752432285052,1.7362463717195935,0.13227619159333334,0.0,0.0,0.9912128979878964,0.0,0.0,0.0,0.0,0.0,0.0,0.0,0.0,0.0,0.0,0.0,0.0,0,0.9653752432285052,2.2637536282805217,-0.7008558424177431,-0.09325434432121238,0.7008558424177431,0.09437056513051195,0.0,0.0,0.0,0.0,0.0,0.0,0.0,0.0,0.0,0.08310000000000135,0.0,0.0
1840,0.007332649165126319,0.02542607338955033,1.9856071875125967,-0.5457515590924127,0.0029427418228968392,0.004705095699830591,0.8379286593100991,0,-0.9693971233708056,1.7514223220253446,0.12449117468433314,0.0,0.0,0.9922207150758923,0.0,0.0,0.0,0.0,0.0,0.0,0.0,0.0,0.0,0.0,0.0,0.0,0,0.9693971233708056,2.24857767797477,-0.7015706682567651,-0.08774922101935428,0.7015706682567651,0.08886658029883304,0.0,0.0,0.0,0.0,0.0,0.0,0.0,0.0,0.0,0.08410000000000138,0.0,0.0
1850,0.0071075586819446274,0.025146777182008775,1.9851047967041713,-0.5520714409158167,0.003115297962905012,0.005020285693138041,0.8337758786240433,0,-0.9731802552149658,1.766659542933744,0.11669848635731553,0.0,0.0,0.9931673893568553,0.0,0.0,0.0,0.0,0.0,0.0,0.0,0.0,0.0,0.0,0.0,0.0,0,0.9731802552149658,2.233340457066371,-0.70224226177929,-0.08223869041889159,0.7022422617792898,0.08335711931443096,0.0,0.0,0.0,0.0,0.0,0.0,0.0,0.0,0.0,0.08510000000000141,0.0,0.0
1860,0.006937919979967264,0.02487550320084376,1.9846450690117032,-0.5584115438672221,0.003247654281964736,0.0052569789183515145,0.8295410566030728,0,-0.9767237062759717,1.7819542786993565,0.10889860681475086,0.0,0.0,0.9940528624946494,0.0,0.0,0.0,0.0,0.0,0.0,0.0,0.0,0.0,0.0,0.0,0.0,0,0.9767237062759717,2.218045721300758,-0.7028705816002585,-0.07672309209075245,0.7028705816002585,0.07784252168232181,0.0,0.0,0.0,0.0,0.0,0.0,0.0,0.0,0.0,0.08610000000000144,0.0,0.0
1870,0.006817959541453199,0.02461206545102403,1.9842234677683204,-0.5647660511862325,0.0033436654217500503,0.005422946405976216,0.825226465269586,0,-0.9800266031465122,1.7973027594002022,0.10109201670224804,0.0,0.0,0.9948770799244862,0.0,0.0,0.0,0.0,0.0,0.0,0.0,0.0,0.0,0.0,0.0,0.0,0,0.9800266031465122,2.202697240599912,-0.7034555890012314,-0.07120276591814943,0.7034555890012314,0.07232312722405292,0.0,0.0,0.0,0.0,0.0,0.0,0.0,0.0,0.0,0.08710000000000147,0.0,0.0
1880,0.006742599095416784,0.024356649274533272,1.9838352325784478,-0.5711281920718788,0.0034073584857729497,0.00552522134396799,0.8208352149231639,0,-0.9830881317122603,1.8127012018669832,0.09327919707893594,0.0,0.0,0.995639990856288,0.0,0.0,0.0,0.0,0.0,0.0,0.0,0.0,0.0,0.0,0.0,0.0,0,0.9830881317122603,2.187298798133131,-0.7039972479327752,-0.06567805207563543,0.7039972479327752,0.066799276056763,0.0,0.0,0.0,0.0,0.0,0.0,0.0,0.0,0.0,0.0881000000000015,0.0,0.0
1890,0.006707448472242803,0.024109516129507385,1.9834759154289652,-0.5774914088844754,0.003442394036322686,0.005570011890272809,0.8163705026245526,0,-0.9859075373525406,1.8281458106155795,0.08546062938781944,0.0,0.0,0.9963415482778172,0.0,0.0,0.0,0.0,0.0,0.0,0.0,0.0,0.0,0.0,0.0,0.0,0,0.9859075373525406,2.1718541893845345,-0.7044955250166837,-0.06014929100814065,0.7044955250166837,0.061271308572222405,0.0,0.0,0.0,0.0,0.0,0.0,0.0,0.0,0.0,0.08910000000000153,0.0,0.0
1900,0.00670873626676002,0.02387089748394418,1.9831415443226488,-0.5838497579195447,0.003451918132761074,0.00556273055724937,0.8118353284178025,0,-0.9884841251263317,1.8436327787825775,0.07763679542611195,0.0,0.0,0.9969817089575737,0.0,0.0,0.0,0.0,0.0,0.0,0.0,0.0,0.0,0.0,0.0,0.0,0,0.9884841251263317,2.156367221217536,-0.7049503895480351,-0.054616823409994575,0.7049503895480351,0.05573956541585823,0.0,0.0,0.0,0.0,0.0,0.0,0.0,0.0,0.0,0.09010000000000155,0.0,0.0
1910,0.006743224868202731,0.023640963782971668,1.982828633719241,-0.5901979914181756,0.0034385698052502734,0.005508070707847849,0.8072324128283769,0,-0.9908172599435584,1.8591582890636058,0.069808177315546,0.0,0.0,0.9975604334474585,0.0,0.0,0.0,0.0,0.0,0.0,0.0,0.0,0.0,0.0,0.0,0.0,0,0.9908172599435584,2.1408417109365083,-0.7053618134970837,-0.04908099020393125,0.7053618134970837,0.05020438746576272,0.0,0.0,0.0,0.0,0.0,0.0,0.0,0.0,0.0,0.09110000000000158,0.0,0.0
1920,0.0067591848361981685,0.023372219313817694,1.9823231614223005,-0.5963700221666611,0.0033849501887110475,0.005438584316929435,0.8026840976210902,0,-0.9929063667216327,1.8747185146542413,0.061975257472663796,0.0,0.0,0.998077686085205,0.0,0.0,0.0,0.0,0.0,0.0,0.0,0.0,0.0,0.0,0.0,0.0,0,0.9929063667216327,2.125281485345873,-0.7057297715109874,-0.04354213252008032,0.7057297715109874,0.04466611581168739,0.0,0.0,0.0,0.0,0.0,0.0,0.0,0.0,0.0,0.09210000000000161,0.0,0.0
1930,0.006639128645068479,0.02291755967393949,1.9816158980196585,-0.602240970885397,0.003303269250235288,0.005454488464107182,0.7982888887832962,0,-0.9947509305272022,1.890309620193261,0.0541385185790896,0.0,0.0,0.9985334349965762,0.0,0.0,0.0,0.0,0.0,0.0,0.0,0.0,0.0,0.0,0.0,0.0,0,0.9947509305272022,2.109690379806854,-0.7060542409153698,-0.03800059167494679,0.7060542409153698,0.039125091734024786,0.0,0.0,0.0,0.0,0.0,0.0,0.0,0.0,0.0,0.09310000000000164,0.0,0.0
1940,0.006688325094069294,0.022645105571064306,1.9813349787686936,-0.6085437839853347,0.0032867684558968773,0.005338227096163195,0.7934955346171757,0,-0.9963504967030736,1.9059277627079996,0.04629844355178605,0.0,0.0,0.9989276520973289,0.0,0.0,0.0,0.0,0.0,0.0,0.0,0.0,0.0,0.0,0.0,0.0,0,0.9963504967030736,2.0940722372921163,-0.7063352017157178,-0.032456709150377794,0.7063352017157181,0.03358165668277768,0.0,0.0,0.0,0.0,0.0,0.0,0.0,0.0,0.0,0.09410000000000167,0.0,0.0
1950,0.006883639130720221,0.022554581805830944,1.9813624747690592,-0.6150637808012972,0.003280446013183139,0.005140007913653496,0.7884537808514942,0,-0.9977046709802788,1.9215690925615834,0.03845551551329558,0.0,0.0,0.9992603130949447,0.0,0.0,0.0,0.0,0.0,0.0,0.0,0.0,0.0,0.0,0.0,0.0,0,0.9977046709802788,2.0784309074385323,-0.7065726365986137,-0.026910826572519975,0.7065726365986136,0.0280361522565184,0.0,0.0,0.0,0.0,0.0,0.0,0.0,0.0,0.0,0.0951000000000017,0.0,0.0
1960,0.007112238631830461,0.02246797836909997,1.9812914893323827,-0.621442393401859,0.00318659587740525,0.004884837639840585,0.7834381504949294,0,-0.9988131195752566,1.9372297544018109,0.030610217761969392,0.0,0.0,0.9995313974901263,0.0,0.0,0.0,0.0,0.0,0.0,0.0,0.0,0.0,0.0,0.0,0.0,0,0.9988131195752566,2.0627702455983052,-0.7067665309328012,-0.02136328569076751,0.7067665309328011,0.022488920181338523,0.0,0.0,0.0,0.0,0.0,0.0,0.0,0.0,0.0,0.09610000000000173,0.0,0.0
1970,0.007331422558456132,0.02233604543019451,1.9811327629506579,-0.6277147710376421,0.0030750081574559586,0.0046044206818029185,0.7784237341295402,0,-0.9996755692721249,1.9529058881114356,0.022763033742185586,0.0,0.0,0.9997408885780615,0.0,0.0,0.0,0.0,0.0,0.0,0.0,0.0,0.0,0.0,0.0,0.0,0,0.9996755692721249,2.047094111888681,-0.7069168727700879,-0.015814428356702825,0.7069168727700879,0.01694030228979132,0.0,0.0,0.0,0.0,0.0,0.0,0.0,0.0,0.0,0.09710000000000175,0.0,0.0
1980,0.007555987848189159,0.02218818257621507,1.980938649598041,-0.6339213381809515,0.002947136303088041,0.004298128560418404,0.7733799696639168,0,-1.0002918074900247,1.968593629759629,0.014914447014558227,0.0,0.0,0.9998887734494523,0.0,0.0,0.0,0.0,0.0,0.0,0.0,0.0,0.0,0.0,0.0,0.0,0,1.0002918074900247,2.031406370240488,-0.7070236528460819,-0.01026459650303102,0.7070236528460818,0.011390640499826687,0.0,0.0,0.0,0.0,0.0,0.0,0.0,0.0,0.0,0.09810000000000178,0.0,0.0
1990,0.0077923158038027355,0.02203759061670198,1.9807312018969558,-0.6400785637285661,0.0028046579469573987,0.003966590137074372,0.7682941053474646,0,-1.0006616823355172,1.9842891125543798,0.007064941226139306,0.0,0.0,0.9999750429913095,0.0,0.0,0.0,0.0,0.0,0.0,0.0,0.0,0.0,0.0,0.0,0.0,0,1.0006616823355172,2.0157108874457363,-0.7070868645807615,-0.004714132122509318,0.7070868645807615,0.005840276793722621,0.0,0.0,0.0,0.0,0.0,0.0,0.0,0.0,0.0,0.09910000000000181,0.0,0.0
2000,0.008042959264138509,0.021890112884268276,1.9805193577415647,-0.6461926315026654,0.002648886339787445,0.0036108489325350824,0.7631612071920361,0,-1.0007838524070896,1.9984184682933992,-7.440012148030029e-15,0.0,0.0,1.0,0.0,0.0,0.0,0.0,0.0,0.0,0.0,0.0,0.0,0.0,0.0,0.0,0,1.0007838524070896,2.0015815317067167,-0.7071065009352508,0.00028154394165352814,0.7071065009352508,0.0008446320034767862,0.0,-0.00055,0.0,0.0,0.0,-0.00055,0.0,0.0,0.0,0.10000000000000184,0.0,0.0
2010,0.008224324179863443,0.021785258168896482,1.9815602457370574,-0.6504342669408566,0.0024990699093060953,0.0033818246653069496,0.7595509083008407,0,-1.0007838524070896,1.9984184682933992,-7.440012148030029e-15,0.0,0.0,1.0,0.0,0.0,0.0,0.0,0.0,0.0,0.0,0.0,0.0,0.0,0.0,0.0,0,1.0007838524070896,2.0015815317067167,-0.7071065009352508,0.00028154394165352814,0.7071065009352508,0.0008446320034767862,0.0,-0.006050000000000001,0.0,0.0,0.0,-0.006050000000000001,0.0,0.0,0.0,0.10000000000000184,0.0,0.0
2020,0.008287573324151983,0.021737279898589548,1.982825487140641,-0.6527589938997729,0.0025641309822099076,0.003294486673121649,0.7575541350113687,0,-1.0007838524070896,1.9984184682933992,-7.440012148030029e-15,0.0,0.0,1.0,0.0,0.0,0.0,0.0,0.0,0.0,0.0,0.0,0.0,0.0,0.0,0.0,0,1.0007838524070896,2.0015815317067167,-0.7071065009352508,0.00028154394165352814,0.7071065009352508,0.0008446320034767862,0.0,-0.011550000000000001,0.0,0.0,0.0,-0.011550000000000001,0.0,0.0,0.0,0.10000000000000184,0.0,0.0
2030,0.008225760099674687,0.021799458790766463,1.9839819279903241,-0.654541980802214,0.0026815083915896353,0.0033939047876753755,0.7560132844669808,0,-1.0007838524070896,1.9984184682933992,-7.440012148030029e-15,0.0,0.0,1.0,0.0,0.0,0.0,0.0,0.0,0.0,0.0,0.0,0.0,0.0,0.0,0.0,0,1.0007838524070896,2.0015815317067167,-0.7071065009352508,0.00028154394165352814,0.7071065009352508,0.0008446320034767862,0.0,-0.01705,0.0,0.0,0.0,-0.01705,0.0,0.0,0.0,0.10000000000000184,0.0,0.0
2040,0.008660813903738329,0.021899156654561915,1.9856536667355826,-0.6560384669224728,0.002366640180983289,0.0030361868689716414,0.7547176362730381,0,-1.0007838524070896,1.9984184682933992,-7.440012148030029e-15,0.0,0.0,1.0,0.0,0.0,0.0,0.0,0.0,0.0,0.0,0.0,0.0,0.0,0.0,0.0,0,1.0007838524070896,2.0015815317067167,-0.7071065009352508,0.00028154394165352814,0.7071065009352508,0.0008446320034767862,0.0,-0.022549999999999983,0.0,0.0,0.0,-0.022549999999999983,0.0,0.0,0.0,0.10000000000000184,0.0,0.0
2050,0.009326654472609667,0.021110716272730454,1.9899251556852977,-0.6584595367739026,0.000914817641579762,0.002154948540734202,0.7526124884274557,0,-1.0007838524070896,1.9984184682933992,-7.440012148030029e-15,0.0,0.0,1.0,0.0,0.0,0.0,0.0,0.0,0.0,0.0,0.0,0.0,0.0,0.0,0.0,0,1.0007838524070896,2.0015815317067167,-0.7071065009352508,0.00028154394165352814,0.7071065009352508,0.0008446320034767862,0.0,-0.028049999999999967,0.0,0.0,0.0,-0.028049999999999967,0.0,0.0,0.0,0.10000000000000184,0.0,0.0
2060,0.009369377984608723,0.02159847371005979,1.9904322196937319,-0.6583763200585285,0.002207864442762032,0.002263908032899587,0.7526822843944256,0,-1.0007838524070896,1.9984184682933992,-7.440012148030029e-15,0.0,0.0,1.0,0.0,0.0,0.0,0.0,0.0,0.0,0.0,0.0,0.0,0.0,0.0,0.0,0,1.0007838524070896,2.0015815317067167,-0.7071065009352508,0.00028154394165352814,0.7071065009352508,0.0008446320034767862,0.0,-0.03354999999999997,0.0,0.0,0.0,-0.03354999999999997,0.0,0.0,0.0,0.10000000000000184,0.0,0.0
2070,0.009305954982917393,0.021946024752371326,1.990689520760648,-0.6580217844226444,0.003712094731467984,0.0023481109729181285,0.7529860808493093,0,-1.0007838524070896,1.9984184682933992,-7.440012148030029e-15,0.0,0.0,1.0,0.0,0.0,0.0,0.0,0.0,0.0,0.0,0.0,0.0,0.0,0.0,0.0,0,1.0007838524070896,2.0015815317067167,-0.7071065009352508,0.00028154394165352814,0.7071065009352508,0.0008446320034767862,0.0,-0.03904999999999999,0.0,0.0,0.0,-0.03904999999999999,0.0,0.0,0.0,0.10000000000000184,0.0,0.0
2080,0.009178638567682366,0.02199477603881998,1.9886845759336986,-0.6581920636304643,0.0036906057129987902,0.0024378348450615353,0.75283706322458,0,-1.0007838524070896,1.9984184682933992,-7.440012148030029e-15,0.0,0.0,1.0,0.0,0.0,0.0,0.0,0.0,0.0,0.0,0.0,0.0,0.0,0.0,0.0,0,1.0007838524070896,2.0015815317067167,-0.7071065009352508,0.00028154394165352814,0.7071065009352508,0.0008446320034767862,0.0,-0.044550000000000006,0.0,0.0,0.0,-0.044550000000000006,0.0,0.0,0.0,0.10000000000000184,0.0,0.0
2090,0.00917563581437296,0.02237095663074458,1.9879565024572778,-0.6577823215784183,0.0040740399019356475,0.0024499951889694464,0.7531930809170766,0,-1.0007838524070896,1.9984184682933992,-7.440012148030029e-15,0.0,0.0,1.0,0.0,0.0,0.0,0.0,0.0,0.0,0.0,0.0,0.0,0.0,0.0,0.0,0,1.0007838524070896,2.0015815317067167,-0.7071065009352508,0.00028154394165352814,0.7071065009352508,0.0008446320034767862,0.0,-0.050050000000000025,0.0,0.0,0.0,-0.050050000000000025,0.0,0.0,0.0,0.10000000000000184,0.0,0.0
2100,0.009069967147463536,0.02222781848262384,1.9877193589514441,-0.6579185215929857,0.004595714354938127,0.0024506783426319965,0.7530711072203798,0,-1.0007838524070896,1.9984184682933992,-7.440012148030029e-15,0.0,0.0,1.0,0.0,0.0,0.0,0.0,0.0,0.0,0.0,0.0,0.0,0.0,0.0,0.0,0,1.0007838524070896,2.0015815317067167,-0.7071065009352508,0.00028154394165352814,0.7071065009352508,0.0008446320034767862,0.0,-0.055550000000000044,0.0,0.0,0.0,-0.055550000000000044,0.0,0.0,0.0,0.10000000000000184,0.0,0.0
2110,0.008953576617198507,0.022034385427366,1.9876263067691815,-0.6580565830934628,0.005189411178390993,0.002444065028633479,0.7529466315783037,0,-1.0007838524070896,1.9984184682933992,-7.440012148030029e-15,0.0,0.0,1.0,0.0,0.0,0.0,0.0,0.0,0.0,0.0,0.0,0.0,0.0,0.0,0.0,0,1.0007838524070896,2.0015815317067167,-0.7071065009352508,0.00028154394165352814,0.7071065009352508,0.0008446320034767862,0.0,-0.06105000000000006,0.0,0.0,0.0,-0.06105000000000006,0.0,0.0,0.0,0.10000000000000184,0.0,0.0
2120,0.008832891103369059,0.02181793750396138,1.9875937472889078,-0.6581955099794142,0.005816113562684946,0.0024324331809990334,0.7528206471230612,0,-1.0007838524070896,1.9984184682933992,-7.440012148030029e-15,0.0,0.0,1.0,0.0,0.0,0.0,0.0,0.0,0.0,0.0,0.0,0.0,0.0,0.0,0.0,0,1.0007838524070896,2.0015815317067167,-0.7071065009352508,0.00028154394165352814,0.7071065009352508,0.0008446320034767862,0.0,-0.06655000000000003,0.0,0.0,0.0,-0.06655000000000003,0.0,0.0,0.0,0.10000000000000184,0.0,0.0
2130,0.00870996091107712,0.021587214886467653,1.9875883449864054,-0.6583380007685198,0.00646678947877264,0.0024155833903684565,0.752690787996525,0,-1.0007838524070896,1.9984184682933992,-7.440012148030029e-15,0.0,0.0,1.0,0.0,0.0,0.0,0.0,0.0,0.0,0.0,0.0,0.0,0.0,0.0,0.0,0,1.0007838524070896,2.0015815317067167,-0.7071065009352508,0.00028154394165352814,0.7071065009352508,0.0008446320034767862,0.0,-0.07204999999999998,0.0,0.0,0.0,-0.07204999999999998,0.0,0.0,0.0,0.10000000000000184,0.0,0.0
2140,0.008585530091295066,0.02134572053976406,1.9875951372431748,-0.6584851700533998,0.0071380341834675525,0.0023933089689760303,0.7525560453281336,0,-1.0007838524070896,1.9984184682933992,-7.440012148030029e-15,0.0,0.0,1.0,0.0,0.0,0.0,0.0,0.0,0.0,0.0,0.0,0.0,0.0,0.0,0.0,0,1.0007838524070896,2.0015815317067167,-0.7071065009352508,0.00028154394165352814,0.7071065009352508,0.0008446320034767862,0.0,-0.07754999999999992,0.0,0.0,0.0,-0.07754999999999992,0.0,0.0,0.0,0.10000000000000184,0.0,0.0
2150,0.008459867991819721,0.02109501445672464,1.9876070211004853,-0.6586372675010959,0.007828266350613858,0.0023655197760203955,0.7524161564060298,0,-1.0007838524070896,1.9984184682933992,-7.440012148030029e-15,0.0,0.0,1.0,0.0,0.0,0.0,0.0,0.0,0.0,0.0,0.0,0.0,0.0,0.0,0.0,0,1.0007838524070896,2.0015815317067167,-0.7071065009352508,0.00028154394165352814,0.7071065009352508,0.0008446320034767862,0.0,-0.08304999999999987,0.0,0.0,0.0,-0.08304999999999987,0.0,0.0,0.0,0.10000000000000184,0.0,0.0
2160,0.008333007447098409,0.02083555227361882,1.9876208925499392,-0.6587944800842125,0.008537293674710678,0.0023321231930005276,0.7522709012242176,0,-1.0007838524070896,1.9984184682933992,-7.440012148030029e-15,0.0,0.0,1.0,0.0,0.0,0.0,0.0,0.0,0.0,0.0,0.0,0.0,0.0,0.0,0.0,0,1.0007838524070896,2.0015815317067167,-0.7071065009352508,0.00028154394165352814,0.7071065009352508,0.0008446320034767862,0.0,-0.08854999999999982,0.0,0.0,0.0,-0.08854999999999982,0.0,0.0,0.0,0.10000000000000184,0.0,0.0
2170,0.008204866045172194,0.020567291648487338,1.9876346339653586,-0.658956599743647,0.00926519274452393,0.0022929689759918852,0.7521204013660133,0,-1.0007838524070896,1.9984184682933992,-7.440012148030029e-15,0.0,0.0,1.0,0.0,0.0,0.0,0.0,0.0,0.0,0.0,0.0,0.0,0.0,0.0,0.0,0,1.0007838524070896,2.0015815317067167,-0.7071065009352508,0.00028154394165352814,0.7071065009352508,0.0008446320034767862,0.0,-0.09404999999999977,0.0,0.0,0.0,-0.09404999999999977,0.0,0.0,0.0,0.10000000000000184,0.0,0.0
2180,0.008075399049939026,0.020290183741097974,1.9876480451695846,-0.659123834567091,0.010012359838822938,0.002248075912612841,0.7519644070770393,0,-1.0007838524070896,1.9984184682933992,-7.440012148030029e-15,0.0,0.0,1.0,0.0,0.0,0.0,0.0,0.0,0.0,0.0,0.0,0.0,0.0,0.0,0.0,0,1.0007838524070896,2.0015815317067167,-0.7071065009352508,0.00028154394165352814,0.7071065009352508,0.0008446320034767862,0.0,-0.09954999999999972,0.0,0.0,0.0,-0.09954999999999972,0.0,0.0,0.0,0.10000000000000184,0.0,0.0
2190,0.007944345160761616,0.020003880875640846,1.9876601174538415,-0.6592963604982911,0.010780220673757761,0.0021972955154715918,0.7518026787451281,0,-1.0007838524070896,1.9984184682933992,-7.440012148030029e-15,0.0,0.0,1.0,0.0,0.0,0.0,0.0,0.0,0.0,0.0,0.0,0.0,0.0,0.0,0.0,0,1.0007838524070896,2.0015815317067167,-0.7071065009352508,0.00028154394165352814,0.7071065009352508,0.0008446320034767862,0.0,-0.10504999999999967,0.0,0.0,0.0,-0.10504999999999967,0.0,0.0,0.0,0.10000000000000184,0.0,0.0
2200,0.0078115494073223895,0.019707611751829408,1.9876724802961028,-0.6594748525085606,0.011570285097745185,0.0021406051790682445,0.7516345290239376,0,-1.0007838524070896,1.9984184682933992,-7.440012148030029e-15,0.0,0.0,1.0,0.0,0.0,0.0,0.0,0.0,0.0,0.0,0.0,0.0,0.0,0.0,0.0,0,1.0007838524070896,2.0015815317067167,-0.7071065009352508,0.00028154394165352814,0.7071065009352508,0.0008446320034767862,0.0,-0.11054999999999962,0.0,0.0,0.0,-0.11054999999999962,0.0,0.0,0.0,0.10000000000000184,0.0,0.0
2210,0.0076766876119861585,0.019400533107695746,1.987685048395074,-0.6596596197476885,0.012384455143353642,0.002077816193994544,0.7514595757757042,0,-1.0007838524070896,1.9984184682933992,-7.440012148030029e-15,0.0,0.0,1.0,0.0,0.0,0.0,0.0,0.0,0.0,0.0,0.0,0.0,0.0,0.0,0.0,0,1.0007838524070896,2.0015815317067167,-0.7071065009352508,0.00028154394165352814,0.7071065009352508,0.0008446320034767862,0.0,-0.11604999999999957,0.0,0.0,0.0,-0.11604999999999957,0.0,0.0,0.0,0.10000000000000184,0.0,0.0
2220,0.007539509961704376,0.019082304344265378,1.9876957159508428,-0.6598498261355599,0.013222839745995982,0.0020088399822654275,0.7512784623692128,0,-1.0007838524070896,1.9984184682933992,-7.440012148030029e-15,0.0,0.0,1.0,0.0,0.0,0.0,0.0,0.0,0.0,0.0,0.0,0.0,0.0,0.0,0.0,0,1.0007838524070896,2.0015815317067167,-0.7071065009352508,0.00028154394165352814,0.7071065009352508,0.0008446320034767862,0.0,-0.12154999999999952,0.0,0.0,0.0,-0.12154999999999952,0.0,0.0,0.0,0.10000000000000184,0.0,0.0
2230,0.00739983670999942,0.018752797278430582,1.9877050889281618,-0.6600459156214098,0.014086594112785747,0.0019338397715633912,0.7510906852048788,0,-1.0007838524070896,1.9984184682933992,-7.440012148030029e-15,0.0,0.0,1.0,0.0,0.0,0.0,0.0,0.0,0.0,0.0,0.0,0.0,0.0,0.0,0.0,0,1.0007838524070896,2.0015815317067167,-0.7071065009352508,0.00028154394165352814,0.7071065009352508,0.0008446320034767862,0.0,-0.12704999999999947,0.0,0.0,0.0,-0.12704999999999947,0.0,0.0,0.0,0.10000000000000184,0.0,0.0
2240,0.0072572385921217215,0.018410480596731595,1.9877140979182382,-0.6602487918185137,0.014978649649778235,0.0018523745223154803,0.7508952934101341,0,-1.0007838524070896,1.9984184682933992,-7.440012148030029e-15,0.0,0.0,1.0,0.0,0.0,0.0,0.0,0.0,0.0,0.0,0.0,0.0,0.0,0.0,0.0,0,1.0007838524070896,2.0015815317067167,-0.7071065009352508,0.00028154394165352814,0.7071065009352508,0.0008446320034767862,0.0,-0.13254999999999942,0.0,0.0,0.0,-0.13254999999999942,0.0,0.0,0.0,0.10000000000000184,0.0,0.0
2250,0.007111389347990749,0.018052640448771074,1.9877295242995543,-0.6604624879563977,0.01590460606217497,0.0017649143566802663,0.7506885043650035,0,-1.0007838524070896,1.9984184682933992,-7.440012148030029e-15,0.0,0.0,1.0,0.0,0.0,0.0,0.0,0.0,0.0,0.0,0.0,0.0,0.0,0.0,0.0,0,1.0007838524070896,2.0015815317067167,-0.7071065009352508,0.00028154394165352814,0.7071065009352508,0.0008446320034767862,0.0,-0.13804999999999937,0.0,0.0,0.0,-0.13804999999999937,0.0,0.0,0.0,0.10000000000000184,0.0,0.0
