yifeidong0/3D-Soft-Fixture/results/BimanualRubic_04-06-2023-19-02-17_dynamics/data.csv
index,obj_pos_x,obj_pos_y,obj_pos_z,obj_qtn_x,obj_qtn_y,obj_qtn_z,obj_qtn_w,obs_pos_x,obs_pos_y,obs_pos_z,obs_qtn_x,obs_qtn_y,obs_qtn_z,obs_qtn_w,obs_joint_0_pos,obs_joint_1_pos,obs_joint_2_pos,obs_joint_3_pos,obs_joint_4_pos,obs_joint_5_pos,obs_joint_6_pos,obs_joint_7_pos,obs_joint_8_pos,obs_joint_9_pos,obs_joint_10_pos,obs_joint_11_pos,obs_pos_x,obs_pos_y,obs_pos_z,obs_qtn_x,obs_qtn_y,obs_qtn_z,obs_qtn_w,obs_joint_0_pos,obs_joint_1_pos,obs_joint_2_pos,obs_joint_3_pos,obs_joint_4_pos,obs_joint_5_pos,obs_joint_6_pos,obs_joint_7_pos,obs_joint_8_pos,obs_joint_9_pos,obs_joint_10_pos,obs_joint_11_pos
0,0.0,0.0,2.0,0.0,0.0,0.0,1.0,0,0,1,0.706825181105366,0.0,0.0,0.7073882691671998,0.0,0.0,0.0,0.0,0.0,0.0,0.0,0.0,0.0,0.0,0.0,0.0,0,0,3.999,-0.49999984146591736,-0.49960183664463337,0.49999984146591736,0.5003981633553667,0.0,0.0,0.0,0.0,0.0,0.0,0.0,0.0,0.0,0.0,0.0,0.0
10,0.0,0.0,1.9906384505747,0.0,0.0,0.0,1.0,0,0,1,0.706825181105366,0.0,0.0,0.7073882691671998,0.0,0.0,0.0,0.0,0.0,0.0,0.0,0.0,0.0,0.0,0.0,0.0,0,0,3.989000000000001,-0.49999984146591736,-0.49960183664463337,0.49999984146591736,0.5003981633553667,0.0,0.0,0.0,0.0,0.0,0.0,0.0,0.0,0.0,0.0,0.0,0.0
20,5.220738379211834e-06,-9.81885003596465e-06,1.9848108129754065,-3.276182727184502e-05,-6.735472416619738e-05,0.00025516514125164093,0.9999999646403767,0,0,1,0.706825181105366,0.0,0.0,0.7073882691671998,0.0,0.0,0.0,0.0,0.0,0.0,0.0,0.0,0.0,0.0,0.0,0.0,0,0,3.9790000000000023,-0.49999984146591736,-0.49960183664463337,0.49999984146591736,0.5003981633553667,0.0,0.0,0.0,0.0,0.0,0.0,0.0,0.0,0.0,0.0,0.0,0.0
30,5.281698675624278e-06,-0.0002365160360924957,1.984165766668902,0.00033388916532721207,-0.00014579436166598048,0.0005100473028025727,0.9999998035568698,0,0,1,0.706825181105366,0.0,0.0,0.7073882691671998,0.0,0.0,0.0,0.0,0.0,0.0,0.0,0.0,0.0,0.0,0.0,0.0,0,0,3.9690000000000034,-0.49999984146591736,-0.49960183664463337,0.49999984146591736,0.5003981633553667,0.0,0.0,0.0,0.0,0.0,0.0,0.0,0.0,0.0,0.0,0.0,0.0
40,1.9742380428874487e-05,-0.000569044346026614,1.983857675191003,0.0008438026612763394,-0.00020004915494630798,0.0008647260936940736,0.9999992501128124,0,0,1,0.706825181105366,0.0,0.0,0.7073882691671998,0.0,0.0,0.0,0.0,0.0,0.0,0.0,0.0,0.0,0.0,0.0,0.0,0,0,3.9590000000000045,-0.49999984146591736,-0.49960183664463337,0.49999984146591736,0.5003981633553667,0.0,0.0,0.0,0.0,0.0,0.0,0.0,0.0,0.0,0.0,0.0,0.0
50,5.412531443348899e-05,-0.0009709309319528802,1.98369549428125,0.001422887082322741,-0.00019123160114567313,0.0012676817502724732,0.9999981659012209,0,0,1,0.706825181105366,0.0,0.0,0.7073882691671998,0.0,0.0,0.0,0.0,0.0,0.0,0.0,0.0,0.0,0.0,0.0,0.0,0,0,3.9490000000000056,-0.49999984146591736,-0.49960183664463337,0.49999984146591736,0.5003981633553667,0.0,0.0,0.0,0.0,0.0,0.0,0.0,0.0,0.0,0.0,0.0,0.0
60,0.00011512942450527093,-0.0014283898934135133,1.9835962951334078,0.0020339406853280943,-8.517699111135161e-05,0.0016932549417694599,0.9999964943527907,0,0,1,0.706825181105366,0.0,0.0,0.7073882691671998,0.0,0.0,0.0,0.0,0.0,0.0,0.0,0.0,0.0,0.0,0.0,0.0,0,0,3.9390000000000067,-0.49999984146591736,-0.49960183664463337,0.49999984146591736,0.5003981633553667,0.0,0.0,0.0,0.0,0.0,0.0,0.0,0.0,0.0,0.0,0.0,0.0
70,0.0002121374093480565,-0.0019415879890118625,1.9835237332018596,0.0026587456392277897,0.00015800202739796093,0.002129181772620778,0.9999941863290828,0,0,1,0.706825181105366,0.0,0.0,0.7073882691671998,0.0,0.0,0.0,0.0,0.0,0.0,0.0,0.0,0.0,0.0,0.0,0.0,0,0,3.929000000000008,-0.49999984146591736,-0.49960183664463337,0.49999984146591736,0.5003981633553667,0.0,0.0,0.0,0.0,0.0,0.0,0.0,0.0,0.0,0.0,0.0,0.0
80,0.00035915751418471876,-0.002520752926459768,1.9834612443215702,0.003287074088412595,0.0005939877489476812,0.002569001362357845,0.9999911212378295,0,0,1,0.706825181105366,0.0,0.0,0.7073882691671998,0.0,0.0,0.0,0.0,0.0,0.0,0.0,0.0,0.0,0.0,0.0,0.0,0,0,3.919000000000009,-0.49999984146591736,-0.49960183664463337,0.49999984146591736,0.5003981633553667,0.0,0.0,0.0,0.0,0.0,0.0,0.0,0.0,0.0,0.0,0.0,0.0
90,0.0005772810595227523,-0.003185458697552711,1.983400019023328,0.003910036055631378,0.0013051365172684361,0.003007546102568821,0.9999869813668355,0,0,1,0.706825181105366,0.0,0.0,0.7073882691671998,0.0,0.0,0.0,0.0,0.0,0.0,0.0,0.0,0.0,0.0,0.0,0.0,0,0,3.90900000000001,-0.49999984146591736,-0.49960183664463337,0.49999984146591736,0.5003981633553667,0.0,0.0,0.0,0.0,0.0,0.0,0.0,0.0,0.0,0.0,0.0,0.0
100,0.0008980472961981579,-0.003966041778104346,1.9833328611955214,0.004514735318809948,0.0024144529766569763,0.003437398088163365,0.9999809857573333,0,0,1,0.706825181105366,0.0,0.0,0.7073882691671998,0.0,0.0,0.0,0.0,0.0,0.0,0.0,0.0,0.0,0.0,0.0,0.0,0,0,3.899000000000011,-0.49999984146591736,-0.49960183664463337,0.49999984146591736,0.5003981633553667,0.0,0.0,0.0,0.0,0.0,0.0,0.0,0.0,0.0,0.0,0.0,0.0
110,0.0012879129895811028,-0.00486575532372981,1.9832512047578896,0.0051343863526328495,0.0037808516050023225,0.0038817232252973148,0.9999721373431987,0,0,1,0.706825181105366,0.0,0.0,0.7073882691671998,0.0,0.0,0.0,0.0,0.0,0.0,0.0,0.0,0.0,0.0,0.0,0.0,0,0,3.8890000000000122,-0.49999984146591736,-0.49960183664463337,0.49999984146591736,0.5003981633553667,0.0,0.0,0.0,0.0,0.0,0.0,0.0,0.0,0.0,0.0,0.0,0.0
120,0.001681371042813049,-0.005825922367496807,1.9831565792059662,0.00579388896259483,0.005143240001612645,0.004356629897659119,0.9999604980742538,0,0,1,0.706825181105366,0.0,0.0,0.7073882691671998,0.0,0.0,0.0,0.0,0.0,0.0,0.0,0.0,0.0,0.0,0.0,0.0,0,0,3.8790000000000133,-0.49999984146591736,-0.49960183664463337,0.49999984146591736,0.5003981633553667,0.0,0.0,0.0,0.0,0.0,0.0,0.0,0.0,0.0,0.0,0.0,0.0
130,0.0020771801582472713,-0.006821750635055178,1.9830495808007325,0.006475674328626492,0.0065005960940314154,0.0048499327181623,0.9999461415721554,0,0,1,0.706825181105366,0.0,0.0,0.7073882691671998,0.0,0.0,0.0,0.0,0.0,0.0,0.0,0.0,0.0,0.0,0.0,0.0,0,0,3.8690000000000144,-0.49999984146591736,-0.49960183664463337,0.49999984146591736,0.5003981633553667,0.0,0.0,0.0,0.0,0.0,0.0,0.0,0.0,0.0,0.0,0.0,0.0
140,0.0024750748322544553,-0.00784494604806412,1.9829305984872487,0.0071738261437405216,0.007853071542421387,0.0053575836642587495,0.9999290783766064,0,0,1,0.706825181105366,0.0,0.0,0.7073882691671998,0.0,0.0,0.0,0.0,0.0,0.0,0.0,0.0,0.0,0.0,0.0,0.0,0,0,3.8590000000000155,-0.49999984146591736,-0.49960183664463337,0.49999984146591736,0.5003981633553667,0.0,0.0,0.0,0.0,0.0,0.0,0.0,0.0,0.0,0.0,0.0,0.0
150,0.0028751895144507123,-0.008893073607406876,1.982799890016054,0.00788660388783297,0.009201125800375739,0.005878394230176275,0.9999092885079109,0,0,1,0.706825181105366,0.0,0.0,0.7073882691671998,0.0,0.0,0.0,0.0,0.0,0.0,0.0,0.0,0.0,0.0,0.0,0.0,0,0,3.8490000000000166,-0.49999984146591736,-0.49960183664463337,0.49999984146591736,0.5003981633553667,0.0,0.0,0.0,0.0,0.0,0.0,0.0,0.0,0.0,0.0,0.0,0.0
160,0.003277556262413149,-0.00996558537465091,1.9826571425148594,0.00861352733982911,0.010544514472529342,0.006412164985771441,0.9998867458374973,0,0,1,0.706825181105366,0.0,0.0,0.7073882691671998,0.0,0.0,0.0,0.0,0.0,0.0,0.0,0.0,0.0,0.0,0.0,0.0,0,0,3.8390000000000177,-0.49999984146591736,-0.49960183664463337,0.49999984146591736,0.5003981633553667,0.0,0.0,0.0,0.0,0.0,0.0,0.0,0.0,0.0,0.0,0.0,0.0
170,0.003682184832996898,-0.011062282817224591,1.9825021293011333,0.009354439953908982,0.01188288700312689,0.006958824665626611,0.9998614235027236,0,0,1,0.706825181105366,0.0,0.0,0.7073882691671998,0.0,0.0,0.0,0.0,0.0,0.0,0.0,0.0,0.0,0.0,0.0,0.0,0,0,3.829000000000019,-0.49999984146591736,-0.49960183664463337,0.49999984146591736,0.5003981633553667,0.0,0.0,0.0,0.0,0.0,0.0,0.0,0.0,0.0,0.0,0.0,0.0
180,0.004089159493497445,-0.012183379341512738,1.9823346807906712,0.010109450787114413,0.013216220420824801,0.0075185321139980945,0.9998332872021325,0,0,1,0.706825181105366,0.0,0.0,0.7073882691671998,0.0,0.0,0.0,0.0,0.0,0.0,0.0,0.0,0.0,0.0,0.0,0.0,0,0,3.81900000000002,-0.49999984146591736,-0.49960183664463337,0.49999984146591736,0.5003981633553667,0.0,0.0,0.0,0.0,0.0,0.0,0.0,0.0,0.0,0.0,0.0,0.0
190,0.004498891465533965,-0.013329392770915788,1.982155148484701,0.010878818067022065,0.014545402912583185,0.008091597462514304,0.9998022847653829,0,0,1,0.706825181105366,0.0,0.0,0.7073882691671998,0.0,0.0,0.0,0.0,0.0,0.0,0.0,0.0,0.0,0.0,0.0,0.0,0,0,3.809000000000021,-0.49999984146591736,-0.49960183664463337,0.49999984146591736,0.5003981633553667,0.0,0.0,0.0,0.0,0.0,0.0,0.0,0.0,0.0,0.0,0.0,0.0
200,0.004844931810366538,-0.01385540851705551,1.9820609073784938,0.011212249275519412,0.01587535980540994,0.008353272053600412,0.9997762155918848,0,0,1,0.706825181105366,0.0,0.0,0.7073882691671998,0.0,0.0,0.0,0.0,0.0,0.0,0.0,0.0,0.0,0.0,0.0,0.0,0,0,3.799000000000022,-0.49999984146591736,-0.49960183664463337,0.49999984146591736,0.5003981633553667,0.0,0.0,0.0,0.0,0.0,0.0,0.0,0.0,0.0,0.0,0.0,0.0
210,0.005195142719381553,-0.013770778422762248,1.9819525848683124,0.011121681309483385,0.017202331340385364,0.008310957710246904,0.9997556281328175,0,0,1,0.706825181105366,0.0,0.0,0.7073882691671998,0.0,0.0,0.0,0.0,0.0,0.0,0.0,0.0,0.0,0.0,0.0,0.0,0,0,3.7890000000000232,-0.49999984146591736,-0.49960183664463337,0.49999984146591736,0.5003981633553667,0.0,0.0,0.0,0.0,0.0,0.0,0.0,0.0,0.0,0.0,0.0,0.0
220,0.005539993264209397,-0.013758381755349863,1.9818414286978858,0.011080423437853974,0.018521765740502367,0.008304983072005558,0.99973256207171,0,0,1,0.706825181105366,0.0,0.0,0.7073882691671998,0.0,0.0,0.0,0.0,0.0,0.0,0.0,0.0,0.0,0.0,0.0,0.0,0,0,3.7790000000000243,-0.49999984146591736,-0.49960183664463337,0.49999984146591736,0.5003981633553667,0.0,0.0,0.0,0.0,0.0,0.0,0.0,0.0,0.0,0.0,0.0,0.0
230,0.005882455619604779,-0.013770300878411891,1.9817246859170088,0.01105626135689945,0.01983552789131905,0.008310814604274597,0.9997075778840001,0,0,1,0.706825181105366,0.0,0.0,0.7073882691671998,0.0,0.0,0.0,0.0,0.0,0.0,0.0,0.0,0.0,0.0,0.0,0.0,0,0,3.7690000000000254,-0.49999984146591736,-0.49960183664463337,0.49999984146591736,0.5003981633553667,0.0,0.0,0.0,0.0,0.0,0.0,0.0,0.0,0.0,0.0,0.0,0.0
240,0.006223272943047696,-0.01379220357928487,1.981601778418623,0.011039302625495134,0.021144287103641753,0.008321369392154707,0.999680852938507,0,0,1,0.706825181105366,0.0,0.0,0.7073882691671998,0.0,0.0,0.0,0.0,0.0,0.0,0.0,0.0,0.0,0.0,0.0,0.0,0,0,3.7590000000000265,-0.49999984146591736,-0.49960183664463337,0.49999984146591736,0.5003981633553667,0.0,0.0,0.0,0.0,0.0,0.0,0.0,0.0,0.0,0.0,0.0,0.0
250,0.00656270251328037,-0.013818636449756443,1.9814725527640165,0.011025701590920376,0.022448352244526047,0.008334035609409679,0.9996524642276409,0,0,1,0.706825181105366,0.0,0.0,0.7073882691671998,0.0,0.0,0.0,0.0,0.0,0.0,0.0,0.0,0.0,0.0,0.0,0.0,0,0,3.7490000000000276,-0.49999984146591736,-0.49960183664463337,0.49999984146591736,0.5003981633553667,0.0,0.0,0.0,0.0,0.0,0.0,0.0,0.0,0.0,0.0,0.0,0.0
260,0.006900869545174758,-0.013847146798939223,1.9813369693779792,0.011013709479164474,0.02374788638660079,0.008347658545815293,0.9996224550761553,0,0,1,0.706825181105366,0.0,0.0,0.7073882691671998,0.0,0.0,0.0,0.0,0.0,0.0,0.0,0.0,0.0,0.0,0.0,0.0,0,0,3.7390000000000287,-0.49999984146591736,-0.49960183664463337,0.49999984146591736,0.5003981633553667,0.0,0.0,0.0,0.0,0.0,0.0,0.0,0.0,0.0,0.0,0.0,0.0
270,0.007237842393381581,-0.013876569308191712,1.9811950365046989,0.011002489831359864,0.025042991484939395,0.00836169572055279,0.9995908542197017,0,0,1,0.706825181105366,0.0,0.0,0.7073882691671998,0.0,0.0,0.0,0.0,0.0,0.0,0.0,0.0,0.0,0.0,0.0,0.0,0,0,3.72900000000003,-0.49999984146591736,-0.49960183664463337,0.49999984146591736,0.5003981633553667,0.0,0.0,0.0,0.0,0.0,0.0,0.0,0.0,0.0,0.0,0.0,0.0
280,0.007573717584273128,-0.013905692907330226,1.9810467249066728,0.010991213519554037,0.026333774023021693,0.008375545681372882,0.9995576900837746,0,0,1,0.706825181105366,0.0,0.0,0.7073882691671998,0.0,0.0,0.0,0.0,0.0,0.0,0.0,0.0,0.0,0.0,0.0,0.0,0,0,3.719000000000031,-0.49999984146591736,-0.49960183664463337,0.49999984146591736,0.5003981633553667,0.0,0.0,0.0,0.0,0.0,0.0,0.0,0.0,0.0,0.0,0.0,0.0
290,0.007908455145913706,-0.013935029620544636,1.9808921529702912,0.010980194366183756,0.027620263945389852,0.008389502579909842,0.999522972521257,0,0,1,0.706825181105366,0.0,0.0,0.7073882691671998,0.0,0.0,0.0,0.0,0.0,0.0,0.0,0.0,0.0,0.0,0.0,0.0,0,0,3.709000000000032,-0.49999984146591736,-0.49960183664463337,0.49999984146591736,0.5003981633553667,0.0,0.0,0.0,0.0,0.0,0.0,0.0,0.0,0.0,0.0,0.0,0.0
300,0.008246196543710792,-0.013819124627401253,1.9807239965595866,0.010870371707384953,0.028901136449752805,0.008329376712338412,0.9994884595704145,0,0,1,0.706825181105366,0.0,0.0,0.7073882691671998,0.0,0.0,0.0,0.0,0.0,0.0,0.0,0.0,0.0,0.0,0.0,0.0,0,0,3.699000000000033,-0.49999984146591736,-0.49960183664463337,0.49999984146591736,0.5003981633553667,0.0,0.0,0.0,0.0,0.0,0.0,0.0,0.0,0.0,0.0,0.0,0.0
310,0.00857711059502654,-0.013851656013540312,1.9805605442433762,0.010862731289563396,0.030181365536586867,0.008344001479430789,0.9994505810106815,0,0,1,0.706825181105366,0.0,0.0,0.7073882691671998,0.0,0.0,0.0,0.0,0.0,0.0,0.0,0.0,0.0,0.0,0.0,0.0,0,0,3.6890000000000343,-0.49999984146591736,-0.49960183664463337,0.49999984146591736,0.5003981633553667,0.0,0.0,0.0,0.0,0.0,0.0,0.0,0.0,0.0,0.0,0.0,0.0
320,0.008908047621626738,-0.013885445899503069,1.9803887465865067,0.01085599506395748,0.03145634431277864,0.008359661187782834,0.99941120758098,0,0,1,0.706825181105366,0.0,0.0,0.7073882691671998,0.0,0.0,0.0,0.0,0.0,0.0,0.0,0.0,0.0,0.0,0.0,0.0,0,0,3.6790000000000354,-0.49999984146591736,-0.49960183664463337,0.49999984146591736,0.5003981633553667,0.0,0.0,0.0,0.0,0.0,0.0,0.0,0.0,0.0,0.0,0.0,0.0
330,0.009238161290645369,-0.013916105571941577,1.9802102371753527,0.010846934425403897,0.03272669194166908,0.00837407697004305,0.9993703930390503,0,0,1,0.706825181105366,0.0,0.0,0.7073882691671998,0.0,0.0,0.0,0.0,0.0,0.0,0.0,0.0,0.0,0.0,0.0,0.0,0,0,3.6690000000000365,-0.49999984146591736,-0.49960183664463337,0.49999984146591736,0.5003981633553667,0.0,0.0,0.0,0.0,0.0,0.0,0.0,0.0,0.0,0.0,0.0,0.0
340,0.009567336753309192,-0.013945632978277361,1.980025431386091,0.01083704469028197,0.03399274938715498,0.008388098053216476,0.9993281199198452,0,0,1,0.706825181105366,0.0,0.0,0.7073882691671998,0.0,0.0,0.0,0.0,0.0,0.0,0.0,0.0,0.0,0.0,0.0,0.0,0,0,3.6590000000000376,-0.49999984146591736,-0.49960183664463337,0.49999984146591736,0.5003981633553667,0.0,0.0,0.0,0.0,0.0,0.0,0.0,0.0,0.0,0.0,0.0,0.0
350,0.009895536245437403,-0.013974976021413588,1.979834531174693,0.01082703693507902,0.03525469558283039,0.008402120339641342,0.9992843869911942,0,0,1,0.706825181105366,0.0,0.0,0.7073882691671998,0.0,0.0,0.0,0.0,0.0,0.0,0.0,0.0,0.0,0.0,0.0,0.0,0,0,3.6490000000000387,-0.49999984146591736,-0.49960183664463337,0.49999984146591736,0.5003981633553667,0.0,0.0,0.0,0.0,0.0,0.0,0.0,0.0,0.0,0.0,0.0,0.0
360,0.010222724167794453,-0.014004172385969616,1.9796376851303708,0.010816979918010011,0.036512627000140976,0.008416110929803234,0.999239205641882,0,0,1,0.706825181105366,0.0,0.0,0.7073882691671998,0.0,0.0,0.0,0.0,0.0,0.0,0.0,0.0,0.0,0.0,0.0,0.0,0,0,3.6390000000000398,-0.49999984146591736,-0.49960183664463337,0.49999984146591736,0.5003981633553667,0.0,0.0,0.0,0.0,0.0,0.0,0.0,0.0,0.0,0.0,0.0,0.0
370,0.010548890878398892,-0.014033246686775133,1.9794349873150818,0.01080690951619098,0.03776660941583361,0.008430058730371805,0.9991925880578494,0,0,1,0.706825181105366,0.0,0.0,0.7073882691671998,0.0,0.0,0.0,0.0,0.0,0.0,0.0,0.0,0.0,0.0,0.0,0.0,0,0,3.629000000000041,-0.49999984146591736,-0.49960183664463337,0.49999984146591736,0.5003981633553667,0.0,0.0,0.0,0.0,0.0,0.0,0.0,0.0,0.0,0.0,0.0,0.0
380,0.01087405882440034,-0.014062129182691268,1.9792265553780304,0.010795786438214054,0.039016672507385705,0.008444947994637204,0.9991445506607138,0,0,1,0.706825181105366,0.0,0.0,0.7073882691671998,0.0,0.0,0.0,0.0,0.0,0.0,0.0,0.0,0.0,0.0,0.0,0.0,0,0,3.619000000000042,-0.49999984146591736,-0.49960183664463337,0.49999984146591736,0.5003981633553667,0.0,0.0,0.0,0.0,0.0,0.0,0.0,0.0,0.0,0.0,0.0,0.0
390,0.01119821954916679,-0.01409095101215212,1.9790123747380528,0.010785070080311307,0.04026294981726301,0.008459406145929289,0.999095098368035,0,0,1,0.706825181105366,0.0,0.0,0.7073882691671998,0.0,0.0,0.0,0.0,0.0,0.0,0.0,0.0,0.0,0.0,0.0,0.0,0,0,3.609000000000043,-0.49999984146591736,-0.49960183664463337,0.49999984146591736,0.5003981633553667,0.0,0.0,0.0,0.0,0.0,0.0,0.0,0.0,0.0,0.0,0.0,0.0
400,0.011521347884210146,-0.0141193334585143,1.978792538438329,0.010774469620249172,0.04150545016605903,0.008473287038944833,0.9990442491790195,0,0,1,0.706825181105366,0.0,0.0,0.7073882691671998,0.0,0.0,0.0,0.0,0.0,0.0,0.0,0.0,0.0,0.0,0.0,0.0,0,0,3.599000000000044,-0.49999984146591736,-0.49960183664463337,0.49999984146591736,0.5003981633553667,0.0,0.0,0.0,0.0,0.0,0.0,0.0,0.0,0.0,0.0,0.0,0.0
410,0.011844764616821376,-0.014253562097846995,1.9785633839658694,0.010836596680214253,0.04274297327552867,0.00854055244873559,0.998990823467277,0,0,1,0.706825181105366,0.0,0.0,0.7073882691671998,0.0,0.0,0.0,0.0,0.0,0.0,0.0,0.0,0.0,0.0,0.0,0.0,0,0,3.5890000000000453,-0.49999984146591736,-0.49960183664463337,0.49999984146591736,0.5003981633553667,0.0,0.0,0.0,0.0,0.0,0.0,0.0,0.0,0.0,0.0,0.0,0.0
420,0.012164746482902538,-0.01429449410719047,1.978335045364628,0.010835035709596668,0.04397866181408918,0.00856010326742756,0.9989370370239882,0,0,1,0.706825181105366,0.0,0.0,0.7073882691671998,0.0,0.0,0.0,0.0,0.0,0.0,0.0,0.0,0.0,0.0,0.0,0.0,0,0,3.5790000000000464,-0.49999984146591736,-0.49960183664463337,0.49999984146591736,0.5003981633553667,0.0,0.0,0.0,0.0,0.0,0.0,0.0,0.0,0.0,0.0,0.0,0.0
430,0.012484407476056718,-0.014328031133201047,1.9780996670378685,0.010828439356615724,0.04521026791649138,0.008576050633220525,0.9988819889914702,0,0,1,0.706825181105366,0.0,0.0,0.7073882691671998,0.0,0.0,0.0,0.0,0.0,0.0,0.0,0.0,0.0,0.0,0.0,0.0,0,0,3.5690000000000475,-0.49999984146591736,-0.49960183664463337,0.49999984146591736,0.5003981633553667,0.0,0.0,0.0,0.0,0.0,0.0,0.0,0.0,0.0,0.0,0.0,0.0
440,0.012803363819908918,-0.014358552662667473,1.9778581837791849,0.010819806892729527,0.04643805049408312,0.008590565880767733,0.9988256311403714,0,0,1,0.706825181105366,0.0,0.0,0.7073882691671998,0.0,0.0,0.0,0.0,0.0,0.0,0.0,0.0,0.0,0.0,0.0,0.0,0,0,3.5590000000000486,-0.49999984146591736,-0.49960183664463337,0.49999984146591736,0.5003981633553667,0.0,0.0,0.0,0.0,0.0,0.0,0.0,0.0,0.0,0.0,0.0,0.0
450,0.013121518102142628,-0.014387097020170988,1.9776109421427612,0.010809873512149537,0.04766215717480893,0.008604140035484726,0.9987679581275848,0,0,1,0.706825181105366,0.0,0.0,0.7073882691671998,0.0,0.0,0.0,0.0,0.0,0.0,0.0,0.0,0.0,0.0,0.0,0.0,0,0,3.5490000000000497,-0.49999984146591736,-0.49960183664463337,0.49999984146591736,0.5003981633553667,0.0,0.0,0.0,0.0,0.0,0.0,0.0,0.0,0.0,0.0,0.0,0.0
460,0.013438762534457189,-0.014415037840188022,1.9773582108991334,0.010799586145339933,0.0488826572769501,0.008617447204868995,0.9987089637929084,0,0,1,0.706825181105366,0.0,0.0,0.7073882691671998,0.0,0.0,0.0,0.0,0.0,0.0,0.0,0.0,0.0,0.0,0.0,0.0,0,0,3.5390000000000508,-0.49999984146591736,-0.49960183664463337,0.49999984146591736,0.5003981633553667,0.0,0.0,0.0,0.0,0.0,0.0,0.0,0.0,0.0,0.0,0.0,0.0
470,0.013755051477002471,-0.014443016879141889,1.9771001379697684,0.010789392694332928,0.05009959780124748,0.008630794143783933,0.998648651277259,0,0,1,0.706825181105366,0.0,0.0,0.7073882691671998,0.0,0.0,0.0,0.0,0.0,0.0,0.0,0.0,0.0,0.0,0.0,0.0,0,0,3.529000000000052,-0.49999984146591736,-0.49960183664463337,0.49999984146591736,0.5003981633553667,0.0,0.0,0.0,0.0,0.0,0.0,0.0,0.0,0.0,0.0,0.0,0.0
480,0.014070436961971858,-0.01447061572573467,1.9768367511209233,0.010779019505824843,0.051313068608518246,0.008643956444240356,0.9985870336357571,0,0,1,0.706825181105366,0.0,0.0,0.7073882691671998,0.0,0.0,0.0,0.0,0.0,0.0,0.0,0.0,0.0,0.0,0.0,0.0,0,0,3.519000000000053,-0.49999984146591736,-0.49960183664463337,0.49999984146591736,0.5003981633553667,0.0,0.0,0.0,0.0,0.0,0.0,0.0,0.0,0.0,0.0,0.0,0.0
490,0.01433526325485567,-0.014198165896097754,1.9766180994812006,0.010535901562193565,0.052413661994912424,0.008474052527065207,0.9985339219317105,0,0,1,0.706825181105366,0.0,0.0,0.7073882691671998,0.0,0.0,0.0,0.0,0.0,0.0,0.0,0.0,0.0,0.0,0.0,0.0,0,0,3.509000000000054,-0.49999984146591736,-0.49960183664463337,0.49999984146591736,0.5003981633553667,0.0,0.0,0.0,0.0,0.0,0.0,0.0,0.0,0.0,0.0,0.0,0.0
500,0.014516881794516656,-0.013582106165593572,1.9764870809794788,0.009994688566423776,0.053328575761166036,0.008068894233595435,0.9984943976575896,0,0,1,0.706825181105366,0.0,0.0,0.7073882691671998,0.0,0.0,0.0,0.0,0.0,0.0,0.0,0.0,0.0,0.0,0.0,0.0,0,0,3.499000000000055,-0.49999984146591736,-0.49960183664463337,0.49999984146591736,0.5003981633553667,0.0,0.0,0.0,0.0,0.0,0.0,0.0,0.0,0.0,0.0,0.0,0.0
510,0.014659728050984129,-0.012870528100966444,1.9763961416681464,0.009349371087874894,0.05414109012792768,0.00757919263640669,0.9984607590982237,0,0,1,0.706825181105366,0.0,0.0,0.7073882691671998,0.0,0.0,0.0,0.0,0.0,0.0,0.0,0.0,0.0,0.0,0.0,0.0,0,0,3.4890000000000563,-0.49999984146591736,-0.49960183664463337,0.49999984146591736,0.5003981633553667,0.0,0.0,0.0,0.0,0.0,0.0,0.0,0.0,0.0,0.0,0.0,0.0
520,0.01478498991844176,-0.012128158648237717,1.9763220392152545,0.008665049883186306,0.05490368018490772,0.007056489849721422,0.998429120550716,0,0,1,0.706825181105366,0.0,0.0,0.7073882691671998,0.0,0.0,0.0,0.0,0.0,0.0,0.0,0.0,0.0,0.0,0.0,0.0,0,0,3.4790000000000574,-0.49999984146591736,-0.49960183664463337,0.49999984146591736,0.5003981633553667,0.0,0.0,0.0,0.0,0.0,0.0,0.0,0.0,0.0,0.0,0.0,0.0
530,0.014902976945396183,-0.011367506835201213,1.9762540129667527,0.00796191627942873,0.055647363289233406,0.006517098932709013,0.998397469082137,0,0,1,0.706825181105366,0.0,0.0,0.7073882691671998,0.0,0.0,0.0,0.0,0.0,0.0,0.0,0.0,0.0,0.0,0.0,0.0,0,0,3.4690000000000585,-0.49999984146591736,-0.49960183664463337,0.49999984146591736,0.5003981633553667,0.0,0.0,0.0,0.0,0.0,0.0,0.0,0.0,0.0,0.0,0.0,0.0
540,0.015018670906312022,-0.010587785402981656,1.9761870380416426,0.007245309841178533,0.05638917331934898,0.0059654479862889095,0.9983647530076313,0,0,1,0.706825181105366,0.0,0.0,0.7073882691671998,0.0,0.0,0.0,0.0,0.0,0.0,0.0,0.0,0.0,0.0,0.0,0.0,0,0,3.4590000000000596,-0.49999984146591736,-0.49960183664463337,0.49999984146591736,0.5003981633553667,0.0,0.0,0.0,0.0,0.0,0.0,0.0,0.0,0.0,0.0,0.0,0.0
550,0.01513455974917532,-0.009786083313928894,1.976118614648978,0.006516136075270162,0.05713839612384656,0.005402321425139078,0.9983303854848166,0,0,1,0.706825181105366,0.0,0.0,0.7073882691671998,0.0,0.0,0.0,0.0,0.0,0.0,0.0,0.0,0.0,0.0,0.0,0.0,0,0,3.4490000000000607,-0.49999984146591736,-0.49960183664463337,0.49999984146591736,0.5003981633553667,0.0,0.0,0.0,0.0,0.0,0.0,0.0,0.0,0.0,0.0,0.0,0.0
560,0.01525280067333446,-0.00896055489937773,1.9760466284128135,0.005773354120863203,0.057903795915932144,0.004826918536806545,0.9982938042771579,0,0,1,0.706825181105366,0.0,0.0,0.7073882691671998,0.0,0.0,0.0,0.0,0.0,0.0,0.0,0.0,0.0,0.0,0.0,0.0,0,0,3.439000000000062,-0.49999984146591736,-0.49960183664463337,0.49999984146591736,0.5003981633553667,0.0,0.0,0.0,0.0,0.0,0.0,0.0,0.0,0.0,0.0,0.0,0.0
570,0.015371938624949314,-0.008108027785841401,1.975970261125364,0.005016412151489622,0.05868045068169805,0.004238918011630922,0.9982552138060737,0,0,1,0.706825181105366,0.0,0.0,0.7073882691671998,0.0,0.0,0.0,0.0,0.0,0.0,0.0,0.0,0.0,0.0,0.0,0.0,0,0,3.429000000000063,-0.49999984146591736,-0.49960183664463337,0.49999984146591736,0.5003981633553667,0.0,0.0,0.0,0.0,0.0,0.0,0.0,0.0,0.0,0.0,0.0,0.0
580,0.015493265677480751,-0.007228251651534354,1.9758906827714087,0.004246904016525442,0.0594723891389612,0.003639119008202101,0.9982142833826926,0,0,1,0.706825181105366,0.0,0.0,0.7073882691671998,0.0,0.0,0.0,0.0,0.0,0.0,0.0,0.0,0.0,0.0,0.0,0.0,0,0,3.419000000000064,-0.49999984146591736,-0.49960183664463337,0.49999984146591736,0.5003981633553667,0.0,0.0,0.0,0.0,0.0,0.0,0.0,0.0,0.0,0.0,0.0,0.0
590,0.01561718668452258,-0.006318246308200037,1.9758076284491668,0.0034636989880987667,0.06028145644452851,0.003026502322582143,0.9981708215941486,0,0,1,0.706825181105366,0.0,0.0,0.7073882691671998,0.0,0.0,0.0,0.0,0.0,0.0,0.0,0.0,0.0,0.0,0.0,0.0,0,0,3.409000000000065,-0.49999984146591736,-0.49960183664463337,0.49999984146591736,0.5003981633553667,0.0,0.0,0.0,0.0,0.0,0.0,0.0,0.0,0.0,0.0,0.0,0.0
600,0.015743664571923,-0.005376043509950243,1.9757205158078237,0.0026659483146637313,0.06110780364063206,0.002400340217701721,0.9981247253828756,0,0,1,0.706825181105366,0.0,0.0,0.7073882691671998,0.0,0.0,0.0,0.0,0.0,0.0,0.0,0.0,0.0,0.0,0.0,0.0,0,0,3.399000000000066,-0.49999984146591736,-0.49960183664463337,0.49999984146591736,0.5003981633553667,0.0,0.0,0.0,0.0,0.0,0.0,0.0,0.0,0.0,0.0,0.0,0.0
610,0.015871861273637603,-0.004401246723455409,1.9756297857986613,0.0018531928689017995,0.06194814417901184,0.0017601615439436357,0.9980760967683306,0,0,1,0.706825181105366,0.0,0.0,0.7073882691671998,0.0,0.0,0.0,0.0,0.0,0.0,0.0,0.0,0.0,0.0,0.0,0.0,0,0,3.3890000000000673,-0.49999984146591736,-0.49960183664463337,0.49999984146591736,0.5003981633553667,0.0,0.0,0.0,0.0,0.0,0.0,0.0,0.0,0.0,0.0,0.0,0.0
620,0.016001609809619784,-0.0034019303586663935,1.9755387990542455,0.0010303836784001151,0.06279663229394117,0.0011092087583529353,0.9980251955426502,0,0,1,0.706825181105366,0.0,0.0,0.7073882691671998,0.0,0.0,0.0,0.0,0.0,0.0,0.0,0.0,0.0,0.0,0.0,0.0,0,0,3.3790000000000684,-0.49999984146591736,-0.49960183664463337,0.49999984146591736,0.5003981633553667,0.0,0.0,0.0,0.0,0.0,0.0,0.0,0.0,0.0,0.0,0.0,0.0
630,0.016134777863907056,-0.0023701235888997736,1.9754461333195799,0.00019386354899196404,0.06366053968495484,0.0004447043476982611,0.9979714927501625,0,0,1,0.706825181105366,0.0,0.0,0.7073882691671998,0.0,0.0,0.0,0.0,0.0,0.0,0.0,0.0,0.0,0.0,0.0,0.0,0,0,3.3690000000000695,-0.49999984146591736,-0.49960183664463337,0.49999984146591736,0.5003981633553667,0.0,0.0,0.0,0.0,0.0,0.0,0.0,0.0,0.0,0.0,0.0,0.0
640,0.016227496504005425,-0.0015276715716295178,1.9753748299462228,-0.0004016005499433312,0.06426776123560982,-2.9302759096590953e-05,0.9979326093099219,0,0,1,0.706825181105366,0.0,0.0,0.7073882691671998,0.0,0.0,0.0,0.0,0.0,0.0,0.0,0.0,0.0,0.0,0.0,0.0,0,0,3.3590000000000706,-0.49999984146591736,-0.49960183664463337,0.49999984146591736,0.5003981633553667,0.0,0.0,0.0,0.0,0.0,0.0,0.0,0.0,0.0,0.0,0.0,0.0
650,0.016228004709860324,-0.0015369099650939767,1.9753716284233833,-0.0003973481004315795,0.0642644688173998,-2.4857424113723442e-05,0.9979328231620669,0,0,1,0.706825181105366,0.0,0.0,0.7073882691671998,0.0,0.0,0.0,0.0,0.0,0.0,0.0,0.0,0.0,0.0,0.0,0.0,0,0,3.3490000000000717,-0.49999984146591736,-0.49960183664463337,0.49999984146591736,0.5003981633553667,0.0,0.0,0.0,0.0,0.0,0.0,0.0,0.0,0.0,0.0,0.0,0.0
660,0.016228613412355035,-0.0015428909709014021,1.9753700858559369,-0.00039587195218837383,0.06426202851858608,-2.1743944105820274e-05,0.9979329809677977,0,0,1,0.706825181105366,0.0,0.0,0.7073882691671998,0.0,0.0,0.0,0.0,0.0,0.0,0.0,0.0,0.0,0.0,0.0,0.0,0,0,3.339000000000073,-0.49999984146591736,-0.49960183664463337,0.49999984146591736,0.5003981633553667,0.0,0.0,0.0,0.0,0.0,0.0,0.0,0.0,0.0,0.0,0.0,0.0
670,0.0162290791596897,-0.0015468050042263723,1.9753691394777586,-0.00039567670621250896,0.0642601114379638,-1.9374643747956947e-05,0.9979331045428586,0,0,1,0.706825181105366,0.0,0.0,0.7073882691671998,0.0,0.0,0.0,0.0,0.0,0.0,0.0,0.0,0.0,0.0,0.0,0.0,0,0,3.329000000000074,-0.49999984146591736,-0.49960183664463337,0.49999984146591736,0.5003981633553667,0.0,0.0,0.0,0.0,0.0,0.0,0.0,0.0,0.0,0.0,0.0,0.0
680,0.016229439642434694,-0.0015496767633223873,1.9753684962395663,-0.00039592881154599147,0.06425859228290969,-1.75010451902851e-05,0.9979332022995869,0,0,1,0.706825181105366,0.0,0.0,0.7073882691671998,0.0,0.0,0.0,0.0,0.0,0.0,0.0,0.0,0.0,0.0,0.0,0.0,0,0,3.319000000000075,-0.49999984146591736,-0.49960183664463337,0.49999984146591736,0.5003981633553667,0.0,0.0,0.0,0.0,0.0,0.0,0.0,0.0,0.0,0.0,0.0,0.0
690,0.01622972218509729,-0.0015519070369401937,1.9753680346961953,-0.00039631500904278703,0.06425739773034869,-1.6015569155806122e-05,0.997933279089759,0,0,1,0.706825181105366,0.0,0.0,0.7073882691671998,0.0,0.0,0.0,0.0,0.0,0.0,0.0,0.0,0.0,0.0,0.0,0.0,0,0,3.309000000000076,-0.49999984146591736,-0.49960183664463337,0.49999984146591736,0.5003981633553667,0.0,0.0,0.0,0.0,0.0,0.0,0.0,0.0,0.0,0.0,0.0,0.0
700,0.01622993986898826,-0.001553753582456,1.975367688493195,-0.0003966945296259996,0.0642564554536633,-1.4815682942520542e-05,0.9979333396306975,0,0,1,0.706825181105366,0.0,0.0,0.7073882691671998,0.0,0.0,0.0,0.0,0.0,0.0,0.0,0.0,0.0,0.0,0.0,0.0,0,0,3.299000000000077,-0.49999984146591736,-0.49960183664463337,0.49999984146591736,0.5003981633553667,0.0,0.0,0.0,0.0,0.0,0.0,0.0,0.0,0.0,0.0,0.0,0.0
710,0.016230116207402473,-0.0015553186623671919,1.9753674220500106,-0.000397030057367219,0.06425571417977861,-1.3847241271250964e-05,0.9979333872411695,0,0,1,0.706825181105366,0.0,0.0,0.7073882691671998,0.0,0.0,0.0,0.0,0.0,0.0,0.0,0.0,0.0,0.0,0.0,0.0,0,0,3.2890000000000783,-0.49999984146591736,-0.49960183664463337,0.49999984146591736,0.5003981633553667,0.0,0.0,0.0,0.0,0.0,0.0,0.0,0.0,0.0,0.0,0.0,0.0
720,0.016230250280382035,-0.0015566841576376638,1.9753672161535956,-0.00039731030965797103,0.06425513227753411,-1.3055639946561395e-05,0.9979334246081072,0,0,1,0.706825181105366,0.0,0.0,0.7073882691671998,0.0,0.0,0.0,0.0,0.0,0.0,0.0,0.0,0.0,0.0,0.0,0.0,0,0,3.2790000000000794,-0.49999984146591736,-0.49960183664463337,0.49999984146591736,0.5003981633553667,0.0,0.0,0.0,0.0,0.0,0.0,0.0,0.0,0.0,0.0,0.0,0.0
730,0.01623020472820741,-0.0015573653855609501,1.9753672536672282,-0.0003974003500530146,0.06425530905700219,-1.3077685901262872e-05,0.9979334131894397,0,0,1,0.706825181105366,0.0,0.0,0.7073882691671998,0.0,0.0,0.0,0.0,0.0,0.0,0.0,0.0,0.0,0.0,0.0,0.0,0,0,3.2690000000000805,-0.49999984146591736,-0.49960183664463337,0.49999984146591736,0.5003981633553667,0.0,0.0,0.0,0.0,0.0,0.0,0.0,0.0,0.0,0.0,0.0,0.0
740,0.016230153243179966,-0.0015581572833519796,1.9753672983751844,-0.00039740503177631425,0.06425550149618382,-1.3098818695182347e-05,0.9979334007964337,0,0,1,0.706825181105366,0.0,0.0,0.7073882691671998,0.0,0.0,0.0,0.0,0.0,0.0,0.0,0.0,0.0,0.0,0.0,0.0,0,0,3.2590000000000816,-0.49999984146591736,-0.49960183664463337,0.49999984146591736,0.5003981633553667,0.0,0.0,0.0,0.0,0.0,0.0,0.0,0.0,0.0,0.0,0.0,0.0
750,0.016230297215008332,-0.0015597027820294985,1.9753671077125812,-0.0003974618638557424,0.0642549417766478,-1.2290517620079727e-05,0.9979334368234635,0,0,1,0.706825181105366,0.0,0.0,0.7073882691671998,0.0,0.0,0.0,0.0,0.0,0.0,0.0,0.0,0.0,0.0,0.0,0.0,0,0,3.2490000000000827,-0.49999984146591736,-0.49960183664463337,0.49999984146591736,0.5003981633553667,0.0,0.0,0.0,0.0,0.0,0.0,0.0,0.0,0.0,0.0,0.0,0.0
760,0.01623024399565931,-0.0015604784704665712,1.975367183289048,-0.0003974241994494592,0.0642551750669819,-1.2404036671552473e-05,0.9979334218159331,0,0,1,0.706825181105366,0.0,0.0,0.7073882691671998,0.0,0.0,0.0,0.0,0.0,0.0,0.0,0.0,0.0,0.0,0.0,0.0,0,0,3.239000000000084,-0.49999984146591736,-0.49960183664463337,0.49999984146591736,0.5003981633553667,0.0,0.0,0.0,0.0,0.0,0.0,0.0,0.0,0.0,0.0,0.0,0.0
770,0.01623016303512974,-0.0015610635676094567,1.975367287217822,-0.0003974664794543319,0.06425551528957532,-1.2618018927932918e-05,0.99793339989002,0,0,1,0.706825181105366,0.0,0.0,0.7073882691671998,0.0,0.0,0.0,0.0,0.0,0.0,0.0,0.0,0.0,0.0,0.0,0.0,0,0,3.229000000000085,-0.49999984146591736,-0.49960183664463337,0.49999984146591736,0.5003981633553667,0.0,0.0,0.0,0.0,0.0,0.0,0.0,0.0,0.0,0.0,0.0,0.0
780,0.016230311672297795,-0.0015627730739155355,1.9753670693206262,-0.00039742390631975264,0.06425491343440029,-1.1727604095571681e-05,0.9979334386702551,0,0,1,0.706825181105366,0.0,0.0,0.7073882691671998,0.0,0.0,0.0,0.0,0.0,0.0,0.0,0.0,0.0,0.0,0.0,0.0,0,0,3.219000000000086,-0.49999984146591736,-0.49960183664463337,0.49999984146591736,0.5003981633553667,0.0,0.0,0.0,0.0,0.0,0.0,0.0,0.0,0.0,0.0,0.0,0.0
790,0.01623024974193944,-0.001563449060327912,1.9753671612765484,-0.0003973998041276606,0.06425519910233642,-1.1897176643929183e-05,0.9979334202842252,0,0,1,0.706825181105366,0.0,0.0,0.7073882691671998,0.0,0.0,0.0,0.0,0.0,0.0,0.0,0.0,0.0,0.0,0.0,0.0,0,0,3.209000000000087,-0.49999984146591736,-0.49960183664463337,0.49999984146591736,0.5003981633553667,0.0,0.0,0.0,0.0,0.0,0.0,0.0,0.0,0.0,0.0,0.0,0.0
800,0.016230386246614,-0.0015650390973047385,1.9753669534104663,-0.0003974107774355034,0.06425464125400883,-1.1052305646099435e-05,0.9979334562082981,0,0,1,0.706825181105366,0.0,0.0,0.7073882691671998,0.0,0.0,0.0,0.0,0.0,0.0,0.0,0.0,0.0,0.0,0.0,0.0,0,0,3.199000000000088,-0.49999984146591736,-0.49960183664463337,0.49999984146591736,0.5003981633553667,0.0,0.0,0.0,0.0,0.0,0.0,0.0,0.0,0.0,0.0,0.0,0.0
810,0.0162303068081248,-0.0015657024345409503,1.9753670581628875,-0.0003973780559787628,0.06425497827138939,-1.1244365681824354e-05,0.9979334345193511,0,0,1,0.706825181105366,0.0,0.0,0.7073882691671998,0.0,0.0,0.0,0.0,0.0,0.0,0.0,0.0,0.0,0.0,0.0,0.0,0,0,3.1890000000000893,-0.49999984146591736,-0.49960183664463337,0.49999984146591736,0.5003981633553667,0.0,0.0,0.0,0.0,0.0,0.0,0.0,0.0,0.0,0.0,0.0,0.0
820,0.01623022778910346,-0.0015662421445861296,1.97536717491971,-0.0003974031798899966,0.06425533357414824,-1.147549049612556e-05,0.9979334116294036,0,0,1,0.706825181105366,0.0,0.0,0.7073882691671998,0.0,0.0,0.0,0.0,0.0,0.0,0.0,0.0,0.0,0.0,0.0,0.0,0,0,3.1790000000000904,-0.49999984146591736,-0.49960183664463337,0.49999984146591736,0.5003981633553667,0.0,0.0,0.0,0.0,0.0,0.0,0.0,0.0,0.0,0.0,0.0,0.0
830,0.0162303727549493,-0.0015679452674691912,1.9753669498222828,-0.00039734764524063316,0.06425472934204285,-1.0558452550442956e-05,0.9979334505669949,0,0,1,0.706825181105366,0.0,0.0,0.7073882691671998,0.0,0.0,0.0,0.0,0.0,0.0,0.0,0.0,0.0,0.0,0.0,0.0,0,0,3.1690000000000915,-0.49999984146591736,-0.49960183664463337,0.49999984146591736,0.5003981633553667,0.0,0.0,0.0,0.0,0.0,0.0,0.0,0.0,0.0,0.0,0.0,0.0
840,0.016230491449079832,-0.0015694283428342413,1.9753667586782133,-0.0003973913089200946,0.06425422792642953,-9.739022569819953e-06,0.9979334828428584,0,0,1,0.706825181105366,0.0,0.0,0.7073882691671998,0.0,0.0,0.0,0.0,0.0,0.0,0.0,0.0,0.0,0.0,0.0,0.0,0,0,3.1590000000000926,-0.49999984146591736,-0.49960183664463337,0.49999984146591736,0.5003981633553667,0.0,0.0,0.0,0.0,0.0,0.0,0.0,0.0,0.0,0.0,0.0,0.0
850,0.016230418357898218,-0.001570148047415553,1.975366862160034,-0.0003973054714405339,0.06425457580877984,-9.913319013465722e-06,0.9979334604760591,0,0,1,0.706825181105366,0.0,0.0,0.7073882691671998,0.0,0.0,0.0,0.0,0.0,0.0,0.0,0.0,0.0,0.0,0.0,0.0,0,0,3.1490000000000937,-0.49999984146591736,-0.49960183664463337,0.49999984146591736,0.5003981633553667,0.0,0.0,0.0,0.0,0.0,0.0,0.0,0.0,0.0,0.0,0.0,0.0
860,0.01623033377621185,-0.0015706647106269467,1.975366992410067,-0.00039731222788239956,0.06425496566180461,-1.0164103889765075e-05,0.9979334353690555,0,0,1,0.706825181105366,0.0,0.0,0.7073882691671998,0.0,0.0,0.0,0.0,0.0,0.0,0.0,0.0,0.0,0.0,0.0,0.0,0,0,3.139000000000095,-0.49999984146591736,-0.49960183664463337,0.49999984146591736,0.5003981633553667,0.0,0.0,0.0,0.0,0.0,0.0,0.0,0.0,0.0,0.0,0.0,0.0
870,0.016230476156830254,-0.0015722897809070375,1.9753667705709983,-0.00039729022345408733,0.06425438611352262,-9.24782046935915e-06,0.9979334727025296,0,0,1,0.706825181105366,0.0,0.0,0.7073882691671998,0.0,0.0,0.0,0.0,0.0,0.0,0.0,0.0,0.0,0.0,0.0,0.0,0,0,3.129000000000096,-0.49999984146591736,-0.49960183664463337,0.49999984146591736,0.5003981633553667,0.0,0.0,0.0,0.0,0.0,0.0,0.0,0.0,0.0,0.0,0.0,0.0
880,0.016230591924506488,-0.001573703600503524,1.9753665849479944,-0.0003973494112656139,0.0642539067553312,-8.431289666885328e-06,0.9979335035507305,0,0,1,0.706825181105366,0.0,0.0,0.7073882691671998,0.0,0.0,0.0,0.0,0.0,0.0,0.0,0.0,0.0,0.0,0.0,0.0,0,0,3.119000000000097,-0.49999984146591736,-0.49960183664463337,0.49999984146591736,0.5003981633553667,0.0,0.0,0.0,0.0,0.0,0.0,0.0,0.0,0.0,0.0,0.0,0.0
890,0.01623050401822452,-0.001574439180525459,1.9753666969942483,-0.00039723209675633994,0.06425428407586867,-8.607461380296624e-06,0.9979334793013362,0,0,1,0.706825181105366,0.0,0.0,0.7073882691671998,0.0,0.0,0.0,0.0,0.0,0.0,0.0,0.0,0.0,0.0,0.0,0.0,0,0,3.109000000000098,-0.49999984146591736,-0.49960183664463337,0.49999984146591736,0.5003981633553667,0.0,0.0,0.0,0.0,0.0,0.0,0.0,0.0,0.0,0.0,0.0,0.0
900,0.016230626407422125,-0.0015760625877396228,1.975366485643546,-0.0003972332072571888,0.06425376380713073,-7.659901851152602e-06,0.9979335128072022,0,0,1,0.706825181105366,0.0,0.0,0.7073882691671998,0.0,0.0,0.0,0.0,0.0,0.0,0.0,0.0,0.0,0.0,0.0,0.0,0,0,3.0990000000000992,-0.49999984146591736,-0.49960183664463337,0.49999984146591736,0.5003981633553667,0.0,0.0,0.0,0.0,0.0,0.0,0.0,0.0,0.0,0.0,0.0,0.0
910,0.016230494984084697,-0.001576287746967746,1.9753667127619992,-0.0003972926566604609,0.06425439145257734,-8.152451336115895e-06,0.9979334723673424,0,0,1,0.706825181105366,0.0,0.0,0.7073882691671998,0.0,0.0,0.0,0.0,0.0,0.0,0.0,0.0,0.0,0.0,0.0,0.0,0,0,3.0890000000001003,-0.49999984146591736,-0.49960183664463337,0.49999984146591736,0.5003981633553667,0.0,0.0,0.0,0.0,0.0,0.0,0.0,0.0,0.0,0.0,0.0,0.0
920,0.016230616267256106,-0.0015777189319886409,1.9753665159515081,-0.00039730075299152824,0.0642538873051957,-7.2936051010743124e-06,0.9979335048314022,0,0,1,0.706825181105366,0.0,0.0,0.7073882691671998,0.0,0.0,0.0,0.0,0.0,0.0,0.0,0.0,0.0,0.0,0.0,0.0,0,0,3.0790000000001014,-0.49999984146591736,-0.49960183664463337,0.49999984146591736,0.5003981633553667,0.0,0.0,0.0,0.0,0.0,0.0,0.0,0.0,0.0,0.0,0.0,0.0
930,0.016230486794356572,-0.0015778809490493563,1.9753667191119024,-0.0003973326244048464,0.06425447591578078,-7.771214369208598e-06,0.9979334669160976,0,0,1,0.706825181105366,0.0,0.0,0.7073882691671998,0.0,0.0,0.0,0.0,0.0,0.0,0.0,0.0,0.0,0.0,0.0,0.0,0,0,3.0690000000001025,-0.49999984146591736,-0.49960183664463337,0.49999984146591736,0.5003981633553667,0.0,0.0,0.0,0.0,0.0,0.0,0.0,0.0,0.0,0.0,0.0,0.0
940,0.016230632878575985,-0.0015797276224445737,1.9753664577872427,-0.00039718363624470943,0.06425386949394633,-6.694351285744087e-06,0.9979335060290339,0,0,1,0.706825181105366,0.0,0.0,0.7073882691671998,0.0,0.0,0.0,0.0,0.0,0.0,0.0,0.0,0.0,0.0,0.0,0.0,0,0,3.0590000000001036,-0.49999984146591736,-0.49960183664463337,0.49999984146591736,0.5003981633553667,0.0,0.0,0.0,0.0,0.0,0.0,0.0,0.0,0.0,0.0,0.0,0.0
950,0.016230753238892195,-0.0015812350887833531,1.975366253696919,-0.00039720143373907587,0.06425337759284273,-5.7487763830276754e-06,0.9979335376997228,0,0,1,0.706825181105366,0.0,0.0,0.7073882691671998,0.0,0.0,0.0,0.0,0.0,0.0,0.0,0.0,0.0,0.0,0.0,0.0,0,0,3.0490000000001047,-0.49999984146591736,-0.49960183664463337,0.49999984146591736,0.5003981633553667,0.0,0.0,0.0,0.0,0.0,0.0,0.0,0.0,0.0,0.0,0.0,0.0
960,0.016230596455412614,-0.0015812590990053048,1.9753664952269268,-0.00039729253201715867,0.06425407929984228,-6.290844581968695e-06,0.9979334924795333,0,0,1,0.706825181105366,0.0,0.0,0.7073882691671998,0.0,0.0,0.0,0.0,0.0,0.0,0.0,0.0,0.0,0.0,0.0,0.0,0,0,3.039000000000106,-0.49999984146591736,-0.49960183664463337,0.49999984146591736,0.5003981633553667,0.0,0.0,0.0,0.0,0.0,0.0,0.0,0.0,0.0,0.0,0.0,0.0
970,0.016230729289102505,-0.0015829221474023508,1.9753662633422149,-0.0003971993213898302,0.06425352874966428,-5.251301972763181e-06,0.9979335279708459,0,0,1,0.706825181105366,0.0,0.0,0.7073882691671998,0.0,0.0,0.0,0.0,0.0,0.0,0.0,0.0,0.0,0.0,0.0,0.0,0,0,3.029000000000107,-0.49999984146591736,-0.49960183664463337,0.49999984146591736,0.5003981633553667,0.0,0.0,0.0,0.0,0.0,0.0,0.0,0.0,0.0,0.0,0.0,0.0
980,0.016230575709468124,-0.0015831393125243947,1.9753664293943274,-0.0003972104270488521,0.06425413367724903,-5.611176857493664e-06,0.9979334890150633,0,0,1,0.706825181105366,0.0,0.0,0.7073882691671998,0.0,0.0,0.0,0.0,0.0,0.0,0.0,0.0,0.0,0.0,0.0,0.0,0,0,3.019000000000108,-0.49999984146591736,-0.49960183664463337,0.49999984146591736,0.5003981633553667,0.0,0.0,0.0,0.0,0.0,0.0,0.0,0.0,0.0,0.0,0.0,0.0
990,0.016217987081553364,-0.0014657813216128923,1.975379073108201,-0.0004388400554161008,0.0642243315239965,-4.071459110874046e-05,0.9979353891921178,0,0,1,0.706825181105366,0.0,0.0,0.7073882691671998,0.0,0.0,0.0,0.0,0.0,0.0,0.0,0.0,0.0,0.0,0.0,0.0,0,0,3.009000000000109,-0.49999984146591736,-0.49960183664463337,0.49999984146591736,0.5003981633553667,0.0,0.0,0.0,0.0,0.0,0.0,0.0,0.0,0.0,0.0,0.0,0.0
1000,0.015948115382803718,0.0010993571784877847,1.9756966922296013,-0.001323496311082046,0.0636184391913373,-0.0007489638168001835,0.9979731367153997,0,-0.00157,1.0,0.7062696635894389,0.0,0.0,0.7079429089222243,0.0,0.0,0.0,0.0,0.0,0.0,0.0,0.0,0.0,0.0,0.0,0.0,0,0.00157,3.00000000000011,-0.5003921872449635,-0.4992088701931799,0.5003921872449635,0.5000058217749588,0.0,0.0,0.0,0.0,0.0,0.0,0.0,0.0,0.0,0.0001,0.0,0.0
1010,0.015870190164101662,0.004058460718277108,1.9753967938068402,-0.004229597634011067,0.063816495049563,-0.0006482965682256706,0.997952476411078,0,-0.01726925505566614,1.0001355664368459,0.7006906078911173,0.0,0.0,0.7134652563462195,0.0,0.0,0.0,0.0,0.0,0.0,0.0,0.0,0.0,0.0,0.0,0.0,0,0.01726925505566614,2.999864433563263,-0.5042986457582253,-0.495262326354696,0.5042986457582253,0.4960654995729645,0.0,0.0,0.0,0.0,0.0,0.0,0.0,0.0,0.0,0.0011000000000000003,0.0,0.0
1020,0.015735426681100246,0.008303682088048376,1.9748310373679072,-0.009547447074863361,0.06386302570017911,-4.180891043703442e-05,0.9979130014459106,0,-0.03296444699076452,1.000517584344909,0.69506837410754,0.0,0.0,0.718943638483227,0.0,0.0,0.0,0.0,0.0,0.0,0.0,0.0,0.0,0.0,0.0,0.0,0,0.03296444699076452,2.999482415655201,-0.5081740282877708,-0.491285263370229,0.5081740282877708,0.4920946087316996,0.0,0.0,0.0,0.0,0.0,0.0,0.0,0.0,0.0,0.0021000000000000003,0.0,0.0
1030,0.015845337187951693,0.014499695048503868,1.974288108491512,-0.016632151191210524,0.06426536639445225,-2.59429154564245e-05,0.9977942340762973,0,-0.0486517071769009,1.0011459595625292,0.6894033086930292,0.0,0.0,0.7243777177433772,0.0,0.0,0.0,0.0,0.0,0.0,0.0,0.0,0.0,0.0,0.0,0.0,0,0.0486517071769009,2.998854040437581,-0.5120180960240669,-0.4872779263150841,0.5120180960240669,0.48809339394612844,0.0,0.0,0.0,0.0,0.0,0.0,0.0,0.0,0.0,0.0030999999999999986,0.0,0.0
1040,0.01572930659740698,0.019233019168406862,1.9738826881685947,-0.023266398581779608,0.06360030889587828,0.0004414587426509536,0.9977041046921482,0,-0.06432716894073764,1.00202053720468,0.683695760741286,0.0,0.0,0.7297671592668405,0.0,0.0,0.0,0.0,0.0,0.0,0.0,0.0,0.0,0.0,0.0,0.0,0,0.06432716894073764,2.99797946279543,-0.5158306120872655,-0.48324056213012084,0.5158306120872655,0.4840621017798428,0.0,0.0,0.0,0.0,0.0,0.0,0.0,0.0,0.0,0.004099999999999998,0.0,0.0
1050,0.01508226503521927,0.020656575940621556,1.9737996664909807,-0.028204098864497665,0.06097517459721578,0.001851263864919152,0.9977390088155235,0,-0.07998696851707054,1.0031411017011471,0.6779460819638777,0.0,0.0,0.7351116309444623,0.0,0.0,0.0,0.0,0.0,0.0,0.0,0.0,0.0,0.0,0.0,0.0,0,0.07998696851707054,2.9968588982989632,-0.5196113415418022,-0.4791734196065362,0.5196113415418021,0.48000098064986874,0.0,0.0,0.0,0.0,0.0,0.0,0.0,0.0,0.0,0.0051,0.0,0.0
1060,0.014488107002667717,0.022053307182921672,1.9737379153589685,-0.03320201300120017,0.05844118741373565,0.0034978540810247137,0.9977324385641516,0,-0.09562724600118867,1.0045073768496613,0.6721546266685653,0.0,0.0,0.7404108034382275,0.0,0.0,0.0,0.0,0.0,0.0,0.0,0.0,0.0,0.0,0.0,0.0,0,0.09562724600118867,2.99549262315045,-0.5233600514108725,-0.4750767493705333,0.5233600514108725,0.47591028081135794,0.0,0.0,0.0,0.0,0.0,0.0,0.0,0.0,0.0,0.006100000000000003,0.0,0.0
1070,0.013912818057183744,0.02332356774502528,1.973714849832695,-0.03831748130094473,0.0561579950024817,0.0052261058392396075,0.9976726607669522,0,-0.11124414630028272,1.006119025883978,0.6663217517374702,0.0,0.0,0.7456643502015563,0.0,0.0,0.0,0.0,0.0,0.0,0.0,0.0,0.0,0.0,0.0,0.0,0,0.11124414630028272,2.9938809741161325,-0.5270765106907886,-0.4709508038678773,0.5270765106907886,0.4717902543421666,0.0,0.0,0.0,0.0,0.0,0.0,0.0,0.0,0.0,0.007100000000000006,0.0,0.0
1080,0.013190004151668043,0.024249010055548997,1.9739825801423005,-0.04357177948002291,0.05446205725589363,0.006884517510991418,0.9975409704724116,0,-0.12683382008366745,1.0079756515568876,0.6604478166050819,0.0,0.0,0.7508719474994255,0.0,0.0,0.0,0.0,0.0,0.0,0.0,0.0,0.0,0.0,0.0,0.0,0,0.12683382008366745,2.9920243484432234,-0.5307604903652149,-0.46679583734833935,0.5307604903652148,0.46764115512732213,0.0,0.0,0.0,0.0,0.0,0.0,0.0,0.0,0.0,0.008100000000000007,0.0,0.0
1090,0.012280643274744544,0.02511188904958638,1.9744793803792033,-0.04863889439650365,0.05297759988843734,0.00864373807955642,0.9973730082842419,0,-0.14239242473158353,1.0100767962381272,0.6545331832361095,0.0,0.0,0.7560332744283187,0.0,0.0,0.0,0.0,0.0,0.0,0.0,0.0,0.0,0.0,0.0,0.0,0,0.14239242473158353,2.989923203761984,-0.5344117634192793,-0.4626121058500291,0.5344117634192793,0.463463238843378,0.0,0.0,0.0,0.0,0.0,0.0,0.0,0.0,0.0,0.0091,0.0,0.0
1100,0.011269184683047469,0.025967718174723448,1.975085056117978,-0.05357983055418819,0.0516201139181363,0.010483253409589607,0.99717333848976,0,-0.15791612528234564,1.0124219420271832,0.648578216103176,0.0,0.0,0.7611480129360004,0.0,0.0,0.0,0.0,0.0,0.0,0.0,0.0,0.0,0.0,0.0,0.0,0,0.15791612528234564,2.987578057972928,-0.5380301048535638,-0.45839986718361686,0.5380301048535637,0.4592567629426582,0.0,0.0,0.0,0.0,0.0,0.0,0.0,0.0,0.0,0.010099999999999994,0.0,0.0
1110,0.010248580716769647,0.02623368853303502,1.975781436298482,-0.05854212497738165,0.05038242557052496,0.012320149339877273,0.996936630241364,0,-0.17340109537760248,1.0150105108809435,0.6425832821643592,0.0,0.0,0.7662158478411155,0.0,0.0,0.0,0.0,0.0,0.0,0.0,0.0,0.0,0.0,0.0,0.0,0,0.17340109537760248,2.9849894891191675,-0.5416152916979681,-0.45415938091644675,0.5416152916979681,0.455021986637393,0.0,0.0,0.0,0.0,0.0,0.0,0.0,0.0,0.0,0.011099999999999988,0.0,0.0
1120,0.009289186716746603,0.026128964739491528,1.9764655272299334,-0.0636871754874272,0.049309879220820085,0.01402276251104176,0.9966523173209505,0,-0.18884351820547682,1.0178418647561778,0.6365487508405787,0.0,0.0,0.7712364668526112,0.0,0.0,0.0,0.0,0.0,0.0,0.0,0.0,0.0,0.0,0.0,0.0,0,0.18884351820547682,2.9821581352439335,-0.5451671030254505,-0.4498909083565421,0.5451671030254506,0.45075917088374506,0.0,0.0,0.0,0.0,0.0,0.0,0.0,0.0,0.0,0.012099999999999982,0.0,0.0
1130,0.008307167633022314,0.026038471848900974,1.97717976048839,-0.06878604378332862,0.04830885512237495,0.01575922516303648,0.9963364800706959,0,-0.20423958744135182,1.0209153057668046,0.6304749939928315,0.0,0.0,0.7762095605889813,0.0,0.0,0.0,0.0,0.0,0.0,0.0,0.0,0.0,0.0,0.0,0.0,0,0.20423958744135182,2.979084694233307,-0.5486853199656414,-0.44559471253650235,0.5486853199656414,0.4464685783657292,0.0,0.0,0.0,0.0,0.0,0.0,0.0,0.0,0.0,0.013099999999999976,0.0,0.0
1140,0.0073012928222476745,0.02596670480591094,1.9779248707768424,-0.07382923592605153,0.047371148100034406,0.017536656988079782,0.9959908051342353,0,-0.21958550818607284,1.0242300763559098,0.6243623858992766,0.0,0.0,0.7811348225973304,0.0,0.0,0.0,0.0,0.0,0.0,0.0,0.0,0.0,0.0,0.0,0.0,0,0.21958550818607284,2.975769923644202,-0.5521697257183308,-0.441271058197295,0.5521697257183308,0.44215047347902514,0.0,0.0,0.0,0.0,0.0,0.0,0.0,0.0,0.0,0.01409999999999997,0.0,0.0
1150,0.006333143515845374,0.02595249295505466,1.9787657008212332,-0.07868699504506803,0.04648943848173961,0.019268072061315446,0.9956283595395774,0,-0.23487749790133305,1.027785359482474,0.6182113032321722,0.0,0.0,0.7860119493722594,0.0,0.0,0.0,0.0,0.0,0.0,0.0,0.0,0.0,0.0,0.0,0.0,0,0.23487749790133305,2.9722146405176377,-0.5556201055668278,-0.4369202117719414,0.5556201055668278,0.43780512231468494,0.0,0.0,0.0,0.0,0.0,0.0,0.0,0.0,0.0,0.015099999999999964,0.0,0.0
1160,0.006756838256470487,0.026757401425235167,1.9804710351472858,-0.08084410783405066,0.045314667218877336,0.018712757576216068,0.995520288023932,0,-0.25011178734201195,1.0315802788227602,0.6120221250346636,0.0,0.0,0.7908406403745666,0.0,0.0,0.0,0.0,0.0,0.0,0.0,0.0,0.0,0.0,0.0,0.0,0,0.25011178734201195,2.968419721177352,-0.559036246891192,-0.4325424413690984,0.559036246891192,0.43343279264273554,0.0,0.0,0.0,0.0,0.0,0.0,0.0,0.0,0.0,0.016099999999999958,0.0,0.0
1170,0.0071618451138784536,0.02769255203799046,1.9822541520658095,-0.08282177953485426,0.044069064664849576,0.018109547823296757,0.9954247910575068,0,-0.26528462148523746,1.035613898986314,0.6057952326974255,0.0,0.0,0.795620598049769,0.0,0.0,0.0,0.0,0.0,0.0,0.0,0.0,0.0,0.0,0.0,0.0,0,0.26528462148523746,2.964386101013798,-0.5624179391813358,-0.42813801675653756,0.5624179391813358,0.42903375389567866,0.0,0.0,0.0,0.0,0.0,0.0,0.0,0.0,0.0,0.017099999999999952,0.0,0.0
1180,0.007553603351967583,0.02878397060252421,1.9841240622679541,-0.0846698947481132,0.04276199414182572,0.017457083008879753,0.9953379682465544,0,-0.2803922604559428,1.0398852257465236,0.5995310099351607,0.0,0.0,0.8003515278464373,0.0,0.0,0.0,0.0,0.0,0.0,0.0,0.0,0.0,0.0,0.0,0.0,0,0.2803922604559428,2.9601147742535883,-0.5657649740499958,-0.4237072093445206,0.5657649740499958,0.4246082771518872,0.0,0.0,0.0,0.0,0.0,0.0,0.0,0.0,0.0,0.018099999999999946,0.0,0.0
1190,0.007939414363101875,0.029892063837222163,1.9860555414385674,-0.08632864395868661,0.04137711008424728,0.01671319517848489,0.995266782877966,0,-0.295430980448689,1.0443932062856824,0.5932298427629539,0.0,0.0,0.8050331382343469,0.0,0.0,0.0,0.0,0.0,0.0,0.0,0.0,0.0,0.0,0.0,0.0,0,0.295430980448689,2.9556067937144297,-0.5690771452455753,-0.41925029216907533,0.5690771452455753,0.4201566351189016,0.0,0.0,0.0,0.0,0.0,0.0,0.0,0.0,0.0,0.01909999999999994,0.0,0.0
1200,0.008806365032647907,0.030569040523822557,1.9892303889649134,-0.08945858576568462,0.037371909960365955,0.01448536903947761,0.9951837397498555,0,-0.3103970746455272,1.049136729454491,0.5868921194724853,0.0,0.0,0.8096651407224433,0.0,0.0,0.0,0.0,0.0,0.0,0.0,0.0,0.0,0.0,0.0,0.0,0,0.3103970746455272,2.9508632705456206,-0.5723542486648527,-0.41476753987516995,0.5723542486648527,0.4156791021166243,0.0,0.0,0.0,0.0,0.0,0.0,0.0,0.0,0.0,0.020099999999999934,0.0,0.0
1210,0.010446753135019414,0.029568292545004142,1.9940327777519626,-0.09574804355281656,0.029860065584115244,0.010075134880827554,0.9949066188825227,0,-0.32528685412967306,1.0541146260459409,0.5805182306081029,0.0,0.0,0.8142472498766191,0.0,0.0,0.0,0.0,0.0,0.0,0.0,0.0,0.0,0.0,0.0,0.0,0,0.32528685412967306,2.9458853739541717,-0.5755960823655599,-0.4102592286997893,0.5755960823655599,0.41117595406041607,0.0,0.0,0.0,0.0,0.0,0.0,0.0,0.0,0.0,0.021099999999999928,0.0,0.0
1220,0.011326008641286333,0.028505000703151633,1.9977977353489567,-0.10284269895836852,0.023238562737598712,0.0071643604793396294,0.9944003320653967,0,-0.3400966487947697,1.0593256690835038,0.5741085689427562,0.0,0.0,0.8187791833373029,0.0,0.0,0.0,0.0,0.0,0.0,0.0,0.0,0.0,0.0,0.0,0.0,0,0.3400966487947697,2.9406743309166083,-0.5788024465788251,-0.405725636454912,0.5788024465788251,0.4066474684440925,0.0,0.0,0.0,0.0,0.0,0.0,0.0,0.0,0.0,0.022099999999999922,0.0,0.0
1230,0.011058124789209797,0.028122582744150113,1.9995576198932354,-0.10954913065475498,0.01933400997257968,0.006735103709470209,0.9937705079188003,0,-0.35482280824951296,1.064768574123566,0.5676635294537928,0.0,0.0,0.823260661836859,0.0,0.0,0.0,0.0,0.0,0.0,0.0,0.0,0.0,0.0,0.0,0.0,0,0.35482280824951296,2.935231425876546,-0.5819731437214845,-0.40116704251039165,0.5819731437214845,0.402093924322826,0.0,0.0,0.0,0.0,0.0,0.0,0.0,0.0,0.0,0.023099999999999916,0.0,0.0
1240,0.010007864331485797,0.028322822711062772,2.000077936743225,-0.11605927320398748,0.017188675388098255,0.00800491581093316,0.9930612850497318,0,-0.3694617027174184,1.0704419995720218,0.5611835092986193,0.0,0.0,0.8276914092167966,0.0,0.0,0.0,0.0,0.0,0.0,0.0,0.0,0.0,0.0,0.0,0.0,0,0.3694617027174184,2.92955800042809,-0.5851079784082566,-0.396583727776741,0.5851079784082565,0.39751560229594796,0.0,0.0,0.0,0.0,0.0,0.0,0.0,0.0,0.0,0.02409999999999991,0.0,0.0
1250,0.009015605992305484,0.028411365188168575,2.000672902867906,-0.12217721776965418,0.014771466679471091,0.009110536565676744,0.9923565535399508,0,-0.3840097239315064,1.0763445470149575,0.5546689077902269,0.0,0.0,0.8320711524447875,0.0,0.0,0.0,0.0,0.0,0.0,0.0,0.0,0.0,0.0,0.0,0.0,0,0.3840097239315064,2.923655452985155,-0.588206757463783,-0.3919759746878218,0.5882067574637829,0.3929127844896587,0.0,0.0,0.0,0.0,0.0,0.0,0.0,0.0,0.0,0.025099999999999904,0.0,0.0
1260,0.007950684717252942,0.02856902214624207,2.001118363091634,-0.12820512288119973,0.012533226352737552,0.010380974217647842,0.9916141387044156,0,-0.3984632860236856,1.0824747615633383,0.5481201263725858,0.0,0.0,0.8363996216314906,0.0,0.0,0.0,0.0,0.0,0.0,0.0,0.0,0.0,0.0,0.0,0.0,0,0.3984632860236856,2.917525238436774,-0.5912692899345319,-0.3873440671834407,0.591269289934532,0.3882857545396421,0.0,0.0,0.0,0.0,0.0,0.0,0.0,0.0,0.0,0.026099999999999898,0.0,0.0
1270,0.006842215179809902,0.028772993691383326,2.0014899419566192,-0.13416267586812097,0.01040131958585659,0.011757142223053085,0.9908349804894483,0,-0.412818826408615,1.0888311322116184,0.5415375685959064,0.0,0.0,0.8406765500471831,0.0,0.0,0.0,0.0,0.0,0.0,0.0,0.0,0.0,0.0,0.0,0.0,0,0.412818826408615,2.9111688677884935,-0.5942953871005653,-0.38268829069185223,0.5942953871005653,0.383634797573587,0.0,0.0,0.0,0.0,0.0,0.0,0.0,0.0,0.0,0.02709999999999989,0.0,0.0
1280,0.005706207666951762,0.02900783228068674,2.001810898850011,-0.1400798820568977,0.008358200529791955,0.013207892406128146,0.9900168274857845,0,-0.4270728066618285,1.0954120922101793,0.5349216400917723,0.0,0.0,0.8449016741381972,0.0,0.0,0.0,0.0,0.0,0.0,0.0,0.0,0.0,0.0,0.0,0.0,0,0.4270728066618285,2.904587907789933,-0.5972848624871681,-0.3780089321121699,0.5972848624871682,0.37896020019361715,0.0,0.0,0.0,0.0,0.0,0.0,0.0,0.0,0.0,0.028099999999999885,0.0,0.0
1290,0.004541328699164484,0.0292491676714892,2.002070107134747,-0.14601099966565464,0.006405023656472107,0.014729329327335556,0.9891525719049429,0,-0.4412217133919022,1.1022160194515107,0.5282727485481444,0.0,0.0,0.8490747335431604,0.0,0.0,0.0,0.0,0.0,0.0,0.0,0.0,0.0,0.0,0.0,0.0,0,0.4412217133919022,2.8977839805486014,-0.6002375318763393,-0.373306279796687,0.6002375318763393,0.37426225045863043,0.0,0.0,0.0,0.0,0.0,0.0,0.0,0.0,0.0,0.02909999999999988,0.0,0.0
1300,0.003677145270971535,0.02950919143957786,2.001786350034191,-0.15244321865551066,0.005562509551359183,0.01590500460199262,0.9881685860226734,0,-0.4552620591064532,1.1092412368700355,0.5215913036842377,0.0,0.0,0.8531954711090404,0.0,0.0,0.0,0.0,0.0,0.0,0.0,0.0,0.0,0.0,0.0,0.0,0,0.4552620591064532,2.890758763130077,-0.603153213318144,-0.36858062353310783,0.603153213318144,0.3695412378665478,0.0,0.0,0.0,0.0,0.0,0.0,0.0,0.0,0.0,0.030099999999999873,0.0,0.0
1310,0.003287056720087942,0.02972039251460611,2.001073374424753,-0.15948331917833702,0.005756517207247808,0.01644810964885059,0.987046803906726,0,-0.4691903830717534,1.1164860128554819,0.5148777172252739,0.0,0.0,0.8572636329069903,0.0,0.0,0.0,0.0,0.0,0.0,0.0,0.0,0.0,0.0,0.0,0.0,0,0.4691903830717534,2.8835139871446303,-0.606031727141925,-0.36383225452669,0.606031727141925,0.36479745333647373,0.0,0.0,0.0,0.0,0.0,0.0,0.0,0.0,0.0,0.031099999999999867,0.0,0.0
1320,0.003046464089891258,0.02985809913160697,2.000447369068171,-0.16673750076135943,0.005948009969078996,0.016773579494436586,0.9858406940516339,0,-0.4830032521657489,1.1239485616796976,0.5081324028771103,0.0,0.0,0.861278968247997,0.0,0.0,0.0,0.0,0.0,0.0,0.0,0.0,0.0,0.0,0.0,0.0,0,0.4830032521657489,2.8760514383204145,-0.608872895967375,-0.3590614653823001,0.608872895967375,0.36003118919076926,0.0,0.0,0.0,0.0,0.0,0.0,0.0,0.0,0.0,0.03209999999999989,0.0,0.0
1330,0.002904311645829471,0.029944583447742087,1.999882134377106,-0.17413166805511138,0.006131613544762206,0.016953399191062184,0.9845573359391269,0,-0.496697261724272,1.1316270439368066,0.5013557763007456,0.0,0.0,0.8652412296983292,0.0,0.0,0.0,0.0,0.0,0.0,0.0,0.0,0.0,0.0,0.0,0.0,0,0.496697261724272,2.8683729560633053,-0.6116765447154673,-0.3542685500863826,0.6116765447154673,0.35524273913703885,0.0,0.0,0.0,0.0,0.0,0.0,0.0,0.0,0.0,0.03309999999999992,0.0,0.0
1340,0.0028305406451789657,0.029994524237763175,1.9993608647654075,-0.18161893818041852,0.006307002021532831,0.017030750319056112,0.9832012696102908,0,-0.5102690363802405,1.1395195669965936,0.49454825508670675,0.0,0.0,0.8691501730947844,0.0,0.0,0.0,0.0,0.0,0.0,0.0,0.0,0.0,0.0,0.0,0.0,0,0.5102690363802405,2.8604804330035183,-0.614442500619244,-0.3494538039888433,0.6144425006192441,0.35043239825003014,0.0,0.0,0.0,0.0,0.0,0.0,0.0,0.0,0.0,0.03409999999999995,0.0,0.0
1350,0.0028060148676673086,0.03001785334780854,1.9988721512510437,-0.18916812705902405,0.006475257656080101,0.017033539994855438,0.9817756104418728,0,-0.523715230895634,1.1476241854710105,0.4877102587293155,0.0,0.0,0.8730055575597352,0.0,0.0,0.0,0.0,0.0,0.0,0.0,0.0,0.0,0.0,0.0,0.0,0,0.523715230895634,2.8523758145291023,-0.6171705932344629,-0.3446175237848502,0.6171705932344629,0.3456004629534524,0.0,0.0,0.0,0.0,0.0,0.0,0.0,0.0,0.0,0.03509999999999998,0.0,0.0
1360,0.0028178968383067464,0.030021389477331305,1.9984079984313605,-0.19675781033214337,0.006637630711206493,0.016980675466392647,0.980282593231435,0,-0.5370325309860455,1.1559389016936832,0.4808422086008386,0.0,0.0,0.8768071455159725,0.0,0.0,0.0,0.0,0.0,0.0,0.0,0.0,0.0,0.0,0.0,0.0,0,0.5370325309860455,2.8440610983064296,-0.6198606544500999,-0.33976000749654983,0.6198606544500999,0.3407472310017094,0.0,0.0,0.0,0.0,0.0,0.0,0.0,0.0,0.0,0.03610000000000001,0.0,0.0
1370,0.00285725684249213,0.030009871180658124,1.9979626852180368,-0.20437290955273288,0.006795175899115625,0.01688538566207914,0.9787238748372767,0,-0.5502176541376023,1.1644616662123084,0.473944527925522,0.0,0.0,0.8805547027013451,0.0,0.0,0.0,0.0,0.0,0.0,0.0,0.0,0.0,0.0,0.0,0.0,0,0.5502176541376023,2.8355383337878037,-0.6225125184987089,-0.33488155445470236,0.622512518498709,0.33587300146155136,0.0,0.0,0.0,0.0,0.0,0.0,0.0,0.0,0.0,0.037100000000000036,0.0,0.0
1380,0.002917719247604168,0.029986631489687488,1.9975320514993324,-0.21200259221925508,0.00694869215242613,0.016757145951811405,0.9771007187742914,0,-0.5632673504160556,1.1731903782938111,0.4670176417535102,0.0,0.0,0.8842479981831963,0.0,0.0,0.0,0.0,0.0,0.0,0.0,0.0,0.0,0.0,0.0,0.0,0,0.5632673504160556,2.8268096217063,-0.6251260219666372,-0.32998246528023667,0.6251260219666371,0.33097807469364565,0.0,0.0,0.0,0.0,0.0,0.0,0.0,0.0,0.0,0.038100000000000064,0.0,0.0
1390,0.0029946438192891035,0.029954043965601206,1.997113031138741,-0.2196389291801212,0.007098755065391992,0.01660286412400645,0.9754141137834796,0,-0.5761784032678419,1.1821228864421447,0.4600619769346543,0.0,0.0,0.8878868043725944,0.0,0.0,0.0,0.0,0.0,0.0,0.0,0.0,0.0,0.0,0.0,0.0,0,0.5761784032678419,2.8178771135579663,-0.6277010038040939,-0.32506304186572516,0.6277010038040939,0.3260627523340681,0.0,0.0,0.0,0.0,0.0,0.0,0.0,0.0,0.0,0.03910000000000009,0.0,0.0
1400,0.003081257200307788,0.029929702803822865,1.9966935755464166,-0.22724383510850285,0.0072668023083665625,0.01643369033690065,0.9736721043612688,0,-0.5889476303129126,1.191256988928601,0.4530779620922084,0.0,0.0,0.8914708970383561,0.0,0.0,0.0,0.0,0.0,0.0,0.0,0.0,0.0,0.0,0.0,0.0,0,0.5889476303129126,2.8087430110715106,-0.6302373053350757,-0.3201235873567804,0.6302373053350757,0.3211273372757153,0.0,0.0,0.0,0.0,0.0,0.0,0.0,0.0,0.0,0.04010000000000012,0.0,0.0
1410,0.0031740598642199884,0.029915334642767372,1.9962681069994792,-0.23480038802454123,0.007451056940193528,0.016252738792218318,0.9718791632789288,0,-0.6015718841291452,1.2005904343345053,0.4460660275964172,0.0,0.0,0.8950000553208656,0.0,0.0,0.0,0.0,0.0,0.0,0.0,0.0,0.0,0.0,0.0,0.0,0,0.6015718841291452,2.7994095656656057,-0.6327347702671442,-0.31516440613337493,0.6327347702671442,0.3161721336496401,0.0,0.0,0.0,0.0,0.0,0.0,0.0,0.0,0.0,0.04110000000000015,0.0,0.0
1420,0.0032867634286087486,0.02987605787489899,1.995865675452716,-0.24239981963142515,0.007609284017331303,0.016041053688141377,0.9700139745570526,0,-0.614048053028134,1.2101209221061553,0.4390266055379953,0.0,0.0,0.8984740617456831,0.0,0.0,0.0,0.0,0.0,0.0,0.0,0.0,0.0,0.0,0.0,0.0,0,0.614048053028134,2.7898790778939566,-0.6351932447010568,-0.3101858037910842,0.6351932447010569,0.3111974468063096,0.0,0.0,0.0,0.0,0.0,0.0,0.0,0.0,0.0,0.04210000000000018,0.0,0.0
1430,0.003410696110955665,0.029823929114245456,1.9954756353558298,-0.2500105035911314,0.007754815480605838,0.015811062724514446,0.9680829619544453,0,-0.6263730618221744,1.2198461031218732,0.4319601297015007,0.0,0.0,0.9018927022369472,0.0,0.0,0.0,0.0,0.0,0.0,0.0,0.0,0.0,0.0,0.0,0.0,0,0.6263730618221744,2.7801538968782387,-0.6376125771402508,-0.30518808712225576,0.6376125771402508,0.3062035832967898,0.0,0.0,0.0,0.0,0.0,0.0,0.0,0.0,0.0,0.04310000000000021,0.0,0.0
1440,0.003512126086951424,0.029703004207820596,1.9951052012554438,-0.257715096828588,0.007821683495859802,0.015606204669178916,0.966063246640584,0,-0.6385438725822516,1.22976358027103,0.4248670355386048,0.0,0.0,0.905255766130566,0.0,0.0,0.0,0.0,0.0,0.0,0.0,0.0,0.0,0.0,0.0,0.0,0,0.6385438725822516,2.770236419729082,-0.6399926185001784,-0.30017156409710355,0.6399926185001784,0.30119085085385455,0.0,0.0,0.0,0.0,0.0,0.0,0.0,0.0,0.0,0.044100000000000236,0.0,0.0
1450,0.0033053503588801178,0.029402512646544456,1.994643297282599,-0.26554921393637926,0.007725297068348094,0.015827548549679795,0.9639364208649264,0,-0.6505574853868429,1.2398709090448965,0.41774776014125786,0.0,0.0,0.908563046187199,0.0,0.0,0.0,0.0,0.0,0.0,0.0,0.0,0.0,0.0,0.0,0.0,0,0.6505574853868429,2.7601290909552154,-0.6423332221174942,-0.2951365438447301,0.6423332221174942,0.2961595583730225,0.0,0.0,0.0,0.0,0.0,0.0,0.0,0.0,0.0,0.045100000000000265,0.0,0.0
1460,0.003129560397483518,0.02926669460402168,1.9941168878358038,-0.27300798391648956,0.007813226264192868,0.01601630345794437,0.9618466989269867,0,-0.6624109390613535,1.2501655981391766,0.41060274221475523,0.0,0.0,0.9118143386050273,0.0,0.0,0.0,0.0,0.0,0.0,0.0,0.0,0.0,0.0,0.0,0.0,0,0.6624109390613535,2.7498344018609355,-0.6446342437590924,-0.2900833366340776,0.6446342437590923,0.29111001589352226,0.0,0.0,0.0,0.0,0.0,0.0,0.0,0.0,0.0,0.046100000000000294,0.0,0.0
1470,0.003003945623096126,0.029184306445221117,1.993588454658432,-0.2803494794385258,0.007965923437268693,0.016139320551656868,0.9597292512862521,0,-0.6741013119080024,1.2606451100680784,0.4034324220507032,0.0,0.0,0.9150094430323128,0.0,0.0,0.0,0.0,0.0,0.0,0.0,0.0,0.0,0.0,0.0,0.0,0,0.6741013119080024,2.7393548899320344,-0.6468955416309948,-0.28501225385480855,0.6468955416309949,0.2860425345791878,0.0,0.0,0.0,0.0,0.0,0.0,0.0,0.0,0.0,0.04710000000000032,0.0,0.0
1480,0.002928516435272699,0.029112733898431876,1.9930804861717657,-0.2876727271438207,0.008136049490534735,0.016192663505614078,0.9575573112899919,0,-0.6856257224259756,1.2713068617897652,0.39623724149988704,0.0,0.0,0.9181481625797442,0.0,0.0,0.0,0.0,0.0,0.0,0.0,0.0,0.0,0.0,0.0,0.0,0,0.6856257224259756,2.728693138210348,-0.6491169763870893,-0.27992360799811666,0.6491169763870893,0.2809574266992826,0.0,0.0,0.0,0.0,0.0,0.0,0.0,0.0,0.0,0.04810000000000035,0.0,0.0
1490,0.0028972148600611095,0.029036862782578353,1.9925985019918135,-0.2950096853437665,0.008305496477202377,0.01618267081682326,0.95532111116989,0,-0.6969813300216734,1.2821482253430359,0.38901764394504323,0.0,0.0,0.9212303038325691,0.0,0.0,0.0,0.0,0.0,0.0,0.0,0.0,0.0,0.0,0.0,0.0,0,0.6969813300216734,2.7178517746570776,-0.6512984111377154,-0.2748177126374709,0.6512984111377154,0.2758550056092577,0.0,0.0,0.0,0.0,0.0,0.0,0.0,0.0,0.0,0.04910000000000038,0.0,0.0
1500,0.0029029584970857785,0.028952381586991253,1.9921416058869426,-0.30236625803299405,0.008468050286420295,0.016118289978661347,0.9530179110885773,0,-0.7081653357088739,1.2931665284950788,0.38177407427353766,0.0,0.0,0.9242556768625138,0.0,0.0,0.0,0.0,0.0,0.0,0.0,0.0,0.0,0.0,0.0,0.0,0,0.7081653357088739,2.706833471505034,-0.6534397114581003,-0.2696948824092925,0.6534397114581003,0.2707355857314423,0.0,0.0,0.0,0.0,0.0,0.0,0.0,0.0,0.0,0.05010000000000041,0.0,0.0
1510,0.002939542280281167,0.028858976040995358,1.9917070039576135,-0.30973930199306354,0.008622109862625878,0.016007890623885353,0.9506476589463313,0,-0.7191749827986404,1.304359055400137,0.37450697884995016,0.0,0.0,0.9272240952394858,0.0,0.0,0.0,0.0,0.0,0.0,0.0,0.0,0.0,0.0,0.0,0.0,0,0.7191749827986404,2.6956409445999756,-0.6555407453966429,-0.26455543299356615,0.655540745396643,0.26559948253566773,0.0,0.0,0.0,0.0,0.0,0.0,0.0,0.0,0.0,0.05110000000000044,0.0,0.0
1520,0.003001614624910244,0.028757684923590703,1.9912914461073592,-0.31712281347754434,0.008767851438394304,0.01585893946315034,0.9482113371988046,0,-0.7300075575788048,1.3157230472689219,0.3672168054885689,0.0,0.0,0.9301353760430632,0.0,0.0,0.0,0.0,0.0,0.0,0.0,0.0,0.0,0.0,0.0,0.0,0,0.7300075575788048,2.68427695273119,-0.657601383483044,-0.259399681094387,0.657601383483044,0.2604470125198279,0.0,0.0,0.0,0.0,0.0,0.0,0.0,0.0,0.0,0.052100000000000465,0.0,0.0
1530,0.0030850341436387545,0.02864981016013598,1.9908920610797047,-0.324510801656448,0.008905922640551666,0.01567735689104715,0.9457101271695892,0,-0.7406603899828549,1.3272557030486143,0.35990400342579487,0.0,0.0,0.9329893398737659,0.0,0.0,0.0,0.0,0.0,0.0,0.0,0.0,0.0,0.0,0.0,0.0,0,0.7406603899828549,2.6727442969514974,-0.6596214987362853,-0.25422794442044505,0.6596214987362853,0.2552784931903759,0.0,0.0,0.0,0.0,0.0,0.0,0.0,0.0,0.0,0.053100000000000494,0.0,0.0
1540,0.0031865914512965053,0.028536577902183776,1.9905064519465738,-0.3318980037447899,0.009037031600959412,0.01546780246609087,0.943145160755722,0,-0.751130854248068,1.338954180113282,0.35256902329245915,0.0,0.0,0.935785810864111,0.0,0.0,0.0,0.0,0.0,0.0,0.0,0.0,0.0,0.0,0.0,0.0,0,0.751130854248068,2.66104581988683,-0.6616009666724538,-0.2490405416654469,0.6616009666724538,0.25009424304275857,0.0,0.0,0.0,0.0,0.0,0.0,0.0,0.0,0.0,0.05410000000000052,0.0,0.0
1550,0.0033037882669216317,0.028419043540139223,1.9901326531448282,-0.33927998324018527,0.009161804473252055,0.01523393974377809,0.940517454059847,0,-0.7614163695627199,1.3508155949645433,0.34521231708605377,0.0,0.0,0.9385246166894494,0.0,0.0,0.0,0.0,0.0,0.0,0.0,0.0,0.0,0.0,0.0,0.0,0,0.7614163695627199,2.649184405035569,-0.6635396653124129,-0.2438377924884773,0.663539665312413,0.24489458154178997,0.0,0.0,0.0,0.0,0.0,0.0,0.0,0.0,0.0,0.05510000000000055,0.0,0.0
1560,0.0034346733962914463,0.028298087194148284,1.98976906064616,-0.3466530532787716,0.009280751893956971,0.014978649671619434,0.9378278991109205,0,-0.7715144007022169,1.3628370239423067,0.3378343381428791,0.0,0.0,0.9412055885785863,0.0,0.0,0.0,0.0,0.0,0.0,0.0,0.0,0.0,0.0,0.0,0.0,0,0.7715144007022169,2.6371629760578057,-0.6654374751893193,-0.23862001749430092,0.6654374751893194,0.23967982910196584,0.0,0.0,0.0,0.0,0.0,0.0,0.0,0.0,0.0,0.05610000000000058,0.0,0.0
1570,0.0035777136832682607,0.028174437825290617,1.9894143579482817,-0.35401414523490254,0.00939427554226757,0.014704206534069985,0.9350772796249734,0,-0.7814224586539906,1.3750155039454084,0.33043554111010764,0.0,0.0,0.9438285613241795,0.0,0.0,0.0,0.0,0.0,0.0,0.0,0.0,0.0,0.0,0.0,0.0,0,0.7814224586539906,2.624984496054704,-0.6672942793559844,-0.23338753821360642,0.6672942793559845,0.23445030706771797,0.0,0.0,0.0,0.0,0.0,0.0,0.0,0.0,0.0,0.05710000000000061,0.0,0.0
1580,0.0036960824778425384,0.02800020492025118,1.9890777190621243,-0.36142105452582896,0.009453777646904946,0.014462740346757893,0.9322426060716722,0,-0.7911381012310015,1.3873480331619736,0.32301638191776855,0.0,0.0,0.9463933732929212,0.0,0.0,0.0,0.0,0.0,0.0,0.0,0.0,0.0,0.0,0.0,0.0,0,0.7911381012310015,2.6126519668381394,-0.6691099633920811,-0.22814067708319238,0.6691099633920811,0.2292063376936131,0.0,0.0,0.0,0.0,0.0,0.0,0.0,0.0,0.0,0.05810000000000064,0.0,0.0
1590,0.0037127733293435853,0.027484422571662764,1.988751627470508,-0.36911802217125694,0.009291323994051083,0.014683730607957503,0.9292200735360004,0,-0.8006589336737019,1.3998315718093155,0.3155773177506511,0.0,0.0,0.9488998664354973,0.0,0.0,0.0,0.0,0.0,0.0,0.0,0.0,0.0,0.0,0.0,0.0,0,0.8006589336737019,2.600168428190797,-0.6708844154111941,-0.22287975742609836,0.6708844154111941,0.22394824412449474,0.0,0.0,0.0,0.0,0.0,0.0,0.0,0.0,0.0,0.059100000000000666,0.0,0.0
1600,0.0036983702087493397,0.027177702617686077,1.9882754258002087,-0.37640006318551616,0.00936945592207427,0.01490253511978046,0.9262899762907226,0,-0.8099826092403073,1.4124630428831986,0.3081188070201331,0.0,0.0,0.9513478862963275,0.0,0.0,0.0,0.0,0.0,0.0,0.0,0.0,0.0,0.0,0.0,0.0,0,0.8099826092403073,2.5875369571169142,-0.6726175260677157,-0.2176051034316813,0.6726175260677157,0.2186763503755697,0.0,0.0,0.0,0.0,0.0,0.0,0.0,0.0,0.0,0.060100000000000695,0.0,0.0
1610,0.0036648740796956067,0.026953326084352903,1.9877787095251296,-0.3835060668981391,0.009520461384387911,0.015043022268416363,0.9233667553840025,0,-0.8191068297852341,1.4252393329162714,0.30064130933593175,0.0,0.0,0.9537372820230824,0.0,0.0,0.0,0.0,0.0,0.0,0.0,0.0,0.0,0.0,0.0,0.0,0,0.8191068297852341,2.574760667083842,-0.6743091885635828,-0.21231704013563782,0.6743091885635828,0.21339098131244252,0.0,0.0,0.0,0.0,0.0,0.0,0.0,0.0,0.0,0.06110000000000072,0.0,0.0
1620,0.003596379437757136,0.026807923439067308,1.9872712113564546,-0.39059218498792814,0.009717297565150855,0.015102666472091129,0.9203886291234911,0,-0.8280293463255562,1.438157292745491,0.2931452854777819,0.0,0.0,0.95606790637598,0.0,0.0,0.0,0.0,0.0,0.0,0.0,0.0,0.0,0.0,0.0,0.0,0,0.8280293463255562,2.5618427072546224,-0.6759592986548585,-0.20701589339997492,0.6759592986548586,0.20809246263109557,0.0,0.0,0.0,0.0,0.0,0.0,0.0,0.0,0.0,0.06210000000000075,0.0,0.0
1630,0.003300164158553599,0.026744910297965743,1.98680743654905,-0.3974744915217839,0.009938380465577578,0.01501835358044515,0.917436486215233,0,-0.8367479595953475,1.451213738288344,0.2856311973670417,0.0,0.0,0.9583396157368588,0.0,0.0,0.0,0.0,0.0,0.0,0.0,0.0,0.0,0.0,0.0,0.0,0,0.8367479595953475,2.5487862617117703,-0.677567754658156,-0.20170198989292995,0.677567754658156,0.20278112083781974,0.0,0.0,0.0,0.0,0.0,0.0,0.0,0.0,0.0,0.06310000000000078,0.0,0.0
1640,0.0032122288993014147,0.02659926404339607,1.9864137992762927,-0.40452870598356677,0.01006420630544301,0.014875244122048749,0.9143489295116016,0,-0.8452605205877656,1.4644054513276736,0.27809950803822797,0.0,0.0,0.9605522701180274,0.0,0.0,0.0,0.0,0.0,0.0,0.0,0.0,0.0,0.0,0.0,0.0,0,0.8452605205877656,2.5355945486724405,-0.6791344574569042,-0.19637565706883992,0.6791344574569042,0.1974572832290937,0.0,0.0,0.0,0.0,0.0,0.0,0.0,0.0,0.0,0.06410000000000081,0.0,0.0
1650,0.0032379607193448938,0.026415794096462768,1.9860740893175663,-0.4116871955348092,0.010142870137590231,0.014681526774002357,0.911150496893702,0,-0.8535649310847513,1.4777291803049235,0.27055068161048296,0.0,0.0,0.9627057331708913,0.0,0.0,0.0,0.0,0.0,0.0,0.0,0.0,0.0,0.0,0.0,0.0,0,0.8535649310847513,2.5222708196951906,-0.6806593105074555,-0.1910372231479638,0.6806593105074555,0.19212127787141575,0.0,0.0,0.0,0.0,0.0,0.0,0.0,0.0,0.0,0.06510000000000084,0.0,0.0
1660,0.003311519783324516,0.026235166171821363,1.985734154575078,-0.4188177359967281,0.010230512218743923,0.0144634730863988,0.9078974879250389,0,-0.8616591441742072,1.4911816411215972,0.2629851832589744,0.0,0.0,0.9647998721943549,0.0,0.0,0.0,0.0,0.0,0.0,0.0,0.0,0.0,0.0,0.0,0.0,0,0.8616591441742072,2.508818358878517,-0.6821422198450355,-0.1856870170962568,0.6821422198450355,0.18677343358108786,0.0,0.0,0.0,0.0,0.0,0.0,0.0,0.0,0.0,0.06610000000000087,0.0,0.0
1670,0.0034180275553435664,0.026055146067093284,1.9854023244373176,-0.42593179564366196,0.01031638183848003,0.014217909299128547,0.9045847272537217,0,-0.8695411647545304,1.5047595179487385,0.2554034791862306,0.0,0.0,0.9668345581429993,0.0,0.0,0.0,0.0,0.0,0.0,0.0,0.0,0.0,0.0,0.0,0.0,0,0.8695411647545304,2.4952404820513756,-0.6835830940895329,-0.18032536860509824,0.6835830940895327,0.1814140799039523,0.0,0.0,0.0,0.0,0.0,0.0,0.0,0.0,0.0,0.0671000000000009,0.0,0.0
1680,0.003549387093954281,0.025875284403045953,1.9850812663609494,-0.4330322027187199,0.010396119755246689,0.013945252979694189,0.901210609137476,0,-0.8772090500263748,1.518459464044234,0.2478060365934114,0.0,0.0,0.9688096656350332,0.0,0.0,0.0,0.0,0.0,0.0,0.0,0.0,0.0,0.0,0.0,0.0,0,0.8772090500263748,2.48154053595588,-0.6849818444511301,-0.17495260807097565,0.6849818444511301,0.17604354709508527,0.0,0.0,0.0,0.0,0.0,0.0,0.0,0.0,0.0,0.06810000000000092,0.0,0.0
1690,0.00370082993692646,0.02569577031656948,1.9847711959330656,-0.44011817453742946,0.010468174429929556,0.013647226328419085,0.8977751182670893,0,-0.8846609099715234,1.5322781025777348,0.2401933236515187,0.0,0.0,0.9707250729600204,0.0,0.0,0.0,0.0,0.0,0.0,0.0,0.0,0.0,0.0,0.0,0.0,0,0.8846609099715234,2.4677218974223796,-0.6863383847357759,-0.1695690665751248,0.6863383847357759,0.17066216609844506,0.0,0.0,0.0,0.0,0.0,0.0,0.0,0.0,0.0,0.06910000000000095,0.0,0.0
1700,0.003853280300310273,0.02554798663857839,1.9844232364472236,-0.44708288445252575,0.010590024847988808,0.013338752353429646,0.8943303771476078,0,-0.8918949078187473,1.5462120274629931,0.23256580947254685,0.0,0.0,0.9725806620863788,0.0,0.0,0.0,0.0,0.0,0.0,0.0,0.0,0.0,0.0,0.0,0.0,0,0.8918949078187473,2.453787972537122,-0.6876526313504958,-0.16417507586312802,0.6876526313504958,0.16527026852647958,0.0,0.0,0.0,0.0,0.0,0.0,0.0,0.0,0.0,0.07010000000000098,0.0,0.0
1710,0.004027066773883715,0.02539207387740925,1.9840957838130597,-0.4540573805379559,0.010686448075682916,0.013002265385686483,0.8908134687471759,0,-0.8989092604965434,1.5602578041974122,0.22492396408057486,0.0,0.0,0.974376318668655,0.0,0.0,0.0,0.0,0.0,0.0,0.0,0.0,0.0,0.0,0.0,0.0,0,0.8989092604965434,2.439742195802703,-0.6889245033085436,-0.15877096832447107,0.6889245033085436,0.15986818663969055,0.0,0.0,0.0,0.0,0.0,0.0,0.0,0.0,0.0,0.07110000000000101,0.0,0.0
1720,0.00394220228504343,0.024905919438119224,1.9839381807959764,-0.46149867737962774,0.010490255543926297,0.013078880242064614,0.8869824509014207,0,-0.9057022390726344,1.5744119707086002,0.21726825838280203,0.0,0.0,0.9761119320545693,0.0,0.0,0.0,0.0,0.0,0.0,0.0,0.0,0.0,0.0,0.0,0.0,0,0.9057022390726344,2.4255880292915153,-0.6901539222343922,-0.15335707697206064,0.6901539222343922,0.15445625332615964,0.0,0.0,0.0,0.0,0.0,0.0,0.0,0.0,0.0,0.07210000000000104,0.0,0.0
1730,0.003834906154011388,0.024556438228637647,1.9836159816899828,-0.4685345467804625,0.010506875623186114,0.01316006157485716,0.8832846635242861,0,-0.9122721691801242,1.5886710382077167,0.20959916414053023,0.0,0.0,0.977787395291835,0.0,0.0,0.0,0.0,0.0,0.0,0.0,0.0,0.0,0.0,0.0,0.0,0,0.9122721691801242,2.4113289617923988,-0.6913408123685627,-0.1479337354217034,0.6913408123685626,0.14903480208103476,0.0,0.0,0.0,0.0,0.0,0.0,0.0,0.0,0.0,0.07310000000000107,0.0,0.0
1740,0.003761290793655974,0.024281400603756585,1.9832280934978594,-0.47536504949932157,0.01061473510268119,0.01318084606238185,0.8796258650189223,0,-0.9186174314302047,1.6030314920494082,0.20191715394009246,0.0,0.0,0.979402605134749,0.0,0.0,0.0,0.0,0.0,0.0,0.0,0.0,0.0,0.0,0.0,0.0,0,0.9186174314302047,2.396968507950707,-0.6924851005722935,-0.1425012778715477,0.6924851005722934,0.14360416698597983,0.0,0.0,0.0,0.0,0.0,0.0,0.0,0.0,0.0,0.0741000000000011,0.0,0.0
1750,0.0037327466924443825,0.024035957842600167,1.9828367025428704,-0.48213078567923473,0.010741841261383276,0.013135033522997093,0.8759349229486109,0,-0.9247364618113104,1.6174897925981158,0.19422270116373147,0.0,0.0,0.9809574620505539,0.0,0.0,0.0,0.0,0.0,0.0,0.0,0.0,0.0,0.0,0.0,0.0,0,0.9247364618113104,2.382510207401999,-0.6935867163320468,-0.13706003908149017,0.6935867163320468,0.13816468268858745,0.0,0.0,0.0,0.0,0.0,0.0,0.0,0.0,0.0,0.07510000000000112,0.0,0.0
1760,0.003748785543623054,0.02380258984994007,1.982464363624798,-0.48888335264294125,0.010860288407537895,0.013026288799911447,0.8721842909869473,0,-0.9306277520746236,1.6320423761005407,0.18651627996042858,0.0,0.0,0.9824518702255715,0.0,0.0,0.0,0.0,0.0,0.0,0.0,0.0,0.0,0.0,0.0,0.0,0,0.9306277520746236,2.367957623899574,-0.6946455917638542,-0.131610354352546,0.6946455917638543,0.1327166843817574,0.0,0.0,0.0,0.0,0.0,0.0,0.0,0.0,0.0,0.07610000000000115,0.0,0.0
1770,0.003807057942814134,0.02356725547759269,1.9821281743068482,-0.4956651884788976,0.010945640187367595,0.012861976937228249,0.8683494592848744,0,-0.9362898501058352,1.6466856555640557,0.17879836521668574,0.0,0.0,0.9838857375711068,0.0,0.0,0.0,0.0,0.0,0.0,0.0,0.0,0.0,0.0,0.0,0.0,0,0.9362898501058352,2.353314344436059,-0.6956616616174993,-0.1261525595061881,0.6956616616174993,0.12726050778304132,0.0,0.0,0.0,0.0,0.0,0.0,0.0,0.0,0.0,0.07710000000000118,0.0,0.0
1780,0.003914566781095679,0.023317383128307695,1.9818583568735217,-0.502523613281805,0.010970867752673653,0.012638991599951502,0.864401477350825,0,-0.9417213602830693,1.661416021640846,0.17106943252726192,0.0,0.0,0.985258975729123,0.0,0.0,0.0,0.0,0.0,0.0,0.0,0.0,0.0,0.0,0.0,0.0,0,0.9417213602830693,2.338583978359268,-0.6966348632805391,-0.12068699086365209,0.6966348632805393,0.1217964891139553,0.0,0.0,0.0,0.0,0.0,0.0,0.0,0.0,0.0,0.07810000000000121,0.0,0.0
1790,0.004040562212987879,0.0230849037889203,1.9815816118536838,-0.509323904319289,0.011007652074887391,0.012382988437798838,0.8604153960048039,0,-0.9469209438208824,1.6762298435175582,0.16332995816586607,0.0,0.0,0.9865715000776865,0.0,0.0,0.0,0.0,0.0,0.0,0.0,0.0,0.0,0.0,0.0,0.0,0,0.9469209438208824,2.323770156482556,-0.6975651367821623,-0.11521398522521231,0.6975651367821623,0.1163249650792606,0.0,0.0,0.0,0.0,0.0,0.0,0.0,0.0,0.0,0.07910000000000124,0.0,0.0
1800,0.004187665030322802,0.022861589528226523,1.9813105153825898,-0.5160917472420914,0.01104086786884331,0.012094404451698836,0.85637674714244,0,-0.9518873191002543,1.6911234698102415,0.1555804190558079,0.0,0.0,0.9878232297361808,0.0,0.0,0.0,0.0,0.0,0.0,0.0,0.0,0.0,0.0,0.0,0.0,0,0.9518873191002543,2.3088765301898726,-0.6984524247968841,-0.10973387984942685,0.6984524247968841,0.11084627284621558,0.0,0.0,0.0,0.0,0.0,0.0,0.0,0.0,0.0,0.08010000000000127,0.0,0.0
1810,0.0043554824488841555,0.022644299880721308,1.9810492335053502,-0.5228360129286427,0.011064848803118343,0.011775459926843935,0.8522801248705473,0,-0.9566192619844873,1.7060932294643585,0.1478212927406089,0.0,0.0,0.9890140875702911,0.0,0.0,0.0,0.0,0.0,0.0,0.0,0.0,0.0,0.0,0.0,0.0,0,0.9566192619844873,2.2939067705357568,-0.6992966726480797,-0.10424701243235485,0.6992966726480797,0.10536075002379869,0.0,0.0,0.0,0.0,0.0,0.0,0.0,0.0,0.0,0.0811000000000013,0.0,0.0
1820,0.004542406520842674,0.02243183734795231,1.9807982585096706,-0.5295581328989837,0.01107790817724159,0.011429035119824677,0.8481243075087452,0,-0.9611156061209378,1.7211354326596442,0.14005305735457504,0.0,0.0,0.9901440001967573,0.0,0.0,0.0,0.0,0.0,0.0,0.0,0.0,0.0,0.0,0.0,0.0,0,0.9611156061209378,2.2788645673404706,-0.7000978283113533,-0.09875372108674751,0.7000978283113533,0.09986873464190421,0.0,0.0,0.0,0.0,0.0,0.0,0.0,0.0,0.0,0.08210000000000132,0.0,0.0
1830,0.004746533806716296,0.022223749303174736,1.9805566506744738,-0.5362566837675646,0.011079978777377882,0.011058011232577937,0.8439097840246238,0,-0.9653752432285052,1.7362463717195935,0.13227619159333334,0.0,0.0,0.9912128979878964,0.0,0.0,0.0,0.0,0.0,0.0,0.0,0.0,0.0,0.0,0.0,0.0,0,0.9653752432285052,2.2637536282805217,-0.7008558424177431,-0.09325434432121238,0.7008558424177431,0.09437056513051195,0.0,0.0,0.0,0.0,0.0,0.0,0.0,0.0,0.0,0.08310000000000135,0.0,0.0
1840,0.0046747443728166445,0.02174215411032716,1.980490190951726,-0.5432874170669394,0.010885829834172188,0.011140822926440691,0.8394022654425449,0,-0.9693971233708056,1.7514223220253446,0.12449117468433314,0.0,0.0,0.9922207150758923,0.0,0.0,0.0,0.0,0.0,0.0,0.0,0.0,0.0,0.0,0.0,0.0,0,0.9693971233708056,2.24857767797477,-0.7015706682567651,-0.08774922101935428,0.7015706682567651,0.08886658029883304,0.0,0.0,0.0,0.0,0.0,0.0,0.0,0.0,0.0,0.08410000000000138,0.0,0.0
1850,0.00459505861993252,0.02136224855554508,1.9802557575714488,-0.5499656962262379,0.010879197928382297,0.011191554277670868,0.8350413912733156,0,-0.9731802552149658,1.766659542933744,0.11669848635731553,0.0,0.0,0.9931673893568553,0.0,0.0,0.0,0.0,0.0,0.0,0.0,0.0,0.0,0.0,0.0,0.0,0,0.9731802552149658,2.233340457066371,-0.70224226177929,-0.08223869041889159,0.7022422617792898,0.08335711931443096,0.0,0.0,0.0,0.0,0.0,0.0,0.0,0.0,0.0,0.08510000000000141,0.0,0.0
1860,0.004557665950026654,0.021043206757612596,1.9799548368769926,-0.5564671353020201,0.01094449772236412,0.011163475015360176,0.8307225301651268,0,-0.9767237062759717,1.7819542786993565,0.10889860681475086,0.0,0.0,0.9940528624946494,0.0,0.0,0.0,0.0,0.0,0.0,0.0,0.0,0.0,0.0,0.0,0.0,0,0.9767237062759717,2.218045721300758,-0.7028705816002585,-0.07672309209075245,0.7028705816002585,0.07784252168232181,0.0,0.0,0.0,0.0,0.0,0.0,0.0,0.0,0.0,0.08610000000000144,0.0,0.0
1870,0.004567971533145697,0.020753444612864765,1.9796477239558594,-0.5629070919607213,0.0110190820943147,0.011063677916781669,0.826372664529192,0,-0.9800266031465122,1.7973027594002022,0.10109201670224804,0.0,0.0,0.9948770799244862,0.0,0.0,0.0,0.0,0.0,0.0,0.0,0.0,0.0,0.0,0.0,0.0,0,0.9800266031465122,2.202697240599912,-0.7034555890012314,-0.07120276591814943,0.7034555890012314,0.07232312722405292,0.0,0.0,0.0,0.0,0.0,0.0,0.0,0.0,0.0,0.08710000000000147,0.0,0.0
1880,0.0046229204730384894,0.02048016199129931,1.9793560322430843,-0.5693269860349447,0.011079452551891961,0.010901432794656362,0.8219642251743927,0,-0.9830881317122603,1.8127012018669832,0.09327919707893594,0.0,0.0,0.995639990856288,0.0,0.0,0.0,0.0,0.0,0.0,0.0,0.0,0.0,0.0,0.0,0.0,0,0.9830881317122603,2.187298798133131,-0.7039972479327752,-0.06567805207563543,0.7039972479327752,0.066799276056763,0.0,0.0,0.0,0.0,0.0,0.0,0.0,0.0,0.0,0.0881000000000015,0.0,0.0
1890,0.004717142337246024,0.020218094334046432,1.9790855119945907,-0.5757383267028217,0.011118283169962839,0.010685761460004004,0.8174885793983958,0,-0.9859075373525406,1.8281458106155795,0.08546062938781944,0.0,0.0,0.9963415482778172,0.0,0.0,0.0,0.0,0.0,0.0,0.0,0.0,0.0,0.0,0.0,0.0,0,0.9859075373525406,2.1718541893845345,-0.7044955250166837,-0.06014929100814065,0.7044955250166837,0.061271308572222405,0.0,0.0,0.0,0.0,0.0,0.0,0.0,0.0,0.0,0.08910000000000153,0.0,0.0
1900,0.004845107564375313,0.019964967091002206,1.978835689383325,-0.5821410267337109,0.011134736259081323,0.010424655892164798,0.8129447516230063,0,-0.9884841251263317,1.8436327787825775,0.07763679542611195,0.0,0.0,0.9969817089575737,0.0,0.0,0.0,0.0,0.0,0.0,0.0,0.0,0.0,0.0,0.0,0.0,0,0.9884841251263317,2.156367221217536,-0.7049503895480351,-0.054616823409994575,0.7049503895480351,0.05573956541585823,0.0,0.0,0.0,0.0,0.0,0.0,0.0,0.0,0.0,0.09010000000000155,0.0,0.0
1910,0.005001820846472157,0.019719661442335935,1.9786039153150137,-0.5885309660372274,0.011130369591727009,0.010124939723154017,0.8083346475833149,0,-0.9908172599435584,1.8591582890636058,0.069808177315546,0.0,0.0,0.9975604334474585,0.0,0.0,0.0,0.0,0.0,0.0,0.0,0.0,0.0,0.0,0.0,0.0,0,0.9908172599435584,2.1408417109365083,-0.7053618134970837,-0.04908099020393125,0.7053618134970837,0.05020438746576272,0.0,0.0,0.0,0.0,0.0,0.0,0.0,0.0,0.0,0.09110000000000158,0.0,0.0
1920,0.005182971073737779,0.01948148303273658,1.9783870162316564,-0.594903026212613,0.01110744182566022,0.009792366432843175,0.8036610751422577,0,-0.9929063667216327,1.8747185146542413,0.061975257472663796,0.0,0.0,0.998077686085205,0.0,0.0,0.0,0.0,0.0,0.0,0.0,0.0,0.0,0.0,0.0,0.0,0,0.9929063667216327,2.125281485345873,-0.7057297715109874,-0.04354213252008032,0.7057297715109874,0.04466611581168739,0.0,0.0,0.0,0.0,0.0,0.0,0.0,0.0,0.0,0.09210000000000161,0.0,0.0
1930,0.005385609022347113,0.019250012212256053,1.9781823527203373,-0.6012529362454673,0.011067793302216076,0.009430888706983966,0.798926447769643,0,-0.9947509305272022,1.890309620193261,0.0541385185790896,0.0,0.0,0.9985334349965762,0.0,0.0,0.0,0.0,0.0,0.0,0.0,0.0,0.0,0.0,0.0,0.0,0,0.9947509305272022,2.109690379806854,-0.7060542409153698,-0.03800059167494679,0.7060542409153698,0.039125091734024786,0.0,0.0,0.0,0.0,0.0,0.0,0.0,0.0,0.0,0.09310000000000164,0.0,0.0
1940,0.0054469340586936815,0.018885779921577573,1.9781051943495105,-0.6077619619083474,0.010927655606608742,0.009315844055201085,0.7939894199860594,0,-0.9963504967030736,1.9059277627079996,0.04629844355178605,0.0,0.0,0.9989276520973289,0.0,0.0,0.0,0.0,0.0,0.0,0.0,0.0,0.0,0.0,0.0,0.0,0,0.9963504967030736,2.0940722372921163,-0.7063352017157178,-0.032456709150377794,0.7063352017157181,0.03358165668277768,0.0,0.0,0.0,0.0,0.0,0.0,0.0,0.0,0.0,0.09410000000000167,0.0,0.0
1950,0.005384134209142981,0.01847637759762307,1.9779824687094556,-0.6141613088051667,0.010862413287380076,0.00936688951525992,0.7890501607154691,0,-0.9977046709802788,1.9215690925615834,0.03845551551329558,0.0,0.0,0.9992603130949447,0.0,0.0,0.0,0.0,0.0,0.0,0.0,0.0,0.0,0.0,0.0,0.0,0,0.9977046709802788,2.0784309074385323,-0.7065726365986137,-0.026910826572519975,0.7065726365986136,0.0280361522565184,0.0,0.0,0.0,0.0,0.0,0.0,0.0,0.0,0.0,0.0951000000000017,0.0,0.0
1960,0.005366739507394273,0.018129025278682123,1.977761958957165,-0.6203521402651155,0.01088115673863515,0.009320914752162993,0.7841925420741406,0,-0.9988131195752566,1.9372297544018109,0.030610217761969392,0.0,0.0,0.9995313974901263,0.0,0.0,0.0,0.0,0.0,0.0,0.0,0.0,0.0,0.0,0.0,0.0,0,0.9988131195752566,2.0627702455983052,-0.7067665309328012,-0.02136328569076751,0.7067665309328011,0.022488920181338523,0.0,0.0,0.0,0.0,0.0,0.0,0.0,0.0,0.0,0.09610000000000173,0.0,0.0
1970,0.005398415670934484,0.017814678424706385,1.9775205787837846,-0.6264633326276056,0.010911620098776996,0.009197325648931233,0.7793202413776005,0,-0.9996755692721249,1.9529058881114356,0.022763033742185586,0.0,0.0,0.9997408885780615,0.0,0.0,0.0,0.0,0.0,0.0,0.0,0.0,0.0,0.0,0.0,0.0,0,0.9996755692721249,2.047094111888681,-0.7069168727700879,-0.015814428356702825,0.7069168727700879,0.01694030228979132,0.0,0.0,0.0,0.0,0.0,0.0,0.0,0.0,0.0,0.09710000000000175,0.0,0.0
1980,0.005474655768112389,0.017520895175005515,1.9772866488498195,-0.632541862440477,0.01092719526274691,0.00901108635243174,0.7743966612704186,0,-1.0002918074900247,1.968593629759629,0.014914447014558227,0.0,0.0,0.9998887734494523,0.0,0.0,0.0,0.0,0.0,0.0,0.0,0.0,0.0,0.0,0.0,0.0,0,1.0002918074900247,2.031406370240488,-0.7070236528460819,-0.01026459650303102,0.7070236528460818,0.011390640499826687,0.0,0.0,0.0,0.0,0.0,0.0,0.0,0.0,0.0,0.09810000000000178,0.0,0.0
1990,0.005588957314174759,0.017241873910459324,1.9770685366142946,-0.6386014647257082,0.010919982509539617,0.008774021018089521,0.7694101245677403,0,-1.0006616823355172,1.9842891125543798,0.007064941226139306,0.0,0.0,0.9999750429913095,0.0,0.0,0.0,0.0,0.0,0.0,0.0,0.0,0.0,0.0,0.0,0.0,0,1.0006616823355172,2.0157108874457363,-0.7070868645807615,-0.004714132122509318,0.7070868645807615,0.005840276793722621,0.0,0.0,0.0,0.0,0.0,0.0,0.0,0.0,0.0,0.09910000000000181,0.0,0.0
2000,0.0057348969055569625,0.016974481994142854,1.9768667171857477,-0.6446429238630774,0.010889536056506872,0.008495629412753836,0.7643590406337966,0,-1.0007838524070896,1.9984184682933992,-7.440012148030029e-15,0.0,0.0,1.0,0.0,0.0,0.0,0.0,0.0,0.0,0.0,0.0,0.0,0.0,0.0,0.0,0,1.0007838524070896,2.0015815317067167,-0.7071065009352508,0.00028154394165352814,0.7071065009352508,0.0008446320034767862,0.0,-0.00055,0.0,0.0,0.0,-0.00055,0.0,0.0,0.0,0.10000000000000184,0.0,0.0
2010,0.005938167560127761,0.016746550149152536,1.9785671974025136,-0.6485623809344846,0.010708997168749311,0.00832121203035421,0.7610406775242557,0,-1.0007838524070896,1.9984184682933992,-7.440012148030029e-15,0.0,0.0,1.0,0.0,0.0,0.0,0.0,0.0,0.0,0.0,0.0,0.0,0.0,0.0,0.0,0,1.0007838524070896,2.0015815317067167,-0.7071065009352508,0.00028154394165352814,0.7071065009352508,0.0008446320034767862,0.0,-0.006050000000000001,0.0,0.0,0.0,-0.006050000000000001,0.0,0.0,0.0,0.10000000000000184,0.0,0.0
2020,0.006126143548983616,0.016636564823519998,1.9799566753136848,-0.6509735809355415,0.010701135294023965,0.00823846142325845,0.7589802437354707,0,-1.0007838524070896,1.9984184682933992,-7.440012148030029e-15,0.0,0.0,1.0,0.0,0.0,0.0,0.0,0.0,0.0,0.0,0.0,0.0,0.0,0.0,0.0,0,1.0007838524070896,2.0015815317067167,-0.7071065009352508,0.00028154394165352814,0.7071065009352508,0.0008446320034767862,0.0,-0.011550000000000001,0.0,0.0,0.0,-0.011550000000000001,0.0,0.0,0.0,0.10000000000000184,0.0,0.0
2030,0.00638117303122006,0.016761089384425835,1.981420544313254,-0.6522553814411307,0.010444721477862469,0.008032043210558587,0.7578847613299786,0,-1.0007838524070896,1.9984184682933992,-7.440012148030029e-15,0.0,0.0,1.0,0.0,0.0,0.0,0.0,0.0,0.0,0.0,0.0,0.0,0.0,0.0,0.0,0,1.0007838524070896,2.0015815317067167,-0.7071065009352508,0.00028154394165352814,0.7071065009352508,0.0008446320034767862,0.0,-0.01705,0.0,0.0,0.0,-0.01705,0.0,0.0,0.0,0.10000000000000184,0.0,0.0
2040,0.006370120519851389,0.01651769722969423,1.982819903494428,-0.6529749973913073,0.010491546433177826,0.008050431320625296,0.7572640033639619,0,-1.0007838524070896,1.9984184682933992,-7.440012148030029e-15,0.0,0.0,1.0,0.0,0.0,0.0,0.0,0.0,0.0,0.0,0.0,0.0,0.0,0.0,0.0,0,1.0007838524070896,2.0015815317067167,-0.7071065009352508,0.00028154394165352814,0.7071065009352508,0.0008446320034767862,0.0,-0.022549999999999983,0.0,0.0,0.0,-0.022549999999999983,0.0,0.0,0.0,0.10000000000000184,0.0,0.0
2050,0.0062500828623936,0.016238003142379952,1.9835348387191962,-0.6528424999401075,0.010903289191183801,0.008277526158126186,0.7573699697753178,0,-1.0007838524070896,1.9984184682933992,-7.440012148030029e-15,0.0,0.0,1.0,0.0,0.0,0.0,0.0,0.0,0.0,0.0,0.0,0.0,0.0,0.0,0.0,0,1.0007838524070896,2.0015815317067167,-0.7071065009352508,0.00028154394165352814,0.7071065009352508,0.0008446320034767862,0.0,-0.028049999999999967,0.0,0.0,0.0,-0.028049999999999967,0.0,0.0,0.0,0.10000000000000184,0.0,0.0
2060,0.005978325893994249,0.016050283431091536,1.9838169772042937,-0.652885132775481,0.01162500295001708,0.008666570450826461,0.7573181321371987,0,-1.0007838524070896,1.9984184682933992,-7.440012148030029e-15,0.0,0.0,1.0,0.0,0.0,0.0,0.0,0.0,0.0,0.0,0.0,0.0,0.0,0.0,0.0,0,1.0007838524070896,2.0015815317067167,-0.7071065009352508,0.00028154394165352814,0.7071065009352508,0.0008446320034767862,0.0,-0.03354999999999997,0.0,0.0,0.0,-0.03354999999999997,0.0,0.0,0.0,0.10000000000000184,0.0,0.0
2070,0.005648526324665495,0.015851656189540573,1.9840888999223936,-0.6529168410418429,0.01239927775308381,0.00908301921959687,0.7572736330792188,0,-1.0007838524070896,1.9984184682933992,-7.440012148030029e-15,0.0,0.0,1.0,0.0,0.0,0.0,0.0,0.0,0.0,0.0,0.0,0.0,0.0,0.0,0.0,0,1.0007838524070896,2.0015815317067167,-0.7071065009352508,0.00028154394165352814,0.7071065009352508,0.0008446320034767862,0.0,-0.03904999999999999,0.0,0.0,0.0,-0.03904999999999999,0.0,0.0,0.0,0.10000000000000184,0.0,0.0
2080,0.005362042281123782,0.015917537116964697,1.982219905411948,-0.6528435076158197,0.012819052192900924,0.009216066133264207,0.7573282581481932,0,-1.0007838524070896,1.9984184682933992,-7.440012148030029e-15,0.0,0.0,1.0,0.0,0.0,0.0,0.0,0.0,0.0,0.0,0.0,0.0,0.0,0.0,0.0,0,1.0007838524070896,2.0015815317067167,-0.7071065009352508,0.00028154394165352814,0.7071065009352508,0.0008446320034767862,0.0,-0.044550000000000006,0.0,0.0,0.0,-0.044550000000000006,0.0,0.0,0.0,0.10000000000000184,0.0,0.0
2090,0.005311207028191388,0.0160154874819513,1.9813947262400873,-0.6527434708232223,0.012971405050565439,0.009184582291438061,0.7574122704292552,0,-1.0007838524070896,1.9984184682933992,-7.440012148030029e-15,0.0,0.0,1.0,0.0,0.0,0.0,0.0,0.0,0.0,0.0,0.0,0.0,0.0,0.0,0.0,0,1.0007838524070896,2.0015815317067167,-0.7071065009352508,0.00028154394165352814,0.7071065009352508,0.0008446320034767862,0.0,-0.050050000000000025,0.0,0.0,0.0,-0.050050000000000025,0.0,0.0,0.0,0.10000000000000184,0.0,0.0
2100,0.005251660940368254,0.015936605518520535,1.9810676245178893,-0.6528180375363595,0.013238039839904308,0.009158165408860882,0.7573437080841944,0,-1.0007838524070896,1.9984184682933992,-7.440012148030029e-15,0.0,0.0,1.0,0.0,0.0,0.0,0.0,0.0,0.0,0.0,0.0,0.0,0.0,0.0,0.0,0,1.0007838524070896,2.0015815317067167,-0.7071065009352508,0.00028154394165352814,0.7071065009352508,0.0008446320034767862,0.0,-0.055550000000000044,0.0,0.0,0.0,-0.055550000000000044,0.0,0.0,0.0,0.10000000000000184,0.0,0.0
2110,0.005192934697577093,0.01582912322648123,1.9809387340623972,-0.6529020686967059,0.0135672535565129,0.009132844364074777,0.7572657456113518,0,-1.0007838524070896,1.9984184682933992,-7.440012148030029e-15,0.0,0.0,1.0,0.0,0.0,0.0,0.0,0.0,0.0,0.0,0.0,0.0,0.0,0.0,0.0,0,1.0007838524070896,2.0015815317067167,-0.7071065009352508,0.00028154394165352814,0.7071065009352508,0.0008446320034767862,0.0,-0.06105000000000006,0.0,0.0,0.0,-0.06105000000000006,0.0,0.0,0.0,0.10000000000000184,0.0,0.0
2120,0.005133943571911304,0.015706794496751757,1.980895587810456,-0.6529916723863813,0.013930089324378109,0.009106875058397473,0.7571822060984545,0,-1.0007838524070896,1.9984184682933992,-7.440012148030029e-15,0.0,0.0,1.0,0.0,0.0,0.0,0.0,0.0,0.0,0.0,0.0,0.0,0.0,0.0,0.0,0,1.0007838524070896,2.0015815317067167,-0.7071065009352508,0.00028154394165352814,0.7071065009352508,0.0008446320034767862,0.0,-0.06655000000000003,0.0,0.0,0.0,-0.06655000000000003,0.0,0.0,0.0,0.10000000000000184,0.0,0.0
2130,0.005074365230417976,0.01557562661319092,1.9808887588604505,-0.6530851149953932,0.01431313054983256,0.009079447439130238,0.7570947962438505,0,-1.0007838524070896,1.9984184682933992,-7.440012148030029e-15,0.0,0.0,1.0,0.0,0.0,0.0,0.0,0.0,0.0,0.0,0.0,0.0,0.0,0.0,0.0,0,1.0007838524070896,2.0015815317067167,-0.7071065009352508,0.00028154394165352814,0.7071065009352508,0.0008446320034767862,0.0,-0.07204999999999998,0.0,0.0,0.0,-0.07204999999999998,0.0,0.0,0.0,0.10000000000000184,0.0,0.0
2140,0.005013900794762131,0.01543837443099796,1.9808986415760417,-0.6531818302613783,0.014711426127508122,0.009050283405556423,0.7570040706151915,0,-1.0007838524070896,1.9984184682933992,-7.440012148030029e-15,0.0,0.0,1.0,0.0,0.0,0.0,0.0,0.0,0.0,0.0,0.0,0.0,0.0,0.0,0.0,0,1.0007838524070896,2.0015815317067167,-0.7071065009352508,0.00028154394165352814,0.7071065009352508,0.0008446320034767862,0.0,-0.07754999999999992,0.0,0.0,0.0,-0.07754999999999992,0.0,0.0,0.0,0.10000000000000184,0.0,0.0
2150,0.004952431185719058,0.015296035391269351,1.9809158248364527,-0.6532815145446125,0.015122551144052532,0.00901917242308192,0.7569103155130043,0,-1.0007838524070896,1.9984184682933992,-7.440012148030029e-15,0.0,0.0,1.0,0.0,0.0,0.0,0.0,0.0,0.0,0.0,0.0,0.0,0.0,0.0,0.0,0,1.0007838524070896,2.0015815317067167,-0.7071065009352508,0.00028154394165352814,0.7071065009352508,0.0008446320034767862,0.0,-0.08304999999999987,0.0,0.0,0.0,-0.08304999999999987,0.0,0.0,0.0,0.10000000000000184,0.0,0.0
2160,0.004889898798527725,0.015148985367585696,1.9809362602313603,-0.6533840949195431,0.01554563927995873,0.008986005008106215,0.756813589544705,0,-1.0007838524070896,1.9984184682933992,-7.440012148030029e-15,0.0,0.0,1.0,0.0,0.0,0.0,0.0,0.0,0.0,0.0,0.0,0.0,0.0,0.0,0.0,0,1.0007838524070896,2.0015815317067167,-0.7071065009352508,0.00028154394165352814,0.7071065009352508,0.0008446320034767862,0.0,-0.08854999999999982,0.0,0.0,0.0,-0.08854999999999982,0.0,0.0,0.0,0.10000000000000184,0.0,0.0
2170,0.004826451958097183,0.014996665719014483,1.9809574460106611,-0.6534908661190515,0.015978412363799786,0.00895057441263584,0.7567128024917962,0,-1.0007838524070896,1.9984184682933992,-7.440012148030029e-15,0.0,0.0,1.0,0.0,0.0,0.0,0.0,0.0,0.0,0.0,0.0,0.0,0.0,0.0,0.0,0,1.0007838524070896,2.0015815317067167,-0.7071065009352508,0.00028154394165352814,0.7071065009352508,0.0008446320034767862,0.0,-0.09404999999999977,0.0,0.0,0.0,-0.09404999999999977,0.0,0.0,0.0,0.10000000000000184,0.0,0.0
2180,0.004762771090915649,0.014839338641865448,1.980988588194784,-0.6536041723790809,0.0164147544269188,0.00891370869748863,0.7566060318838445,0,-1.0007838524070896,1.9984184682933992,-7.440012148030029e-15,0.0,0.0,1.0,0.0,0.0,0.0,0.0,0.0,0.0,0.0,0.0,0.0,0.0,0.0,0.0,0,1.0007838524070896,2.0015815317067167,-0.7071065009352508,0.00028154394165352814,0.7071065009352508,0.0008446320034767862,0.0,-0.09954999999999972,0.0,0.0,0.0,-0.09954999999999972,0.0,0.0,0.0,0.10000000000000184,0.0,0.0
2190,0.004699053501177252,0.014680412966932479,1.9810157750339403,-0.6537174926834752,0.016853360408266033,0.008875394197685835,0.7564989301911903,0,-1.0007838524070896,1.9984184682933992,-7.440012148030029e-15,0.0,0.0,1.0,0.0,0.0,0.0,0.0,0.0,0.0,0.0,0.0,0.0,0.0,0.0,0.0,0,1.0007838524070896,2.0015815317067167,-0.7071065009352508,0.00028154394165352814,0.7071065009352508,0.0008446320034767862,0.0,-0.10504999999999967,0.0,0.0,0.0,-0.10504999999999967,0.0,0.0,0.0,0.10000000000000184,0.0,0.0
2200,0.004634988569472542,0.014518648017987208,1.9810358797686878,-0.6538314687796645,0.017297569990219672,0.008835198353849159,0.7563908670627297,0,-1.0007838524070896,1.9984184682933992,-7.440012148030029e-15,0.0,0.0,1.0,0.0,0.0,0.0,0.0,0.0,0.0,0.0,0.0,0.0,0.0,0.0,0.0,0,1.0007838524070896,2.0015815317067167,-0.7071065009352508,0.00028154394165352814,0.7071065009352508,0.0008446320034767862,0.0,-0.11054999999999962,0.0,0.0,0.0,-0.11054999999999962,0.0,0.0,0.0,0.10000000000000184,0.0,0.0
2210,0.004570375127662678,0.014352720743559758,1.9810552383744413,-0.6539484540317028,0.01775235306240693,0.008792707135732082,0.756279684859721,0,-1.0007838524070896,1.9984184682933992,-7.440012148030029e-15,0.0,0.0,1.0,0.0,0.0,0.0,0.0,0.0,0.0,0.0,0.0,0.0,0.0,0.0,0.0,0,1.0007838524070896,2.0015815317067167,-0.7071065009352508,0.00028154394165352814,0.7071065009352508,0.0008446320034767862,0.0,-0.11604999999999957,0.0,0.0,0.0,-0.11604999999999957,0.0,0.0,0.0,0.10000000000000184,0.0,0.0
2220,0.004504275898119809,0.014181135341192657,1.9810774946461045,-0.6540693423945207,0.018220849649602043,0.008747643035675629,0.7561645156438949,0,-1.0007838524070896,1.9984184682933992,-7.440012148030029e-15,0.0,0.0,1.0,0.0,0.0,0.0,0.0,0.0,0.0,0.0,0.0,0.0,0.0,0.0,0.0,0,1.0007838524070896,2.0015815317067167,-0.7071065009352508,0.00028154394165352814,0.7071065009352508,0.0008446320034767862,0.0,-0.12154999999999952,0.0,0.0,0.0,-0.12154999999999952,0.0,0.0,0.0,0.10000000000000184,0.0,0.0
2230,0.004436705176189181,0.014003862140480374,1.9811010535625708,-0.6541939254808937,0.018703128902444834,0.008700003704316013,0.7560455083979418,0,-1.0007838524070896,1.9984184682933992,-7.440012148030029e-15,0.0,0.0,1.0,0.0,0.0,0.0,0.0,0.0,0.0,0.0,0.0,0.0,0.0,0.0,0.0,0,1.0007838524070896,2.0015815317067167,-0.7071065009352508,0.00028154394165352814,0.7071065009352508,0.0008446320034767862,0.0,-0.12704999999999947,0.0,0.0,0.0,-0.12704999999999947,0.0,0.0,0.0,0.10000000000000184,0.0,0.0
2240,0.004367629984626186,0.013820772879258793,1.9811252150443472,-0.6543221501277534,0.01919947246477298,0.00864975374658759,0.755922671884758,0,-1.0007838524070896,1.9984184682933992,-7.440012148030029e-15,0.0,0.0,1.0,0.0,0.0,0.0,0.0,0.0,0.0,0.0,0.0,0.0,0.0,0.0,0.0,0,1.0007838524070896,2.0015815317067167,-0.7071065009352508,0.00028154394165352814,0.7071065009352508,0.0008446320034767862,0.0,-0.13254999999999942,0.0,0.0,0.0,-0.13254999999999942,0.0,0.0,0.0,0.10000000000000184,0.0,0.0
2250,0.00429699491609292,0.013631634415701296,1.9811492481994533,-0.654453971178923,0.019710090347604084,0.0085968132096796,0.755796008688366,0,-1.0007838524070896,1.9984184682933992,-7.440012148030029e-15,0.0,0.0,1.0,0.0,0.0,0.0,0.0,0.0,0.0,0.0,0.0,0.0,0.0,0.0,0.0,0,1.0007838524070896,2.0015815317067167,-0.7071065009352508,0.00028154394165352814,0.7071065009352508,0.0008446320034767862,0.0,-0.13804999999999937,0.0,0.0,0.0,-0.13804999999999937,0.0,0.0,0.0,0.10000000000000184,0.0,0.0
