yifeidong0/3D-Soft-Fixture/results/StarfishSplashBowl_10-05-2023-09-17-59_4blender/data.csv
index,obj_pos_x,obj_pos_y,obj_pos_z,obj_qtn_x,obj_qtn_y,obj_qtn_z,obj_qtn_w,obj_joint_0_pos,obj_joint_1_pos,obj_joint_2_pos,obj_joint_3_pos,obj_joint_4_pos,obj_joint_5_pos,obj_joint_6_pos,obj_joint_7_pos,obj_joint_8_pos,obj_joint_9_pos
0,0.0,0.0,5.0,0.0,0.0,0.0,1.0,0.0,0.0,0.0,0.0,0.0,0.0,0.0,0.0,0.0,0.0
1,0.0,0.0,4.9998296875,1.5448001459803537e-21,1.1954940226970391e-20,0.0,1.0,0.0,-2.405355376693285e-21,0.0,-2.5679065925163144e-35,0.0,-4.126211818187773e-20,0.0,3.770482698349356e-20,0.0,3.6581464938045597e-20
2,-1.178244570995799e-39,1.3604090710843189e-40,4.99948909204567,9.948466217819413e-21,3.2721434189994473e-20,-1.877431030460666e-40,1.0,-9.291205264115332e-40,-5.866677088546813e-21,-2.3176181103824736e-40,-2.5679065925163144e-35,1.0821580541435402e-40,-1.25203281410273e-19,-1.3877243996117174e-39,1.0491554318975934e-19,-4.139400759141625e-39,1.089602229161108e-19
3,-9.743205646905036e-39,-5.8696869923605175e-40,4.998978245497458,1.3639522452274333e-20,5.558793771354258e-20,-1.8893151265755547e-39,1.0,-1.4104075627234695e-39,-7.52350078416426e-21,3.186969908874933e-39,-2.5679065925163144e-35,2.684452878435809e-40,-2.4026330280336647e-19,5.11735911866662e-39,2.0274427121607884e-19,-9.858312359417684e-39,2.0092930941443939e-19
4,-3.010530639317917e-38,1.969440522561543e-39,4.998297182028903,1.2799451206214732e-20,6.98509382922534e-20,-2.519958626407746e-39,1.0,-1.6508841507718248e-38,-2.5381294437775778e-21,-5.92129536167204e-39,-3.209883240645393e-35,-6.634539400896817e-40,-3.495129171561905e-19,2.6856095851900167e-40,3.123578779911783e-19,-2.8099794273075737e-38,3.525256308862599e-19
5,-6.434550936538552e-38,9.689307102662736e-40,4.997445938124821,5.281346985689081e-21,7.412809232348609e-20,-7.516679074203902e-39,1.0,-2.098311598666701e-38,-8.372681585890929e-21,-1.767704048403013e-39,-3.209883240645393e-35,8.35739904415139e-40,-4.172529097259576e-19,1.6501123353491728e-38,3.9695568324936274e-19,-2.2857075457303763e-38,5.064261938140703e-19
6,-1.0481822737848332e-37,1.5147082281714437e-38,4.996424552579367,-1.8464548675904202e-20,7.542875769027295e-20,-1.2065514626152124e-38,1.0,-2.3568348691733285e-38,-1.6812663943651245e-20,-1.3406053480907493e-38,-3.209883240645393e-35,3.249189887526969e-39,-4.808690182872329e-19,-1.1715750166568831e-38,4.367068599494551e-19,-8.559729767668882e-39,6.1898609122632615e-19
7,-1.5733206447944562e-37,3.014603822891464e-38,4.99523306649397,-5.659788972938302e-20,8.159231525923356e-20,-2.9348653749933304e-38,1.0,6.295984583671217e-39,-2.4285376478965545e-20,6.463711902822772e-39,-1.9259299443872357e-35,5.6837903275565026e-39,-5.613641371155636e-19,-2.3736229361528394e-38,4.624940229997657e-19,6.331645907089758e-38,6.527224489485013e-19
8,-2.065367236214828e-37,7.68169070018522e-38,4.993871523275145,-1.1567999310738603e-19,8.760245724487837e-20,-4.162013901946577e-38,1.0,4.5306832826715133e-38,-1.8294167080527306e-20,-2.0291174003187036e-38,-1.9259299443872357e-35,3.276681815407247e-39,-6.652298892002443e-19,-5.194076519797077e-38,4.513741723888322e-19,1.5465467680893392e-37,6.148132949206039e-19
9,-2.6702488142635414e-37,1.6360962676963587e-37,4.992339968632181,-1.7550890673680955e-19,9.68944381013838e-20,-3.4894673425063323e-38,1.0,1.7410168124107257e-38,-1.6284481156303934e-20,-1.1823097290145587e-37,-1.9259299443872357e-35,2.2262491435699886e-39,-8.578189294107996e-19,-1.98098874426478e-37,4.414911034725338e-19,1.4049909394351207e-37,5.838990257562731e-19
10,-3.5800060371886137e-37,2.778912898491912e-37,4.990638450574701,-2.402650486066795e-19,1.0851620850947902e-19,-6.99776528174321e-38,1.0,8.563303884661185e-38,-1.2094032506205425e-20,-1.3640075851963644e-37,-1.9259299443872357e-35,-8.642253025925279e-40,-1.0834767111720315e-18,-2.047339586438724e-37,4.411671184092127e-19,2.575723469212183e-37,5.637917414903999e-19
11,-4.5774310682172e-37,4.068185461329999e-37,4.988767019410102,-3.11905397917967e-19,1.1754661354757693e-19,-1.1572773335693192e-37,1.0,2.0815787191444715e-37,-1.7728324468580092e-21,-7.8005927886256e-38,-1.9259299443872357e-35,-1.1022315088731248e-38,-1.3170950949421024e-18,-1.927720307322947e-37,4.624141516401599e-19,4.286453450570958e-37,5.768236293583442e-19
12,-5.657173775328227e-37,5.607543706930744e-37,4.986725727740872,-3.910110965969202e-19,1.1707273256585696e-19,-1.4944179343682263e-37,1.0,3.3281501750969003e-37,6.254613836436996e-21,-8.619042791833881e-38,-4.4938365369035504e-35,-2.0890725378065187e-38,-1.4999297945239906e-18,-2.1344713305418607e-37,5.116939973991503e-19,5.880926707042718e-37,6.17243866813524e-19
13,-6.493304076602082e-37,8.284066280017839e-37,4.984514630461776,-4.878270739816475e-19,1.1720141550821853e-19,-1.484198456001706e-37,1.0,3.906965448208302e-37,2.825314714025635e-20,-2.3081538043299774e-37,-3.851859888774472e-35,-5.191037570716536e-38,-1.6756417226322048e-18,-4.949325599359142e-37,5.896929329817785e-19,5.712843405515064e-37,6.118557059214959e-19
14,-7.453261490164116e-37,1.318712533147644e-36,4.982133784756927,-5.892378078831101e-19,1.1854201961393678e-19,-1.1102818266834147e-37,1.0,3.400267656942789e-37,4.054696084725805e-20,-5.857322919591516e-37,-3.851859888774472e-35,-7.14286320118941e-38,-1.920066071328289e-18,-9.021495459972302e-37,6.295741163669261e-19,5.549116985068534e-37,6.131092929480276e-19
15,-8.069478435613284e-37,1.910679329081575e-36,4.979583250096733,-7.093801187665632e-19,1.153498575696529e-19,-9.587042431785561e-38,1.0,3.826525297911813e-37,8.051890589169953e-20,-8.529603368847259e-37,-1.2839532962581575e-35,-1.4513138874278832e-37,-2.140008667925535e-18,-1.3648242603688796e-36,6.415026755986397e-19,4.772227549637591e-37,5.309119201336551e-19
16,-8.865886390834006e-37,2.6447455483547438e-36,4.976863088234716,-8.244341962793978e-19,1.147552188671167e-19,-5.933498432579588e-38,1.0,3.168966022222223e-37,9.960389055762723e-20,-1.289972129335983e-36,-1.2839532962581575e-35,-1.850999101462705e-37,-2.3677721879797544e-18,-1.8836170810663608e-36,6.7969551817415195e-19,2.587345411935985e-37,4.7663678454191765e-19
17,-9.599477352742129e-37,3.5378059667834605e-36,4.973973363204215,-9.467687299715813e-19,9.911174464918266e-20,-9.348329233600595e-39,1.0,2.58705285514605e-37,1.292024742379207e-19,-1.7251224843947317e-36,-1.2839532962581575e-35,-2.544734545380355e-37,-2.520116470678331e-18,-2.3316729326402444e-36,6.71743675911638e-19,1.9680128831469782e-37,3.844211411319726e-19
18,-1.0261214966603732e-36,4.3164094534472684e-36,4.970914141314964,-1.0538068268340414e-18,7.339348553096903e-20,-8.969109774885519e-38,1.0,5.87288786508881e-37,1.4085090598775772e-19,-1.4843876311688637e-36,-1.2839532962581575e-35,-2.8390657148282314e-37,-2.643508472181775e-18,-2.1271769471064605e-36,7.524332978619274e-19,4.5024222097484925e-37,3.94574595559466e-19
19,-1.0194431787887146e-36,5.4457607982432255e-36,4.967685491149551,-1.1829928554795383e-18,2.866399621754106e-20,7.849337568592482e-38,1.0,3.638838099340142e-37,1.624612850184035e-19,-2.0029736252926726e-36,-1.2839532962581575e-35,-3.4106108575414407e-37,-2.7577332565111897e-18,-3.2163531915055496e-36,7.507889356939739e-19,1.7118363193908334e-37,3.4175814657047033e-19
20,-9.971675531893888e-37,7.019777782961858e-36,4.964287483559753,-1.30677872812195e-18,-1.3298966043630032e-20,3.311042268374823e-37,1.0,-5.446966749166185e-38,1.6803407657470944e-19,-2.9054673797003033e-36,-3.851859888774472e-35,-3.56542455602524e-37,-2.8708522595165265e-18,-4.582102213813926e-36,7.960819571861886e-19,-2.019952575400757e-37,3.4596034823612734e-19
21,-8.82322002850128e-37,8.641541762154182e-36,4.9607201916627535,-1.4341435968574777e-18,-6.312985284725261e-20,5.284068655691458e-37,1.0,-2.762639325570858e-37,1.6319157006309719e-19,-3.1417832026844554e-36,-3.851859888774472e-35,-3.4253917355147637e-37,-2.9821809119815505e-18,-5.408136180188045e-36,8.069675678987628e-19,-6.8231932325032445e-37,3.786386637796001e-19
22,-7.900283432710726e-37,1.0431616706509044e-35,4.956983690837237,-1.5727919576012163e-18,-1.0236863379179095e-19,6.62967539042244e-37,1.0,-3.2484127396637798e-37,1.8097533011510308e-19,-3.3392328400154854e-36,-3.851859888774472e-35,-3.959496792288261e-37,-3.134426700636539e-18,-5.236743164112406e-36,8.087533614134292e-19,-9.503338475066547e-37,3.571618073016779e-19
23,-7.0716660391130005e-37,1.2574783694539747e-35,4.9530780587193695,-1.7098715793344908e-18,-1.4612535319227705e-19,9.492716233272323e-37,1.0,-7.9812799376256e-37,1.8011437147141272e-19,-4.3723104689547814e-36,-3.851859888774472e-35,-3.932198118511973e-37,-3.345998033665967e-18,-5.8504063958799546e-36,8.0887199362891905e-19,-1.4161890667506118e-36,3.1834749746990467e-19
24,-5.30493990690211e-37,1.4811995926535638e-35,4.949003375198649,-1.858471975741868e-18,-1.7461629599782383e-19,1.094413758675983e-36,1.0,-7.824519478125232e-37,2.0882745799062175e-19,-4.917246001892799e-36,1.283953296258157e-35,-4.9101867775338385e-37,-3.618421705780825e-18,-6.26000067218992e-36,8.243579691147272e-19,-1.5912824143498454e-36,2.1987616920905645e-19
25,-3.581829846869767e-37,1.7270180147091426e-35,4.944759722413651,-2.0031861087493127e-18,-2.1232708229607627e-19,1.4014905135436851e-36,1.0,-1.2003423179233397e-36,2.2948264942398683e-19,-6.11430438724723e-36,1.283953296258157e-35,-5.677703896619054e-37,-3.863034100575055e-18,-7.01806094991518e-36,9.043543860102831e-19,-2.0128555412481346e-36,2.0623578416435053e-19
26,-1.0574830080175797e-37,1.958497881941074e-35,4.940347184747644,-2.1411253676673305e-18,-2.7208856963309686e-19,1.7670384298568216e-36,1.0,-1.6748849758179952e-36,2.3328720650962496e-19,-7.19084491928258e-36,1.283953296258157e-35,-5.8287032255798e-37,-3.929171262016835e-18,-7.434560299292543e-36,1.0102438624360756e-18,-2.6407886613683805e-36,3.1484205293314814e-19
27,2.5111001572105126e-37,2.1967252801742906e-35,4.935765848824093,-2.2852051226240137e-18,-3.50144480040266e-19,2.298087350479859e-36,1.0,-2.4628894079927874e-36,2.236501767572755e-19,-8.763582334210654e-36,6.419766481290783e-36,-5.443047954709905e-37,-3.942252987463188e-18,-8.525597555933984e-36,1.0865619888341098e-18,-3.57751914319456e-36,4.629462924966002e-19
28,6.724286083677699e-37,2.4930168224702886e-35,4.9310158035020475,-2.457627844726353e-18,-4.2553824548510346e-19,2.7267499143121517e-36,1.0,-2.9206494418173706e-36,2.3720522225829135e-19,-1.0697489500243726e-35,6.419766481290783e-36,-5.981799776201739e-37,-3.9837830577219695e-18,-9.386357287429327e-36,1.030981303530453e-18,-4.2634110059409284e-36,4.71556540777729e-19
29,1.1677425126688016e-36,2.8304227239848803e-35,4.926097139871406,-2.6168960225631975e-18,-5.086339293978112e-19,3.205654889148563e-36,1.0,-3.3759177754467715e-36,2.184509682421782e-19,-1.24740669590199e-35,6.419766481290783e-36,-5.2267993013168535e-37,-4.075724837817723e-18,-1.0796272901973147e-35,1.0313003236959731e-18,-4.4250395888420996e-36,5.166711439141791e-19
30,1.731851928467779e-36,3.2159240957994973e-35,4.921009951248074,-2.7691336054841475e-18,-5.98420535280144e-19,3.5090837707952205e-36,1.0,-3.302090433383776e-36,1.82085279700434e-19,-1.4356504781258695e-35,6.419766481290783e-36,-3.7300173327498255e-37,-4.141072042191417e-18,-1.1815860649602897e-35,1.034991755866623e-18,-4.107861373604985e-36,6.332402887166229e-19
31,2.322551379330703e-36,3.545426432721919e-35,4.9157543331689935,-2.929110401080448e-18,-6.928836671411874e-19,3.5222099517773635e-36,1.0,-2.5660666650054788e-36,1.5763128685497484e-19,-1.4674772196310953e-35,-2.6727647100921956e-51,-2.7120050205079987e-37,-4.176821953284574e-18,-1.1526432706711779e-35,1.034090660730457e-18,-3.54119061502628e-36,7.533257912700105e-19
32,2.991767293641085e-36,3.9310418066755386e-35,4.910330383387071,-3.0946236100767626e-18,-7.852137427883966e-19,3.95220325883519e-36,1.0,-3.031936546322329e-36,1.3211883246524224e-19,-1.6221496813981134e-35,-5.135813185032629e-35,-1.6461108451410767e-37,-4.28756041237953e-18,-1.3375453088166541e-35,1.014587779643985e-18,-4.3795417469201044e-36,8.503645665248014e-19
33,3.787173641526032e-36,4.2866036880385016e-35,4.904738201865982,-3.2773755188988047e-18,-8.647063569164675e-19,4.0428286085705e-36,1.0,-2.620545898401107e-36,1.2074884301508466e-19,-1.6383942205301816e-35,-5.135813185032629e-35,-1.1593532219095914e-37,-4.425864399936943e-18,-1.351542971757239e-35,1.0041680556009373e-18,-4.6514831504127815e-36,8.439565751997618e-19
34,4.92340815201333e-36,4.721705494915461e-35,4.898977890774864,-3.467885396600465e-18,-9.422291021346524e-19,4.398405655381699e-36,1.0,-2.821530062716632e-36,1.1857931090548598e-19,-1.7529850133757107e-35,-5.135813185032629e-35,-1.0631788979707479e-37,-4.6348866148723376e-18,-1.578911728790571e-35,9.914068164674504e-19,-5.665118013347774e-36,8.214986759411483e-19
35,6.467844198098054e-36,5.119990385319731e-35,4.893049554482898,-3.654776433067703e-18,-1.0314638192299437e-18,5.146813857916393e-36,1.0,-3.941299758194804e-36,1.2834077102906682e-19,-1.8837342271614754e-35,-5.135813185032629e-35,-1.5184805125855431e-37,-4.761744144505272e-18,-1.9571447002116052e-35,1.0839705661119587e-18,-7.888942837128723e-36,9.021328759406297e-19
36,8.447705421241388e-36,5.593989183091541e-35,4.886953299553775,-3.854419287324609e-18,-1.1327125965678307e-18,6.083260751401334e-36,1.0,-5.491804874906185e-36,1.435715289750131e-19,-2.101752757398972e-35,-6.419766481290786e-35,-2.244992222407187e-37,-4.859455055510955e-18,-2.4510476796246123e-35,1.1568318850745352e-18,-1.0840639845200934e-35,9.588225019959982e-19
37,1.1005135824875095e-35,6.10971591093212e-35,4.880689234740051,-4.054686275648972e-18,-1.2418206023005367e-18,7.254069276785401e-36,1.0,-7.564139972367288e-36,1.5051818734184494e-19,-2.3961948938128067e-35,-5.777789833161707e-35,-2.5820557707725927e-37,-4.9037238697089944e-18,-3.0263795706104647e-35,1.2215769704900715e-18,-1.483248510471755e-35,1.0266080728861275e-18
38,1.3742756422277251e-35,6.666328087552566e-35,4.87425747097739,-4.270759398758897e-18,-1.353830987083963e-18,8.512392589097993e-36,1.0,-1.0499337317637617e-35,1.7069918131316007e-19,-2.8214822853742834e-35,-5.777789833161707e-35,-3.5660865543329785e-37,-4.913289944690274e-18,-3.5297060952440413e-35,1.2033390786052245e-18,-1.897071363324089e-35,9.8152779636935e-19
39,1.717081051406617e-35,7.354292519208497e-35,4.867658121378699,-4.4907462145668215e-18,-1.464000332426047e-18,9.957406635143408e-36,1.0,-1.3542290887825174e-35,1.7974905636333674e-19,-3.3923327735306757e-35,-5.777789833161707e-35,-4.00932749684018e-37,-4.9530919915191385e-18,-4.053596779003328e-35,1.170738975825371e-18,-2.3663211445429624e-35,8.897509969425447e-19
40,2.0770578439169704e-35,8.069244160493864e-35,4.86089130122815,-4.713992664045612e-18,-1.5696331917770054e-18,1.1099261399358914e-35,1.0,-1.6249919096992994e-35,2.020576362588902e-19,-3.7975293583541023e-35,-5.777789833161707e-35,-5.116690580378213e-37,-5.0635673472696226e-18,-4.4015356006865833e-35,1.1729452851656194e-18,-2.725634321033812e-35,7.7991904816340785e-19
41,2.4600214943325615e-35,8.756169079082459e-35,4.85395712797509,-4.939904221263578e-18,-1.6803665861441533e-18,1.2046009172076805e-35,1.0,-1.8369425785763968e-35,2.1634439577518904e-19,-4.1454469057764533e-35,-5.777789833161707e-35,-5.845875631726806e-37,-5.1377235734503644e-18,-4.6308598363294053e-35,1.197333499284914e-18,-2.8820722774615974e-35,7.199323634066136e-19
42,2.8578271476195486e-35,9.562502378867393e-35,4.846855721227853,-5.166949872795913e-18,-1.7923258765518173e-18,1.3543366718561384e-35,1.0,-2.195145436341247e-35,2.2132185078427414e-19,-4.7187191106682217e-35,-4.4938365369035504e-35,-6.104288791807867e-37,-5.233073037701227e-18,-5.063000633683578e-35,1.2181289745331872e-18,-3.268818475012256e-35,6.814340031360312e-19
43,3.250524702148972e-35,1.0319058915106228e-34,4.839587202747447,-5.427701981122486e-18,-1.90144272099301e-18,1.4600729347981099e-35,1.0,-2.3815964960014066e-35,2.555562427845773e-19,-5.068043538248111e-35,-1.925929944387236e-35,-7.918248693884146e-37,-5.309585566773282e-18,-5.273970488019708e-35,1.1343284661068764e-18,-3.444555157213635e-35,5.07975962515426e-19
44,3.72503565118511e-35,1.1048256265731514e-34,4.832151696441149,-5.653540422754025e-18,-2.012671525239258e-18,1.5989069922595717e-35,1.0,-2.598596679247747e-35,2.5380477599848706e-19,-5.379899129080079e-35,-1.925929944387236e-35,-7.823179294844934e-37,-5.363635120180101e-18,-5.583918330296593e-35,1.2142890357661312e-18,-3.829639978557574e-35,5.168005061624192e-19
45,4.238858905340709e-35,1.1881844382807398e-34,4.824549328355986,-5.876332252366194e-18,-2.153901083872053e-18,1.807462549750814e-35,1.0,-3.0237581181630973e-35,2.4836428029684732e-19,-6.020697148932187e-35,-1.925929944387236e-35,-7.525472084664252e-37,-5.3230333650262465e-18,-6.085180238989955e-35,1.268859129745536e-18,-4.4078974140913275e-35,6.123750032905699e-19
46,4.8058100273056116e-35,1.266717552626362e-34,4.816780226672111,-6.108643858301611e-18,-2.309086580101734e-18,1.9739923736241625e-35,1.0,-3.3484336543682474e-35,2.3632785092427175e-19,-6.430468756343482e-35,-1.925929944387236e-35,-6.875397938054062e-37,-5.2687141003390654e-18,-6.356275285427705e-35,1.251445620889506e-18,-4.894751264395743e-35,6.851793544442644e-19
47,5.41339483313046e-35,1.3479570230947819e-34,4.808844521696073,-6.3463727741531616e-18,-2.451600249747049e-18,2.0610900618063628e-35,1.0,-3.43169430459993e-35,2.20935162101624e-19,-6.705741688368421e-35,-1.925929944387236e-35,-6.054848662059593e-37,-5.227836679404802e-18,-6.390945744239227e-35,1.2559375076006084e-18,-5.327053899653118e-35,7.6373668452691135e-19
48,6.095681259039685e-35,1.438155841605547e-34,4.800742345853983,-6.5965675716312015e-18,-2.600933194853049e-18,2.2059980712098456e-35,1.0,-3.62117466517986e-35,2.0537216825034562e-19,-7.014466128533188e-35,-1.925929944387236e-35,-5.234577177911611e-37,-5.231452917455918e-18,-6.845154039824883e-35,1.2008474642898308e-18,-5.882643526741362e-35,7.863514624355824e-19
49,6.790248188875878e-35,1.5454330735729364e-34,4.79247383368458,-6.849034177122064e-18,-2.747818290125135e-18,2.3822564359581407e-35,1.0,-3.906221049834394e-35,1.8540145854793715e-19,-7.761645844778713e-35,-4.4938365369035504e-35,-4.180360171081478e-37,-5.272827276655219e-18,-7.425560577994528e-35,1.1668081382556093e-18,-6.57777800701891e-35,8.356342795610152e-19
50,7.454443112476585e-35,1.6691863886874574e-34,4.784039121832187,-7.121664375634011e-18,-2.867428891509199e-18,2.523857439129386e-35,1.0,-4.230697708652887e-35,2.2142530730465794e-19,-8.463484388032379e-35,-4.4938365369035504e-35,-6.096495978509359e-37,-5.4013641830915495e-18,-7.884210578895265e-35,1.155023954685244e-18,-7.080893216561607e-35,7.167430550619096e-19
51,8.190271863042538e-35,1.7993317620028063e-34,4.775438349039568,-7.370170745051816e-18,-3.013539051587413e-18,2.6669253890690853e-35,1.0,-4.5202635777145667e-35,2.044719570031266e-19,-9.078248316584272e-35,-7.061743129419865e-35,-5.1670687841200706e-37,-5.405700112365558e-18,-8.403299484272464e-35,1.2234443285097846e-18,-7.529214254922301e-35,8.065504070620753e-19
52,9.002262677916903e-35,1.9346113029057012e-34,4.766671656140689,-7.624359195733646e-18,-3.176450075563949e-18,2.735001072524871e-35,1.0,-4.505440838618422e-35,1.990701391403622e-19,-9.56321178461807e-35,-7.061743129419865e-35,-4.8722002156171145e-37,-5.3936392393758625e-18,-8.557814009006672e-35,1.261364765910718e-18,-7.750744046065656e-35,9.018915267611638e-19
53,9.726656835475385e-35,2.075516940975905e-34,4.757739186053366,-7.88808493639537e-18,-3.3220636291326875e-18,2.7493746173814565e-35,1.0,-4.665629968726537e-35,1.96995966137199e-19,-9.961899255613862e-35,-7.061743129419865e-35,-4.759762906956975e-37,-5.463367241855131e-18,-8.764217919370797e-35,1.3114549150082389e-18,-7.811767439469554e-35,9.55929072510995e-19
54,1.05868051692069e-34,2.2215244379654365e-34,4.748641083771829,-8.164345782282691e-18,-3.465829335757072e-18,2.8108252792430774e-35,1.0,-4.872414069080978e-35,2.2051980448991894e-19,-1.0329122971186591e-34,-7.061743129419865e-35,-6.0482294050013146e-37,-5.596699317530613e-18,-9.065933579865635e-35,1.3209060790073933e-18,-8.28290607307382e-35,9.085456164647755e-19
55,1.1505473053769824e-34,2.375120861101678e-34,4.739377496359168,-8.432162031633971e-18,-3.618434383203084e-18,2.8269489008946216e-35,1.0,-4.998276507532727e-35,2.4825447956139937e-19,-1.0823255792208984e-34,-7.061743129419865e-35,-7.609204372067307e-37,-5.716360977964813e-18,-9.266074752265864e-35,1.4148032549177386e-18,-8.597031748362787e-35,9.0061844422043e-19
56,1.2612053553033354e-34,2.5390223221808612e-34,4.729948572939702,-8.714495045145763e-18,-3.766654450769683e-18,2.8393648189237896e-35,1.0,-5.13054091868776e-35,2.800402018747451e-19,-1.1216216287855772e-34,-1.9259299443872365e-35,-9.434808335594337e-37,-5.880350763598001e-18,-9.61152782296191e-35,1.4705936581507524e-18,-8.954179202585095e-35,8.718928032082837e-19
57,1.3781861144303824e-34,2.7229532848941875e-34,4.720354464691232,-8.999672369440941e-18,-3.9178521941423774e-18,2.867287233718416e-35,1.0,-5.309139740434504e-35,3.0496028401171286e-19,-1.1786399395210615e-34,-1.283953296258158e-35,-1.0909165091418853e-36,-6.020109499463945e-18,-9.858088551956694e-35,1.5664175553159772e-18,-9.140965107728975e-35,8.590811107709925e-19
58,1.5126058371791653e-34,2.9231938161179496e-34,4.710595324837208,-9.265924597330445e-18,-4.095884170487273e-18,3.02511097481029e-35,1.0,-5.541317003503813e-35,2.964382916738051e-19,-1.2530121349400659e-34,-1.283953296258158e-35,-1.0393249859421264e-36,-6.109153326993736e-18,-1.0619647618118056e-34,1.6576110404207366e-18,-9.50986022678225e-35,9.681461615925606e-19
59,1.6395230995281012e-34,3.1357827667925067e-34,4.7006713086388,-9.546005667750518e-18,-4.2681434780840504e-18,3.2158275644107116e-35,1.0,-6.046232976647427e-35,3.0258704631124764e-19,-1.3193957441878155e-34,-1.283953296258158e-35,-1.0769178408574082e-36,-6.247708774714306e-18,-1.1283282977138145e-34,1.7263167903906245e-18,-1.0128232590197678e-34,1.0067340608569268e-18
60,1.7804647005738805e-34,3.36215026047784e-34,4.690582573386866,-9.841231920966213e-18,-4.467719807610279e-18,3.4862161733352154e-35,1.0,-6.651213927082831e-35,3.1152455202367906e-19,-1.410575957377483e-34,-8.018294130276587e-51,-1.132727524159492e-36,-6.279245306848363e-18,-1.221262000098291e-34,1.7116740326947159e-18,-1.1051968617958944e-34,9.960782337660436e-19
61,1.929850963211428e-34,3.601216725558479e-34,4.680329278393838,-1.014188567269573e-17,-4.666215215758121e-18,3.7830260043971835e-35,1.0,-7.354051441395854e-35,3.13520580300277e-19,-1.5166570346551372e-34,-8.018294130276587e-51,-1.1452676923365842e-36,-6.323064386582524e-18,-1.2963604451940508e-34,1.7092529106544546e-18,-1.2212559955402335e-34,9.964560454177125e-19
62,2.074870501728121e-34,3.8628241642559936e-34,4.669911584985506,-1.0462440978284321e-17,-4.852017861950777e-18,4.043828554530066e-35,1.0,-8.160283734480958e-35,3.245718972303239e-19,-1.653809902095888e-34,-8.018294130276587e-51,-1.2152218785599863e-36,-6.435920466158789e-18,-1.3592541584923344e-34,1.6773497358808838e-18,-1.2934355303140872e-34,9.239195393677921e-19
63,2.2340189672644024e-34,4.114114692305278e-34,4.6593296564927105,-1.0769633033398993e-17,-5.059901013623886e-18,4.2359208842544076e-35,1.0,-8.585894671446994e-35,3.080542186364315e-19,-1.7512365668900495e-34,-8.018294130276587e-51,-1.1083429644045193e-36,-6.447462210234599e-18,-1.4041268107820926e-34,1.7126562215478478e-18,-1.3565110123070985e-34,9.87087801323035e-19
64,2.4077374341856204e-34,4.383679663567199e-34,4.648583658242949,-1.1087067943608434e-17,-5.267291631567135e-18,4.325927258669073e-35,1.0,-8.766317018042135e-35,3.0539639804124453e-19,-1.8451678027286295e-34,-8.018294130276587e-51,-1.0911596131400641e-36,-6.459587788971777e-18,-1.4685238895175267e-34,1.7645394342427656e-18,-1.4151237234721413e-34,1.062910072087418e-18
65,2.588404226838561e-34,4.657900037399356e-34,4.637673757551888,-1.1405340838054744e-17,-5.491145248368048e-18,4.4930498597872946e-35,1.0,-9.188349009243144e-35,2.833024765265763e-19,-1.9463019164532476e-34,-8.018294130276587e-51,-9.485419286367972e-37,-6.473991605776985e-18,-1.5760704558581865e-34,1.813120395899354e-18,-1.504746632105076e-34,1.2090358194206887e-18
66,2.7704056880578452e-34,4.959645940483019e-34,4.626600123714786,-1.17339860244072e-17,-5.729127322803575e-18,4.6593595989336257e-35,1.0,-9.514826099165155e-35,2.585797019975385e-19,-2.056709894044745e-34,1.2839532962581564e-35,-7.894715181036855e-37,-6.4702986618061824e-18,-1.6789528919372854e-34,1.8074797988360738e-18,-1.5706800142085822e-34,1.3190951034484667e-18
67,2.96353971678839e-34,5.287514417929648e-34,4.615362927997826,-1.208795095344845e-17,-5.959875083822467e-18,4.846471500241554e-35,1.0,-1.005986496897172e-34,2.541937555710393e-19,-2.1781841998283133e-34,1.2839532962581564e-35,-7.613599536395282e-37,-6.533680053278082e-18,-1.7943238176428933e-34,1.7602089309688945e-18,-1.6433937156076563e-34,1.3010917323701948e-18
68,3.1719681780604342e-34,5.619204295095654e-34,4.603962343629368,-1.2448259517495167e-17,-6.17006490587442e-18,4.957763173534186e-35,1.0,-1.0505848037889366e-34,2.671840240627443e-19,-2.2785498363047394e-34,1.925929944387235e-35,-8.456489306498167e-37,-6.662659191890567e-18,-1.9229091604881243e-34,1.7380356445855755e-18,-1.742380663893244e-34,1.2257637782924211e-18
69,3.3945023104169994e-34,5.9493230856480135e-34,4.592398545791103,-1.2790080714388994e-17,-6.378640476908513e-18,5.012891569007335e-35,1.0,-1.0752725688886986e-34,2.6633589343866724e-19,-2.3267310302376194e-34,1.925929944387235e-35,-8.400125756331176e-37,-6.7844005154981705e-18,-1.9932634619990205e-34,1.775045042340365e-18,-1.8231524859906711e-34,1.2356228488850126e-18
70,3.6145675710466055e-34,6.289478736502027e-34,4.580671711609134,-1.313794163983216e-17,-6.588519122728907e-18,5.083100722692355e-35,1.0,-1.107301687450824e-34,2.7836197746720847e-19,-2.396009994830234e-34,1.925929944387235e-35,-9.214157578963446e-37,-6.88477041565838e-18,-2.0734988563761707e-34,1.8283249100501367e-18,-1.9205171666800808e-34,1.2564075692781752e-18
71,3.850659747327363e-34,6.640174822638703e-34,4.568782020144958,-1.3489436215662425e-17,-6.8139825902246466e-18,5.169079330754031e-35,1.0,-1.13946040176831e-34,2.797504417913537e-19,-2.48166068766647e-34,1.925929944387235e-35,-9.309464362186425e-37,-6.942114770681688e-18,-2.1975157414729794e-34,1.8935490305671983e-18,-2.0128694528759605e-34,1.3222608547442274e-18
72,4.0996242820156005e-34,6.97580685375205e-34,4.556729652386381,-1.3850535259553288e-17,-7.05599662532811e-18,5.197221706921226e-35,1.0,-1.141629481510303e-34,2.902262071406801e-19,-2.522516496419837e-34,1.925929944387235e-35,-1.0032558410759986e-36,-6.978131534632634e-18,-2.2579299159972127e-34,1.9226977994252504e-18,-2.095624042172866e-34,1.367321131844301e-18
73,4.354983667246955e-34,7.357698341613834e-34,4.544514791238332,-1.4232045074413845e-17,-7.299438730841871e-18,5.441512934300869e-35,1.0,-1.2113588214035986e-34,2.9682768367264545e-19,-2.6373335034348707e-34,1.925929944387235e-35,-1.0489875920052517e-36,-7.017281596498909e-18,-2.4271943070466767e-34,1.9108345592687333e-18,-2.2635502140488637e-34,1.354718612651938e-18
74,4.607064937663409e-34,7.784080866097542e-34,4.53213762151361,-1.460287965801866e-17,-7.538044505930955e-18,5.762442272814332e-35,1.0,-1.3124404055040029e-34,2.9816363447210862e-19,-2.8107044841915782e-34,1.925929944387235e-35,-1.0583042841395554e-36,-7.045442706409924e-18,-2.5903287913031543e-34,1.912731250001955e-18,-2.4430861672184737e-34,1.3536585890051368e-18
75,4.871977269107841e-34,8.21344904038137e-34,4.519598329923542,-1.4970583712432905e-17,-7.80712909811501e-18,5.987767357346661e-35,1.0,-1.3843009825255494e-34,2.9154357700765054e-19,-2.9452654121068947e-34,2.5679065925163134e-35,-1.0119373504674027e-36,-7.020658165977706e-18,-2.6802334674405537e-34,1.869879869630431e-18,-2.5968369513805142e-34,1.386836723093581e-18
76,5.159763459946223e-34,8.656127546206736e-34,4.506897105068561,-1.5328876828050188e-17,-8.06439480165305e-18,6.122946424346052e-35,1.0,-1.4288735741495386e-34,2.8225190117262073e-19,-3.0749167562693323e-34,2.5679065925163134e-35,-9.471053718386837e-37,-7.014746585350282e-18,-2.7597357239847384e-34,1.8832130275456145e-18,-2.6854523346750383e-34,1.4716398619665244e-18
77,5.461016734866777e-34,9.104140744127988e-34,4.494034137428711,-1.5700505660615603e-17,-8.325520255686705e-18,6.099044123558303e-35,1.0,-1.436749726512523e-34,2.623326302054976e-19,-3.1069601375458007e-34,2.5679065925163134e-35,-8.086233454829154e-37,-6.991360994063147e-18,-2.791171596898919e-34,1.889936330318655e-18,-2.736409871591477e-34,1.548407363718761e-18
78,5.771022144077392e-34,9.58777235108181e-34,4.481009619354065,-1.606839410682692e-17,-8.57507934663796e-18,6.199932603597565e-35,1.0,-1.4562790125562727e-34,2.433437141001721e-19,-3.1830455887638485e-34,-1.0691058840368783e-50,-6.773915405997679e-37,-7.086459354044281e-18,-2.876154433503858e-34,1.8942693782898448e-18,-2.7784052797529454e-34,1.6359984116045926e-18
79,6.090523766381088e-34,1.0067767491798784e-33,4.467823745055075,-1.6445054598091224e-17,-8.83772535523342e-18,6.278261131300977e-35,1.0,-1.4640452401581768e-34,2.445068783383554e-19,-3.264377619124998e-34,-1.0691058840368783e-50,-6.855283083186633e-37,-7.139732852117799e-18,-2.9476080566527214e-34,1.9089801711423328e-18,-2.8438373321164515e-34,1.7159794586511153e-18
80,6.423452126136146e-34,1.056134801369338e-33,4.454476710592837,-1.6831557005226694e-17,-9.099093421162038e-18,6.248084443992944e-35,1.0,-1.4460214941566497e-34,2.52188811930852e-19,-3.3389272092378547e-34,-2.5679065925163155e-35,-7.395653092189057e-37,-7.236307406152701e-18,-2.9819555363640834e-34,1.900892325345335e-18,-2.863073791545887e-34,1.7442228718796073e-18
81,6.7802688720140546e-34,1.1086700200961555e-33,4.4409687138692915,-1.7217881939456104e-17,-9.38174214281687e-18,6.548000383100142e-35,1.0,-1.5376563264058456e-34,2.276807940469703e-19,-3.4613564588433105e-34,-2.5679065925163155e-35,-5.647357827152807e-37,-7.276056197035988e-18,-3.108955700265613e-34,1.891802719543192e-18,-2.9586574128662213e-34,1.822919386553825e-18
82,7.128739408903817e-34,1.1674842171328974e-33,4.427299954617339,-1.7617555755028926e-17,-9.668159205680854e-18,6.960120818122958e-35,1.0,-1.6864463597579559e-34,2.2560808430124578e-19,-3.6739739654409185e-34,-5.13581318503263e-35,-5.498901740265897e-37,-7.332985900438309e-18,-3.273714732675192e-34,1.8798586898388647e-18,-3.0642685699357253e-34,1.8432197994664713e-18
83,7.481817819653721e-34,1.2270909972890624e-33,4.413470634390889,-1.8036548506226577e-17,-9.950060421660548e-18,7.375244791660617e-35,1.0,-1.7990012860355593e-34,2.467874978088365e-19,-3.896675984923682e-34,-7.703719777548944e-35,-7.028361516346204e-37,-7.460224856889826e-18,-3.397776579008726e-34,1.8517634994570335e-18,-3.2256304791404936e-34,1.7612938608726615e-18
84,7.836641682197481e-34,1.2859784065131625e-33,4.399480956554839,-1.847364122559751e-17,-1.0220606225436389e-17,7.755408221352673e-35,1.0,-1.9149710266246585e-34,2.869392471582707e-19,-4.068938917343278e-34,-7.703719777548944e-35,-9.991012405058513e-37,-7.647763745102074e-18,-3.4491703644268695e-34,1.8280280410063973e-18,-3.4032766724800213e-34,1.580945805166539e-18
85,8.225638684451655e-34,1.344750558497609e-33,4.3853311262749735,-1.890193912800641e-17,-1.0508847554789035e-17,8.140191745096276e-35,1.0,-2.0215856356101973e-34,3.080523964523208e-19,-4.1733063187496344e-34,-7.703719777548944e-35,-1.1599704561046119e-36,-7.756525832017437e-18,-3.4742999864695902e-34,1.856257146343104e-18,-3.5658702436742896e-34,1.4982714920665426e-18
86,8.658699072022669e-34,1.3968702593434978e-33,4.3710213505078,-1.931723811284616e-17,-1.0805466558694433e-17,8.563053906215204e-35,1.0,-2.129330950644614e-34,3.1832537241884067e-19,-4.212128400406169e-34,-7.703719777548944e-35,-1.2395672927835087e-36,-7.844571755656259e-18,-3.455459130716697e-34,1.967606767608251e-18,-3.748835549304382e-34,1.4991646219197466e-18
87,9.113614003687052e-34,1.4502124537946915e-33,4.3565518379903185,-1.9739089290971087e-17,-1.1125466459988784e-17,9.145234231440761e-35,1.0,-2.237580400142462e-34,3.2515568074318653e-19,-4.329519268175576e-34,-1.0271626370065258e-34,-1.2930166005289962e-36,-7.874981051178926e-18,-3.5228282512082205e-34,2.0205670644557856e-18,-3.916023577963395e-34,1.5474635274369189e-18
88,9.61024569149771e-34,1.5089571655418149e-33,4.341922799229716,-2.0165847844114416e-17,-1.1465743625573694e-17,9.845786410609932e-35,1.0,-2.3392402007577784e-34,3.3306948668089e-19,-4.473291299264825e-34,-1.0271626370065258e-34,-1.3550608655022253e-36,-7.875922236767392e-18,-3.6872436395693948e-34,2.050180218332707e-18,-4.1163698949661e-34,1.5862839918194882e-18
89,1.0123723052329654e-33,1.570357005311928e-33,4.3271344464929955,-2.059619013808784e-17,-1.1801412914635515e-17,1.0616731443364814e-34,1.0,-2.4653528958161646e-34,3.225510406366441e-19,-4.646521892076934e-34,-1.1555579666323415e-34,-1.2727174223362176e-36,-7.889804539983394e-18,-3.844956514536547e-34,2.0878662593153493e-18,-4.338300042184356e-34,1.6443156910650706e-18
90,1.0664686302468378e-33,1.635716507989509e-33,4.312186993796548,-2.1029544053457526e-17,-1.2147516291641337e-17,1.1533044019701426e-34,1.0,-2.6138421193615943e-34,2.999778951769555e-19,-4.850420307585579e-34,-1.1555579666323415e-34,-1.0960563394980876e-36,-7.94851929186425e-18,-4.052431329516106e-34,2.0948162790659602e-18,-4.538598283049662e-34,1.716848145623471e-18
91,1.1231122216312204e-33,1.7033834861104014e-33,4.297080656895645,-2.1477001346069093e-17,-1.2486559450629747e-17,1.2105349224825489e-34,1.0,-2.609360982824467e-34,2.8903097602132155e-19,-4.965222143029515e-34,-1.1555579666323415e-34,-1.009858800354708e-36,-8.106308150145157e-18,-4.1574325456767935e-34,2.0426484076634494e-18,-4.642811839881132e-34,1.713396654858626e-18
92,1.1852089865689669e-33,1.769061081760399e-33,4.281815653273881,-2.190663806612746e-17,-1.2831575344779165e-17,1.2707564367858254e-34,1.0,-2.5958143096349197e-34,2.708068435484696e-19,-4.96971807226931e-34,-1.0913603018194336e-34,-8.631035128624204e-37,-8.235417363048302e-18,-4.3062485118689845e-34,2.0922564574269828e-18,-4.847976748448111e-34,1.836197568716483e-18
93,1.246852548653678e-33,1.8355958882401707e-33,4.266392202132545,-2.2359115822381396e-17,-1.3189057932453886e-17,1.3338110429491852e-34,1.0,-2.6441927377924544e-34,2.6648781511570495e-19,-5.043667672055365e-34,-1.0913603018194336e-34,-8.27861486958714e-37,-8.360916296449138e-18,-4.446147609197887e-34,2.0966760801828665e-18,-5.065313381573579e-34,1.899653199760176e-18
94,1.3121722570403244e-33,1.9003335890022544e-33,4.250810524379934,-2.280411116009817e-17,-1.355379522347171e-17,1.4113139580660111e-34,1.0,-2.7516753804252064e-34,2.469079832955579e-19,-5.109724268705323e-34,-1.0913603018194336e-34,-6.657143077013813e-37,-8.50806642913139e-18,-4.659141812370129e-34,2.098621121203077e-18,-5.376115955872641e-34,1.9988464034729995e-18
95,1.3781514116538536e-33,1.9678745358821887e-33,4.235070842620603,-2.325096866886346e-17,-1.393153154272574e-17,1.5140928734189739e-34,1.0,-2.9643343309827383e-34,2.3007566447157824e-19,-5.2958589813629634e-34,-1.0913603018194336e-34,-5.239900645980682e-37,-8.606413002195283e-18,-4.905178451336828e-34,2.1068894648771608e-18,-5.742034923536124e-34,2.122835360752188e-18
96,1.4413366982003119e-33,2.0338172058339295e-33,4.219173381144561,-2.371999389148822e-17,-1.430774335895085e-17,1.5905355938513614e-34,1.0,-3.1518282067506403e-34,2.1971195330639524e-19,-5.4236584522430075e-34,-1.0913603018194336e-34,-4.359016556889695e-37,-8.721018372065564e-18,-5.0412930789167875e-34,2.0884300074811886e-18,-6.003330680324536e-34,2.1589014916084102e-18
97,1.509606483768948e-33,2.1081197554799503e-33,4.203118365916401,-2.4205903978280187e-17,-1.4681746436571264e-17,1.677373647636458e-34,1.0,-3.3850357960320026e-34,2.222120720719623e-19,-5.646620451259449e-34,-1.0913603018194336e-34,-4.574495969963878e-37,-8.869053717601616e-18,-5.264674258427689e-34,2.03739932905972e-18,-6.283206375889058e-34,2.124537990628791e-18
98,1.582880015426344e-33,2.1861862516103063e-33,4.186906024564382,-2.4694750796568833e-17,-1.506569604161982e-17,1.7704512562257145e-34,1.0,-3.585224687967024e-34,2.1965344059123584e-19,-5.924018106439092e-34,-1.0913603018194336e-34,-4.349523367988689e-37,-8.958146229568505e-18,-5.5869217817910995e-34,2.0175664136551007e-18,-6.570987655384253e-34,2.1013748759962092e-18
99,1.6546486098060118e-33,2.2591111117351828e-33,4.170536586369444,-2.5187898388359973e-17,-1.5446296946339143e-17,1.809200360807452e-34,1.0,-3.666994031644631e-34,2.206457541461452e-19,-6.023275971496793e-34,-1.348150961071065e-34,-4.4378023235632785e-37,-9.032815693893752e-18,-5.651928173244378e-34,2.0305575577451954e-18,-6.643276036115287e-34,2.0905981488095102e-18
100,1.730935599957497e-33,2.334426412274051e-33,4.154010282254177,-2.5689074194890447e-17,-1.5845748534330753e-17,1.8731427309498286e-34,1.0,-3.791385194898639e-34,2.1022250622526313e-19,-6.169221671239023e-34,-1.348150961071065e-34,-3.502135992866094e-37,-9.07090601056061e-18,-5.883775365447968e-34,2.040481868988941e-18,-6.846656897826364e-34,2.1363222347096137e-18
101,1.8121030566803284e-33,2.4148266740623896e-33,4.137327344771732,-2.6202701970870306e-17,-1.624809403326933e-17,1.9621776724641805e-34,1.0,-4.002389129004956e-34,1.9962207998411348e-19,-6.437332399972833e-34,-1.348150961071065e-34,-2.547335298287989e-37,-9.077384256806775e-18,-6.3271494419487796e-34,2.0481533975446145e-18,-7.189588974559626e-34,2.169857549278957e-18
102,1.900914708587931e-33,2.5009553269983755e-33,4.120488008094678,-2.67407746853084e-17,-1.6651203783679528e-17,2.0702338836627017e-34,1.0,-4.224558956758588e-34,1.9885248928161636e-19,-6.730839361854703e-34,-1.348150961071065e-34,-2.4780224113177008e-37,-9.104075773182023e-18,-6.866074167344277e-34,2.0043814757913923e-18,-7.679347539595167e-34,2.126609273316475e-18
103,1.989170391246723e-33,2.588837462288102e-33,4.10349250800381,-2.7266810636571408e-17,-1.704070378916826e-17,2.159869575797482e-34,1.0,-4.469405834791158e-34,1.9416033808438745e-19,-6.955559793240548e-34,-1.4123486258839729e-34,-2.0533535443916838e-37,-9.220090585456644e-18,-7.249787740347425e-34,2.0388720513049847e-18,-8.097531324883677e-34,2.0982293855769194e-18
104,2.0779360251984093e-33,2.67721367123928e-33,4.086341081876902,-2.7806212945646914e-17,-1.7448066693982478e-17,2.2307378031994875e-34,1.0,-4.724338928108598e-34,2.0510224006386186e-19,-7.186860250109131e-34,-1.4123486258839729e-34,-3.05736984669796e-37,-9.267311359883316e-18,-7.501428273583838e-34,2.058733904203576e-18,-8.395046675667262e-34,2.114944463425609e-18
105,2.1754764843351568e-33,2.773615466087281e-33,4.069033968677416,-2.8334589683096217e-17,-1.7850231512267638e-17,2.3154623840588935e-34,1.0,-4.968710049527144e-34,2.0317963266755843e-19,-7.481481820204476e-34,-1.6691392851356042e-34,-2.8801051467737184e-37,-9.378925680303424e-18,-7.889586585535386e-34,2.1237213835427765e-18,-8.799983961256918e-34,2.1840778784814385e-18
106,2.2743121098564815e-33,2.8752715690328428e-33,4.051571408943156,-2.888799096982046e-17,-1.8246430245772677e-17,2.387904835552445e-34,1.0,-5.192912952453273e-34,2.1345890048784609e-19,-7.767136532483805e-34,-1.6691392851356042e-34,-3.837740646371592e-37,-9.488065782821793e-18,-8.213887076750423e-34,2.1497408455710887e-18,-9.128087313258876e-34,2.1747077184073385e-18
107,2.3802459965443122e-33,2.980866882686877e-33,4.033953644774879,-2.944529454516363e-17,-1.8649752581945102e-17,2.456413364903061e-34,1.0,-5.3748248835762165e-34,2.058436910528724e-19,-8.090672016722062e-34,-1.5407439555097886e-34,-3.119533713148691e-37,-9.56819120843092e-18,-8.485256611786872e-34,2.1537553831522327e-18,-9.446683214894081e-34,2.2068400259899144e-18
108,2.4906732564039016e-33,3.089002012100126e-33,4.016180919824859,-3.0013503940979174e-17,-1.906306852469083e-17,2.535779502735651e-34,1.0,-5.566302607214062e-34,1.9860021492755832e-19,-8.502011014111909e-34,-1.6049416203226964e-34,-2.430644791322767e-37,-9.610107579075377e-18,-8.80880237169675e-34,2.1884417361211247e-18,-9.795274827178184e-34,2.2885509515987088e-18
109,2.6049433219480374e-33,3.207205505688602e-33,3.9982534792854016,-3.0610196089650106e-17,-1.946180456465733e-17,2.594106514329839e-34,1.0,-5.707834130962335e-34,2.0384312706554777e-19,-8.923686633989101e-34,-1.6049416203226964e-34,-2.9305007617927875e-37,-9.765597946893453e-18,-9.128768010672712e-34,2.145649099342696e-18,-1.0056377242257374e-33,2.2582226099496687e-18
110,2.7238974837074588e-33,3.315685724410262e-33,3.9801715698773186,-3.12019100119691e-17,-1.9869578188441632e-17,2.611490159090054e-34,1.0,-5.6945636160017014e-34,1.96434766707212e-19,-9.167898125775798e-34,-1.6049416203226964e-34,-2.2108717595899434e-37,-9.815353663183791e-18,-9.253915846789669e-34,2.1836157747503708e-18,-1.0195089019859555e-33,2.3249060813167624e-18
111,2.8472170502586882e-33,3.4304685665853647e-33,3.9619354398383573,-3.179216099535037e-17,-2.0278225531487977e-17,2.6539427990524935e-34,1.0,-5.687113411046111e-34,1.8353905844171537e-19,-9.45383630319228e-34,-1.6691392851356042e-34,-9.537780558289917e-38,-9.867357041091208e-18,-9.599342566221978e-34,2.268825678696943e-18,-1.0316753365460236e-33,2.4057721973673753e-18
112,2.9745196076784424e-33,3.547708347778069e-33,3.9435453389115893,-3.2415657834343e-17,-2.069796738771345e-17,2.695230137388426e-34,1.0,-5.668092625329087e-34,1.8552787051717423e-19,-9.659500500627045e-34,-1.9259299443872356e-34,-1.148183913204883e-37,-9.873347851722345e-18,-9.848178910295578e-34,2.271913794537377e-18,-1.0509572180275955e-33,2.407157635674549e-18
113,3.102908087862359e-33,3.6614323372042254e-33,3.9250015183337554,-3.304185279263381e-17,-2.1125167157297242e-17,2.6945641722191056e-34,1.0,-5.56406019101759e-34,1.6708365345938673e-19,-9.69066398233386e-34,-1.9901276092001435e-34,6.55774856615775e-38,-9.916815779482273e-18,-9.891293685929222e-34,2.3048705067286585e-18,-1.0496439898469303e-33,2.4146621660369728e-18
114,3.2339308206330575e-33,3.77607799755355e-33,3.9063042308235727,-3.3682634068576145e-17,-2.154871681275893e-17,2.708802109855263e-34,1.0,-5.535383764942806e-34,1.700093069698571e-19,-9.684050053514274e-34,-2.246918268451775e-34,3.684412814574448e-38,-9.962389611997886e-18,-9.950633245891382e-34,2.3098024125658895e-18,-1.0582439293434945e-33,2.391724590828582e-18
115,3.3696028886755804e-33,3.897205947874942e-33,3.8874537305700025,-3.432253972427131e-17,-2.1987708228926844e-17,2.7317569612516776e-34,1.0,-5.527196241466592e-34,1.646281039337696e-19,-9.881403542732243e-34,-2.311115933264683e-34,8.997801066733621e-38,-9.959936200021546e-18,-9.98945575665014e-34,2.330902698202977e-18,-1.0569049294113446e-33,2.4301982636875907e-18
116,3.5167318646135216e-33,4.025130048476554e-33,3.8684502732204793,-3.496014728267132e-17,-2.2417960554577447e-17,2.768178200717143e-34,1.0,-5.5543325858551426e-34,1.4815597627236953e-19,-1.0170143847606552e-33,-2.246918268451775e-34,2.5240091576657773e-37,-1.0040310608244787e-17,-1.0181085967717957e-33,2.359945211802167e-18,-1.070819362350637e-33,2.4911775933862496e-18
117,3.667362801219549e-33,4.144831673312252e-33,3.849294115869103,-3.561293894976391e-17,-2.285473428984609e-17,2.7741836402188205e-34,1.0,-5.57557577601331e-34,1.6380347212932683e-19,-1.0247585549708118e-33,-2.246918268451775e-34,9.701302864962378e-38,-1.0111582668077311e-17,-1.0193140243530028e-33,2.349551919340528e-18,-1.0873377414256333e-33,2.4845154444903825e-18
118,3.8211550157210974e-33,4.266200883963053e-33,3.8299855170447983,-3.62654768401267e-17,-2.3298568424248976e-17,2.7845431412653194e-34,1.0,-5.597927907325933e-34,1.5660745633011826e-19,-1.030991970973785e-33,-2.182720603638867e-34,1.690436036509873e-37,-1.0201769931699632e-17,-1.021724814265279e-33,2.3408711630002245e-18,-1.1036209152838888e-33,2.5108426124038615e-18
119,3.974577665477171e-33,4.397465256626253e-33,3.8105247366994344,-3.693115953247834e-17,-2.374355043344228e-17,2.808088080339636e-34,1.0,-5.667030054927098e-34,1.6319653141650708e-19,-1.05817864273011e-33,-2.182720603638867e-34,1.0247432370407036e-37,-1.0303686189895219e-17,-1.0305539478570122e-33,2.295925282571967e-18,-1.1157033676010913e-33,2.487044106580113e-18
120,4.137434790224954e-33,4.527235626853321e-33,3.7909120361959165,-3.7585039386301096e-17,-2.418613032272662e-17,2.872229173185836e-34,1.0,-5.781057217772291e-34,1.5915214842438955e-19,-1.0862656599914722e-33,-2.439511262890498e-34,1.4382472170970304e-37,-1.0454493879517831e-17,-1.064201458223118e-33,2.347795526075252e-18,-1.149353781505557e-33,2.5575831947089782e-18
121,4.300211441763103e-33,4.669479915213165e-33,3.7711476782962405,-3.8272377396924976e-17,-2.463078670345958e-17,2.947255777899994e-34,1.0,-5.974480960259992e-34,1.8730082168655075e-19,-1.1253419381805558e-33,-2.439511262890498e-34,-1.4791540240084264e-37,-1.0632880784550731e-17,-1.1205748471470094e-33,2.354912748212688e-18,-1.1943136742398814e-33,2.492479180530495e-18
122,4.470729397920884e-33,4.818325396944555e-33,3.751231927149519,-3.8957358949031754e-17,-2.5080473827253543e-17,3.028606425207126e-34,1.0,-6.184842004129792e-34,1.9319844062132585e-19,-1.1638586516877437e-33,-2.439511262890498e-34,-2.1023849278031227e-37,-1.0802063886427142e-17,-1.178213513565218e-33,2.386021408679439e-18,-1.2445924031508875e-33,2.4953269344022576e-18
123,4.648342646611949e-33,4.9705352645970525e-33,3.7311650482799763,-3.9634878267338135e-17,-2.5551663686983113e-17,3.1176816202628487e-34,1.0,-6.398003463575599e-34,1.879699040182815e-19,-1.1944255328213793e-33,-2.5037089277034063e-34,-1.5406329739087792e-37,-1.0893072922700634e-17,-1.2440784559655004e-33,2.4491309834721686e-18,-1.292921987512157e-33,2.5690945935188133e-18
124,4.82296675645977e-33,5.1300365267786176e-33,3.7109473085749127,-4.0327125010467205e-17,-2.6027205076191723e-17,3.192146860555471e-34,1.0,-6.611935056571999e-34,2.0000976455177532e-19,-1.2191869024059617e-33,-2.5037089277034063e-34,-2.8430325556364564e-37,-1.097894954971067e-17,-1.2854301582052601e-33,2.442167231786103e-18,-1.3243001316842452e-33,2.562908362102266e-18
125,5.002762148933226e-33,5.2945624993015494e-33,3.690578976272644,-4.1017947821583375e-17,-2.6505305536868992e-17,3.3057983936472776e-34,1.0,-6.913976501361559e-34,2.1324201057219484e-19,-1.2470604571033375e-33,-2.5037089277034063e-34,-4.2869108196462905e-37,-1.1092625959283131e-17,-1.3313107600568876e-33,2.4354445344182e-18,-1.3630810872341695e-33,2.5468781584690775e-18
126,5.185280306453017e-33,5.4592696482436494e-33,3.6700603209504097,-4.1715410584303735e-17,-2.6981189641865097e-17,3.3935251589437923e-34,1.0,-7.144060108434406e-34,2.242133511375708e-19,-1.2733923446896854e-33,-2.7604995869550377e-34,-5.497932625053671e-37,-1.1230990891684741e-17,-1.3687690409058294e-33,2.451412729538995e-18,-1.3976409933915356e-33,2.5169657049992917e-18
127,5.3666092685884076e-33,5.639970725488041e-33,3.649391613512259,-4.24119276507497e-17,-2.744506599044502e-17,3.5114009352012376e-34,1.0,-7.437425452223398e-34,2.4224135960683715e-19,-1.3187709992216415e-33,-2.7604995869550377e-34,-7.51529832307359e-37,-1.1409314794875215e-17,-1.4158573699131776e-33,2.5047190406059875e-18,-1.4368085011153972e-33,2.4864206676292058e-18
128,5.5457831714979305e-33,5.8294461064539774e-33,3.6285731261769087,-4.3103597728864276e-17,-2.7909817968024774e-17,3.6215299858263485e-34,1.0,-7.75074884583125e-34,2.4666962639410933e-19,-1.3579277995317006e-33,-2.7604995869550377e-34,-8.019212994353724e-37,-1.1583650422143313e-17,-1.451023119062451e-33,2.558348023473906e-18,-1.4675777452238468e-33,2.518571806215891e-18
129,5.7318649512581984e-33,6.0295847320159483e-33,3.6076051324655802,-4.3809395518505135e-17,-2.837583152616457e-17,3.773929130684753e-34,1.0,-8.104106307550378e-34,2.6904257433567507e-19,-1.4080215890956431e-33,-2.7604995869550377e-34,-1.0603774908367193e-36,-1.1760259867436544e-17,-1.4917926789187152e-33,2.630870323019109e-18,-1.5112764763781056e-33,2.53754709983609e-18
130,5.918527673356405e-33,6.23570337214315e-33,3.58648790718981,-4.452074604453525e-17,-2.883203038004354e-17,3.872261871194115e-34,1.0,-8.266521946538192e-34,3.002655082964865e-19,-1.4396396027669975e-33,-2.7604995869550377e-34,-1.4265178387592346e-36,-1.1959248927351232e-17,-1.5114249675233912e-33,2.7414787327430025e-18,-1.539725896323641e-33,2.5337625632764023e-18
131,6.105913078049214e-33,6.449650652287193e-33,3.5652217264392423,-4.52153148423499e-17,-2.929360651135877e-17,3.977082557296682e-34,1.0,-8.475944300196027e-34,3.0632443565395596e-19,-1.4744373293668077e-33,-2.7604995869550377e-34,-1.4987627250100375e-36,-1.212248838777262e-17,-1.527411246332291e-33,2.902838022409125e-18,-1.5570951433759377e-33,2.6329941589532834e-18
132,6.297676361718325e-33,6.670033110787232e-33,3.543806867569398,-4.593724160053739e-17,-2.9763670310397803e-17,4.070154305781311e-34,1.0,-8.705656609224691e-34,3.2119060380610934e-19,-1.5129593027208996e-33,-2.7604995869550377e-34,-1.6779644205052572e-36,-1.226196868111587e-17,-1.5445368884486557e-33,2.925190579941024e-18,-1.57779188299083e-33,2.641740876734556e-18
133,6.49039939211095e-33,6.891177668931068e-33,3.5222436091894256,-4.66510509839908e-17,-3.0240020978423425e-17,4.160241907221159e-34,1.0,-8.831889892856514e-34,3.175488837769027e-19,-1.5425519015901688e-33,-2.7604995869550377e-34,-1.6335397404066793e-36,-1.2368561317768509e-17,-1.5515337721979814e-33,2.9937305816672622e-18,-1.5893176211271313e-33,2.696951894541163e-18
134,6.69226996984687e-33,7.114391924652571e-33,3.5005322311498324,-4.7387025331489753e-17,-3.070538221658173e-17,4.214984686606733e-34,1.0,-8.853480544692091e-34,3.2438567681246685e-19,-1.5582512585086664e-33,-2.7604995869550377e-34,-1.7175767397232967e-36,-1.254660973609895e-17,-1.5637978418627117e-33,3.0599473736826165e-18,-1.6059276485637288e-33,2.697455961346704e-18
135,6.90332187634483e-33,7.346283607306469e-33,3.4786730145301985,-4.813923699530422e-17,-3.116734408102341e-17,4.284423954461854e-34,1.0,-8.909913283438005e-34,3.5022748954802806e-19,-1.5746904118210504e-33,-2.728400754548584e-34,-2.0398993860161206e-36,-1.2664431618687873e-17,-1.604237031336252e-33,3.137136687620513e-18,-1.6384422480315947e-33,2.6646985976734845e-18
136,7.11463613940675e-33,7.577279722384185e-33,3.4566662416268747,-4.889345374910409e-17,-3.163452497044886e-17,4.362756085581231e-34,1.0,-8.970161857222023e-34,3.658417854896774e-19,-1.5907007044624217e-33,-2.728400754548584e-34,-2.23654220373559e-36,-1.2752183561637285e-17,-1.6416143160182225e-33,3.2444197963440357e-18,-1.6730395163545905e-33,2.6462945009317764e-18
137,7.33614053081036e-33,7.811183986197832e-33,3.434512195940665,-4.9657713466341674e-17,-3.210976269763028e-17,4.45477628664193e-34,1.0,-9.022874309847564e-34,3.948516248506027e-19,-1.6137701360753828e-33,-2.4716100952969525e-34,-2.6042413575410722e-36,-1.2794103600828561e-17,-1.707117312951288e-33,3.342841833853477e-18,-1.719172766490912e-33,2.632747446421482e-18
138,7.565114080802121e-33,8.047135032169738e-33,3.4122111621644917,-5.0413204262313874e-17,-3.259897154027625e-17,4.600401105088645e-34,1.0,-9.25780560386267e-34,4.1839836270935585e-19,-1.6451857994733274e-33,-2.4716100952969525e-34,-2.903449884322194e-36,-1.278913119938259e-17,-1.7665215499260343e-33,3.430121500561895e-18,-1.7757266256999768e-33,2.655701886336277e-18
139,7.795172136989815e-33,8.293204997238374e-33,3.389763426171053,-5.117411169321523e-17,-3.309053334501615e-17,4.733768696843774e-34,1.0,-9.531469723168573e-34,4.3116176180931464e-19,-1.6746289210729973e-33,-2.4716100952969525e-34,-3.0653292704026336e-36,-1.278850711080835e-17,-1.8262180549564606e-33,3.4885133969493064e-18,-1.831249725350328e-33,2.6684194244393766e-18
140,8.030301470625504e-33,8.54857096467462e-33,3.3671692750004616,-5.1931746239060256e-17,-3.3598329663727404e-17,4.886775343153483e-34,1.0,-9.889670632789315e-34,4.366597474662086e-19,-1.7093349689673328e-33,-2.4395112628904986e-34,-3.134992031492182e-36,-1.2770935893441538e-17,-1.8753506560128362e-33,3.5344331685087786e-18,-1.8844702656721563e-33,2.7080331787381104e-18
141,8.26566505028288e-33,8.798733464732969e-33,3.3444289968478764,-5.270475994384361e-17,-3.411504667621846e-17,4.997842666938288e-34,1.0,-1.0061601339029798e-33,4.2671404839026045e-19,-1.726524827512347e-33,-2.4395112628904986e-34,-3.009312770215215e-36,-1.2787656782705729e-17,-1.8961776463256697e-33,3.5354469485100186e-18,-1.9119254407738236e-33,2.734635286769189e-18
142,8.505494897964021e-33,9.06318177835165e-33,3.321542881051121,-5.35030030279177e-17,-3.4630027678787826e-17,5.14484748804111e-34,1.0,-1.0340244097855137e-33,4.352248184881997e-19,-1.7534852862470818e-33,-2.4395112628904986e-34,-3.1169674976999595e-36,-1.2833305234065084e-17,-1.9281273415471946e-33,3.479731268433135e-18,-1.954442157312564e-33,2.6409300555904336e-18
143,8.755734006918131e-33,9.343025421572299e-33,3.2985112180782954,-5.427777245427605e-17,-3.5161950945160666e-17,5.381809880937878e-34,1.0,-1.0804696691489585e-33,4.1702692785070793e-19,-1.8250657863568506e-33,-2.5679065925163143e-34,-2.885388982343255e-36,-1.2832168808082209e-17,-2.0033952349769785e-33,3.530953485267386e-18,-2.0117439823208026e-33,2.7111239514957852e-18
144,9.004328045120313e-33,9.618040906814833e-33,3.275334299515377,-5.506985384866118e-17,-3.5679459576116396e-17,5.549378488090226e-34,1.0,-1.1094784856761981e-33,4.0944523733997643e-19,-1.8677148483475867e-33,-2.6321042573292224e-34,-2.7890808011433312e-36,-1.29082641186191e-17,-2.0529676921904115e-33,3.541437651724374e-18,-2.0686840048188317e-33,2.7235847006861193e-18
145,9.258560319088764e-33,9.90114481654349e-33,3.2520124180538152,-5.587516521332367e-17,-3.618755656114896e-17,5.688194082992129e-34,1.0,-1.1260601815409596e-33,4.1675845653538475e-19,-1.9098448276681853e-33,-2.5679065925163143e-34,-2.8825482166934663e-36,-1.300556893050283e-17,-2.0912565867846754e-33,3.581972553354048e-18,-2.1163137421676693e-33,2.7114938113335723e-18
146,9.520578409351178e-33,1.0186808191016395e-32,3.2285458674781204,-5.668561420843995e-17,-3.669640186520446e-17,5.8029934145520205e-34,1.0,-1.1428865754653349e-33,4.213078672441162e-19,-1.9417450253918538e-33,-2.5679065925163143e-34,-2.9411504964884908e-36,-1.3108210144437332e-17,-2.1148753004894818e-33,3.624635962664637e-18,-2.1500402509492957e-33,2.7105523308751188e-18
147,9.786330669096911e-33,1.048243992186117e-32,3.2049349426534453,-5.750787283927265e-17,-3.722246515918885e-17,5.945342285431668e-34,1.0,-1.1720264131856164e-33,4.3254618779328e-19,-1.9983219871234844e-33,-2.600005424922768e-34,-3.087082307656973e-36,-1.3145893942374977e-17,-2.1546211844845204e-33,3.666638197904776e-18,-2.1809284456678973e-33,2.7217544339824544e-18
148,1.006223639815677e-32,1.0778753504482596e-32,3.181179939513164,-5.832942213417389e-17,-3.775487546110288e-17,6.072993304506028e-34,1.0,-1.1913118993666831e-33,4.392810530338609e-19,-2.0417424630397454e-33,-2.600005424922768e-34,-3.174748448160216e-36,-1.3227660471411538e-17,-2.1851770743909075e-33,3.708272935689559e-18,-2.2133389219839486e-33,2.755120963493158e-18
149,1.0352742592301909e-32,1.1082048195334611e-32,3.1572811550464475,-5.915468992876066e-17,-3.829267969495302e-17,6.224789838468326e-34,1.0,-1.2107036881353963e-33,4.389214927385837e-19,-2.0832336263654848e-33,-2.600005424922768e-34,-3.1700412882828146e-36,-1.3289701535645226e-17,-2.232188900112969e-33,3.783907800103929e-18,-2.269641228643588e-33,2.8418863388023445e-18
150,1.0655591450654858e-32,1.1397593882180907e-32,3.1332388872858354,-5.998902151083474e-17,-3.8829420044500075e-17,6.414735320024808e-34,1.0,-1.2356222733151952e-33,4.3974365326615575e-19,-2.1354652781769503e-33,-2.600005424922768e-34,-3.1808354907413944e-36,-1.3325622392215947e-17,-2.2945683959567523e-33,3.839241776543709e-18,-2.3436903268979927e-33,2.910009893540875e-18
151,1.0951488557298414e-32,1.1716457835852994e-32,3.1090534352948067,-6.083011473940922e-17,-3.9359277899908877e-17,6.566760947689941e-34,1.0,-1.266843835648824e-33,4.329131089690588e-19,-2.1878835054413832e-33,-2.8567960841743995e-34,-3.0910448234859794e-36,-1.3379825316331817e-17,-2.3240794270393426e-33,3.876895729933222e-18,-2.3983943391501698e-33,2.9755060413863727e-18
152,1.1252215441815643e-32,1.2031835827786313e-32,3.0847250991553503,-6.167466217329892e-17,-3.988915343687041e-17,6.742359705544807e-34,1.0,-1.3068985849880967e-33,4.244653184445901e-19,-2.2355669210179556e-33,-2.8246972517679457e-34,-2.9796612621352248e-36,-1.346786413479549e-17,-2.352724005899025e-33,3.9212288698054295e-18,-2.460526439582913e-33,3.0449669563731973e-18
153,1.1545323850576704e-32,1.235658939452048e-32,3.0602541799555367,-6.254567379191054e-17,-4.042086511303226e-17,6.8719242859576285e-34,1.0,-1.3379633038817977e-33,4.457769617712435e-19,-2.2775829102690298e-33,-2.8246972517679457e-34,-3.262232410276705e-36,-1.3558980338854695e-17,-2.37043216629483e-33,3.9325618415604845e-18,-2.501388452197697e-33,3.020681080944991e-18
154,1.1838192942180877e-32,1.2680741396350207e-32,3.035640979777089,-6.33995276884419e-17,-4.0943662736691736e-17,7.002312979652827e-34,1.0,-1.370639757472285e-33,4.3593237598322885e-19,-2.3058035915738683e-33,-2.8567960841743995e-34,-3.130711913091341e-36,-1.3684479803984017e-17,-2.3919443115328694e-33,3.998982012585463e-18,-2.5351754869840957e-33,3.0628805575852217e-18
155,1.2147904734923604e-32,1.2999407836741182e-32,3.010885801682959,-6.425474072981165e-17,-4.147428500232287e-17,7.162149586897183e-34,1.0,-1.3974247439148613e-33,4.358786386502251e-19,-2.3117270183744952e-33,-2.8567960841743995e-34,-3.12998774112252e-36,-1.3779516823471502e-17,-2.4323127380492452e-33,4.058790919569057e-18,-2.5958057377766312e-33,3.1574911375021333e-18
156,1.2460677718060683e-32,1.331552980804409e-32,2.9859889497049035,-6.511561179425189e-17,-4.2019224084195013e-17,7.380177506134995e-34,1.0,-1.442653161496036e-33,4.351455324965647e-19,-2.3265194260946948e-33,-2.8567960841743995e-34,-3.120054065644419e-36,-1.3786615882170448e-17,-2.4732627098504876e-33,4.101664175331423e-18,-2.6798989642993103e-33,3.244051075386553e-18
157,1.2774905677029778e-32,1.364901516195321e-32,2.9609507288310675,-6.599077906818994e-17,-4.255997830741944e-17,7.619809628635763e-34,1.0,-1.5017029431990185e-33,4.437722611792747e-19,-2.3884406394324128e-33,-2.8567960841743995e-34,-3.2368061588322386e-36,-1.3854753061491038e-17,-2.5346887156307955e-33,4.0868553874065405e-18,-2.766615665315514e-33,3.219677710387696e-18
158,1.3096118423111799e-32,1.3991335554287671e-32,2.935771444993571,-6.687316184098353e-17,-4.310321912483575e-17,7.830219628609284e-34,1.0,-1.5576448226661886e-33,4.396562100436027e-19,-2.442185649259219e-33,-2.8567960841743995e-34,-3.180770076633887e-36,-1.3890055694649847e-17,-2.5905964077894355e-33,4.119891460638752e-18,-2.8457149337998214e-33,3.240002692186965e-18
159,1.341375726274679e-32,1.432310838520425e-32,2.9104514050561026,-6.775408794666757e-17,-4.36424076025815e-17,7.962540149680362e-34,1.0,-1.606958404915376e-33,4.442280284605313e-19,-2.4875450456392866e-33,-3.113586743426031e-34,-3.243143022095937e-36,-1.3963858033784718e-17,-2.606454064056588e-33,4.1954097373937734e-18,-2.918764301991468e-33,3.3007608268558804e-18
160,1.3737692357250053e-32,1.4673501042323064e-32,2.8849909168015206,-6.86496350234481e-17,-4.418695258313775e-17,8.068540169326435e-34,1.0,-1.650505781448368e-33,4.610726609484278e-19,-2.548630518189598e-33,-3.113586743426031e-34,-3.473886587690096e-36,-1.4074291215986198e-17,-2.626575531362445e-33,4.2413214184744265e-18,-2.9952582458514724e-33,3.307331771886263e-18
161,1.407466823632099e-32,1.5040965598353568e-32,2.85939028891946,-6.953788956764453e-17,-4.475240405937366e-17,8.207391387785117e-34,1.0,-1.692677321832651e-33,4.568318766290486e-19,-2.6295672395083872e-33,-3.113586743426031e-34,-3.415328319973249e-36,-1.41035318236282e-17,-2.6730488635231278e-33,4.332841020325353e-18,-3.060871763931269e-33,3.4402451373971657e-18
162,1.442594726277752e-32,1.541239347258076e-32,2.8336498309939495,-7.043753005462156e-17,-4.5309130827475825e-17,8.320744982571558e-34,1.0,-1.722576135423557e-33,4.56848188233669e-19,-2.6850154446080347e-33,-3.113586743426031e-34,-3.415553405028706e-36,-1.418891396722351e-17,-2.7061486971693484e-33,4.408821323264001e-18,-3.134851816862902e-33,3.532090352249685e-18
163,1.4783501606904094e-32,1.5795479432940394e-32,2.8077698534910405,-7.133512098421552e-17,-4.585184565442451e-17,8.419983677469095e-34,1.0,-1.7575538024222923e-33,4.584264743425025e-19,-2.7528259376920512e-33,-3.081487911019577e-34,-3.437429603360123e-36,-1.4318316353855583e-17,-2.7591651842000986e-33,4.516431367912196e-18,-3.200884302555865e-33,3.648142937748766e-18
164,1.515468027045505e-32,1.6191208666052718e-32,2.781750667746442,-7.223621807411467e-17,-4.638985869798754e-17,8.537942954876688e-34,1.0,-1.780737513422244e-33,4.601527398653043e-19,-2.8085740308626094e-33,-3.081487911019577e-34,-3.461528193249561e-36,-1.4460090840945786e-17,-2.819342977027608e-33,4.6178158541223886e-18,-3.256280669007621e-33,3.7889832904287406e-18
165,1.5543642018084924e-32,1.6613069185576962e-32,2.755592585953171,-7.315533740008389e-17,-4.6925766313011304e-17,8.696429943063448e-34,1.0,-1.815385735152307e-33,4.657968835102474e-19,-2.8874590774320456e-33,-3.081487911019577e-34,-3.540932597626182e-36,-1.455712226757686e-17,-2.9153032479213495e-33,4.709074461249839e-18,-3.335091070622818e-33,3.8671673629808036e-18
166,1.592833136495994e-32,1.7021367913786382e-32,2.729295921149214,-7.409006900590786e-17,-4.7470407585141324e-17,8.695982264577316e-34,1.0,-1.819354165317e-33,4.773093946185083e-19,-2.9134555219918232e-33,-3.081487911019577e-34,-3.703753070210607e-36,-1.4658804979573116e-17,-2.9480889567916247e-33,4.764638633153517e-18,-3.3754476678996375e-33,3.899072129469052e-18
167,1.6317937188223216e-32,1.745071657655803e-32,2.7028609872052005,-7.501069522621974e-17,-4.801665064882275e-17,8.723868297972804e-34,1.0,-1.827088551251282e-33,4.649660675007133e-19,-2.9739349226583372e-33,-3.081487911019577e-34,-3.5280204751743433e-36,-1.476401364653332e-17,-2.9941410953824094e-33,4.850618796340775e-18,-3.401160370108447e-33,3.994433507357309e-18
168,1.671716647992212e-32,1.7886043453038043e-32,2.6762880988120927,-7.593520885811532e-17,-4.8574260049095963e-17,8.779883198728643e-34,1.0,-1.837390293314314e-33,4.529083054712076e-19,-3.04846580834555e-33,-3.081487911019577e-34,-3.3553768724720896e-36,-1.4815532819224302e-17,-3.0556048160595953e-33,4.955571690304153e-18,-3.4314190940193134e-33,4.144383932694511e-18
169,1.7118048941586013e-32,1.8342911526325805e-32,2.649577571468889,-7.687943146254604e-17,-4.914104371848789e-17,8.832318002249723e-34,1.0,-1.8497540433588844e-33,4.52921636422951e-19,-3.1312578629603886e-33,-3.081487911019577e-34,-3.355567870297958e-36,-1.483493847113573e-17,-3.117079940243109e-33,5.000656009151064e-18,-3.471257448531079e-33,4.24071735900135e-18
170,1.752165832315991e-32,1.879801431202287e-32,2.622729721470343,-7.783427203919013e-17,-4.9703417034452714e-17,8.883863944345545e-34,1.0,-1.8622258399928e-33,4.605977231452955e-19,-3.2042051160663525e-33,-3.081487911019577e-34,-3.465504426138375e-36,-1.4887086806960745e-17,-3.165480571491646e-33,5.023469340526725e-18,-3.509630771829799e-33,4.279718735415852e-18
171,1.7938376174716746e-32,1.9252235567107e-32,2.595744865894701,-7.878684868564925e-17,-5.026186912147282e-17,8.916461417446614e-34,1.0,-1.8702889393056598e-33,4.376576290383124e-19,-3.249742833650692e-33,-3.113586743426031e-34,-3.1359351461515025e-36,-1.4988217688379046e-17,-3.206918836083369e-33,5.058760747158881e-18,-3.5566553943913354e-33,4.350310222626814e-18
172,1.8363748452883972e-32,1.9723866206916564e-32,2.568623322591454,-7.975962790247339e-17,-5.083234069499427e-17,8.993391618852515e-34,1.0,-1.8921767383034116e-33,4.364835194551903e-19,-3.323356248053005e-33,-3.2419820730518466e-34,-3.118962050698015e-36,-1.5040276214664627e-17,-3.259698406809056e-33,5.024348198549052e-18,-3.6302667102469644e-33,4.350551550223925e-18
173,1.8782943319935413e-32,2.0199804293913582e-32,2.541365410169112,-8.073392273909205e-17,-5.1394105037747945e-17,9.017003766699597e-34,1.0,-1.9073311973182682e-33,4.353476766143645e-19,-3.3914356955424786e-33,-3.209883240645393e-34,-3.1024725561030104e-36,-1.5147062239720576e-17,-3.294560441423353e-33,5.020054327185813e-18,-3.6731892996678805e-33,4.314946594920247e-18
174,1.9208196885209696e-32,2.0660559541420162e-32,2.513971447982992,-8.169579759832813e-17,-5.195651074003781e-17,8.96764220232506e-34,1.0,-1.9046155515219205e-33,4.378194783400011e-19,-3.4061079060881955e-33,-3.209883240645393e-34,-3.138659975628799e-36,-1.521138771948456e-17,-3.303345824159033e-33,5.1338362944215395e-18,-3.693919741029259e-33,4.370752428696449e-18
175,1.9634416054878065e-32,2.1133290999300523e-32,2.486441756123034,-8.26834047703627e-17,-5.251187031324282e-17,8.934782365133652e-34,1.0,-1.915094164917267e-33,4.688737441187274e-19,-3.445538886973244e-33,-3.209883240645393e-34,-3.594551391807947e-36,-1.5316760525132153e-17,-3.331017567259762e-33,5.1962543716834966e-18,-3.733325225714253e-33,4.322457208832677e-18
176,-0.00019176359875553152,-0.0002575042927109207,2.4602223831904473,-0.004549682736355246,-0.0023841722834172636,-5.5319146444827914e-05,0.9999868064376217,-1.1933166190464249e-08,0.011214804968731585,0.00019265063498233594,-0.00365354674398999,-5.929555591861078e-05,0.007960611361245113,0.0003879379827463534,-0.01583013249234753,-0.0018316525397454838,0.010771418386144219
177,-0.0005644656518633595,-0.0007719088255046233,2.43509916219771,-0.012949277083576235,-0.006683058128542947,-0.00017995331546305195,0.9998938046482074,-2.190896194557745e-09,0.03188913010035411,0.0007243694969249483,-0.0100949088587226,-6.023027045380146e-05,0.022353609574641744,0.0013087790216966115,-0.044826984472463666,-0.0049353979623378615,0.030698967111333422
178,-0.0009712606747529966,-0.0013432316355194594,2.409874502623735,-0.021225399943213243,-0.01017515760363142,-0.0002840762018641324,0.9997228955394106,-7.791333931544084e-05,0.05203531957728312,0.0012019723839037995,-0.014325118243518498,-6.0230088624773005e-05,0.0342909572890692,0.002328652195014622,-0.07178549669494802,-0.007317427009146973,0.05004714734240287
179,-0.0014161841769716292,-0.0019680299443657185,2.3845516498603327,-0.029375025555142084,-0.01285435589852488,-0.000382221562207337,0.9994857314212876,-0.00015083231746021306,0.07164088332815301,0.0015898297761925174,-0.016336637533150775,-6.02299740633623e-05,0.043753411069140366,0.003504167202837997,-0.09668832608301169,-0.009057538116419456,0.06875605035519584
180,-0.0019025124196579589,-0.002640447996953186,2.359140104988146,-0.03737235716610103,-0.014765531635963664,-0.0004867933839196756,0.9991921982419388,-0.00015083176544436203,0.0906213350288523,0.0018545141064478157,-0.01633658157583811,-5.9254712513921635e-05,0.05083199535681353,0.00487448613976745,-0.11958576305791042,-0.010223383203731704,0.08685905756413503
181,-0.002093097771201874,-0.003915187575626305,2.334320545553311,-0.04396007984498965,-0.015099743135393775,-0.001305138797747435,0.9989183178568636,-0.008220400583798297,0.11911266166708985,0.0048563509340167465,-0.014681804483467738,0.0009740633317913401,0.051477985347154726,0.008551830249586577,-0.13717058997034765,-0.010223355013958978,0.10571827664428478
182,-0.0021990162456192552,-0.005467848057978458,2.3096467073965212,-0.049969417812171915,-0.015085422386676605,-0.0021754362906173507,0.998634445025743,-0.020530160096672863,0.15160434199175912,0.008245792786998928,-0.013220951727466857,0.0015605455104760076,0.050578571143254314,0.012554425680759282,-0.15305530778018606,-0.010223350859602236,0.12531578434208
183,-0.0023527460347352778,-0.006992047840890335,2.2849063541829615,-0.05574947838287713,-0.01519438889875988,-0.0028821437291772986,0.9983250069258781,-0.033333424555657284,0.18314604212976252,0.010978595412901892,-0.012618735001491483,0.0015605451966551923,0.04995163297011161,0.016108441573478075,-0.16863431232228004,-0.01022413509319719,0.14550033661037848
184,-0.0024796696616015113,-0.008566701490458857,2.260179128196231,-0.06113325138386308,-0.01518054062649342,-0.003589956928812841,0.9980077098754168,-0.04776154772219187,0.21585764258188492,0.013654734693500939,-0.012478215185277431,0.0015605424807605174,0.04869832398933828,0.01965375666271653,-0.1831733083898654,-0.010223371649734615,0.16615911503703226
185,-0.0026239755018683704,-0.010077231813338066,2.235367824879152,-0.06629101439900044,-0.015077043620366975,-0.004229429602729957,0.9976774509283332,-0.06242944946378287,0.24764104647822255,0.015894947079301287,-0.012478209801843622,0.001506516778317859,0.04715946341328959,0.02293093207679529,-0.1969567887055312,-0.010223371649734615,0.18693904721223503
186,-0.002784991619720156,-0.011524674517767829,2.210473178670976,-0.07123264605446347,-0.014843389740744582,-0.0048161484231871825,0.997337650262663,-0.07730058441646936,0.2785285878529109,0.017736840246530772,-0.012478185544174769,0.0014336225378528257,0.04522886241020481,0.025972365318983295,-0.2099250819295586,-0.010223371649734615,0.20774826571273058
187,-0.002602836121148395,-0.012745637248539535,2.1856379791428457,-0.07988559376695645,-0.013349904405165352,-0.0054448555608906475,0.9966997669854222,-0.09152835822085398,0.31973366993704877,0.019144237487163217,-0.005704360318312051,-0.00802129170668755,0.06086976222056484,0.02965542528739336,-0.2277748733633518,-0.010217497001376438,0.2171028877065512
188,-0.0024515280671102138,-0.013845554459555064,2.160805981069306,-0.08811061290943184,-0.011388182225923906,-0.006078010229899977,0.9960270513344297,-0.10566788261997154,0.35946263625402974,0.020118003397049326,0.0014625807386945107,-0.016929486596125552,0.0750214668447674,0.03336517020525767,-0.24378761212993766,-0.010217496413619295,0.2263145484790229
189,-0.0023283834665822544,-0.014828731052080237,2.1359785367317303,-0.0959067189337853,-0.008963808684642988,-0.006740983757167924,0.9953271374453762,-0.11960706923544569,0.3977483871427858,0.020737134270522158,0.00899887458730925,-0.025280382549306857,0.08764793697899821,0.03713332472632763,-0.25797588429201296,-0.010217495980121992,0.23538354302845568
190,-0.0022321800089542703,-0.0157004038124349,2.1111563253228285,-0.10325537633931108,-0.006086946004382343,-0.007456720709551166,0.9946083016251306,-0.1332370566376034,0.43457539064375605,0.021076467914331785,0.016854750273787154,-0.03302174912049115,0.09861563201036457,0.04098046574482059,-0.2703247234726908,-0.010217495898595457,0.24436239961506007
191,-0.002138957025429054,-0.016369739094367484,2.086351142894693,-0.11249930968019127,-0.0001570473512032924,-0.008682938688034473,0.9936138521746513,-0.14380258009872898,0.47730231692710656,0.021495296904071145,0.03452282709531712,-0.03901798655839468,0.10289986043926203,0.04803758086356667,-0.2709700561148693,-0.010217584620513167,0.24380882270000087
192,-0.002047863643503444,-0.016633314346496092,2.0617185236634605,-0.12511249125836063,0.009182976371140008,-0.010439357662875437,0.9920451387349671,-0.15064513043227384,0.5301817757893623,0.02149528299816821,0.06423994898539817,-0.04358043603312585,0.10289966566753239,0.0583076588631483,-0.2602311908641936,-0.010069219379465446,0.2292578001029042
193,-0.001913075824630562,-0.01681782926955852,2.037139628742962,-0.13733537764396225,0.01847292540166473,-0.012305312982940686,0.9902758829472151,-0.15634384051210218,0.5818170694755498,0.021495249973875606,0.0929549660995922,-0.04736152468337911,0.10290006002943133,0.06781101218394488,-0.24836700979979284,-0.009888054502363073,0.21537476499272795
194,-0.0017328495804414918,-0.016936181050112496,2.012609946910318,-0.14916655448942695,0.02769872960504483,-0.01426285721551491,0.9883211473524531,-0.16097023350506454,0.6321850943738262,0.021495240425190194,0.12063826566411542,-0.05043678428967351,0.10290008261158451,0.07648595624478106,-0.23545168827602234,-0.009733300192195761,0.20220420904238504
195,-0.0015058826185486817,-0.016999834588954498,1.988124767251111,-0.16060635075758894,0.0368482432088241,-0.01629491952722954,0.986195864251293,-0.1645848483405069,0.6812720076097458,0.021495250809361058,0.14726689052655312,-0.05287684574804319,0.10289999416171823,0.08427887146123755,-0.22156399017678424,-0.009660541000212823,0.18978312859207902
196,-0.0012468688582340552,-0.01700564407846005,1.963680957024737,-0.17169599209346476,0.04599735280468227,-0.018408200577837906,0.9839033834607382,-0.16710162300961193,0.729214921460421,0.02149461189735152,0.17309470068288918,-0.05486052849827911,0.10324249214343646,0.09120587062649159,-0.20675759934767227,-0.00966054019955876,0.17790018592557064
197,-0.0009519304976599058,-0.01695682973869818,1.939273748786656,-0.18236918436762162,0.055114800784126866,-0.020610464543409902,0.9814678028743069,-0.16846883493610035,0.7758274929911567,0.021494002211010967,0.1979832128479701,-0.056209735615246566,0.1033108775977559,0.09725403144598323,-0.19099505894061614,-0.009660539532300574,0.1667721738237772
198,-0.0006199574466399793,-0.016863225649669075,1.9148921512945904,-0.192655798679216,0.06412445958686025,-0.022882518288632556,0.9789015207234776,-0.16878250878014775,0.8211648156143627,0.02149400221290391,0.22177570591720458,-0.056955161738769335,0.10331081538108365,0.1024027262218821,-0.1745038694650392,-0.009659813659417999,0.15647229289713974
199,-0.0002508281493841943,-0.01666067085238509,1.89053939025916,-0.20267778946079607,0.07293991836226431,-0.025181749426505695,0.9762004719648583,-0.1687816550627982,0.8685984130559257,0.02149399346586101,0.24432241219657103,-0.05708881829294342,0.10349367847853012,0.10654018115689949,-0.15717449889612845,-0.00965887540918566,0.14680810914163667
200,9.250573673525619e-05,-0.016435878156684257,1.8662392558597132,-0.21232081169869277,0.08149515942168245,-0.027421198575003126,0.9734097234870592,-0.16878329015990898,0.9146491154708744,0.021493348761531497,0.26528927628709004,-0.057088806328668244,0.1047357026043303,0.10954835564973227,-0.13960283499522957,-0.009660449407666007,0.1382324093178754
201,0.0003663410513693665,-0.016170105475154704,1.8419572996081703,-0.22194783985195543,0.08986167657535592,-0.029589142434789727,0.9704578909556512,-0.16878333405178617,0.9603258451097745,0.021455614465244632,0.28528327653409097,-0.0563889534009297,0.11093354782729573,0.11157945298309577,-0.12255869290959195,-0.009660021995014378,0.1297922714560447
202,0.0006122845198253974,-0.015899225144379973,1.8177293699164236,-0.23117614722206367,0.09805566494731442,-0.0316955733838564,0.9674389211496358,-0.1687838490571,1.004597279533383,0.021455614760459388,0.30392388582813135,-0.05550563729122423,0.117574300309989,0.11246904606735032,-0.1049065509303341,-0.009739788700729612,0.12237730872475965
203,0.0008248040759131657,-0.01562354394054961,1.7935569343943536,-0.23995759080552145,0.10603494695263467,-0.03376659805221159,0.9643841358584981,-0.16878492458867422,1.0474520554758682,0.021455617298468132,0.3210624536788559,-0.05443282251888102,0.12439143410353802,0.1124678571259768,-0.08697109402432288,-0.009821342965426291,0.11618401180334999
204,0.0009336965130994984,-0.015260907692223461,1.7696150518455473,-0.2483280252637463,0.11275864460053313,-0.03551086648908294,0.9614352075400887,-0.1687846163873622,1.0946810366360578,0.021397538390477092,0.3335441239111766,-0.05344225680040664,0.13406919614762663,0.11159384333603345,-0.07065312069366592,-0.009821343719619945,0.11268260633925205
205,0.0009858306969371732,-0.014848168175462877,1.7457849168225472,-0.25612707045213284,0.1188213528808298,-0.03713081493435593,0.9585936117372618,-0.16878563125646798,1.1422483400222008,0.021397544716543124,0.3430682011494692,-0.05230617816326299,0.14513183625766715,0.11019767185191913,-0.055326540632089666,-0.009822200784156637,0.1114336683100989
206,0.0010163375992276922,-0.01440819201269017,1.7220493518301856,-0.26343979039419385,0.12468147277176254,-0.03876260443760833,0.9557988636118694,-0.16878434498315692,1.1881509654017317,0.02156842389890542,0.35105030847268065,-0.050954643654161996,0.15616578206872253,0.10848167180541711,-0.040090206252875224,-0.009822212941143098,0.111433683191573
207,0.0010529819194971582,-0.013878524898295346,1.6984824918622667,-0.2705397190568765,0.1304648031114696,-0.04038396103380266,0.9529723664686884,-0.1687829948306581,1.2330923612553357,0.021709225271688188,0.35796787217263937,-0.04939821159362453,0.16688540714929906,0.10645551117286682,-0.0253540704560012,-0.009822228258967792,0.11143369912953502
208,0.0010853565216053442,-0.01325777560109799,1.6750614358700697,-0.2774598474261797,0.1361810714886063,-0.04199508210248015,0.9501090263299586,-0.1687815994672193,1.2771886845926768,0.021803858554514208,0.36391157590030787,-0.0473284407566713,0.1783373934080599,0.10415663709951468,-0.01113203557757539,-0.00982224479100642,0.11143371459782185
209,0.0011229581386798906,-0.012546905450725752,1.6517862079858716,-0.2841863924470029,0.1418370720011506,-0.043602725005735615,0.9472165231488378,-0.16878063574153546,1.3204207187085366,0.021893907393901315,0.36889021881375456,-0.04489931537024515,0.1899152753984645,0.10162081352830532,0.0026210425532466226,-0.009822258834412035,0.11143372559693808
210,0.00117889290185841,-0.011747219667538472,1.6286595951562428,-0.29070125623782117,0.1474389484016478,-0.045214423369036555,0.9443040781630536,-0.16878041136635213,1.362758099483177,0.022027005962129156,0.3729037595725683,-0.04233244001540762,0.2008951809527838,0.09888236521236472,0.015955747939143495,-0.009822262176452861,0.11143372559693808
211,0.0012585116706153204,-0.01085977270575098,1.6056721001364886,-0.2970089178621754,0.15299116365890894,-0.04683408478459644,0.9413745137059011,-0.1687797348144712,1.4042333893404249,0.02222164941483352,0.3759858844624165,-0.03965184994155702,0.2112747184932273,0.09597185615012568,0.02888975014436086,-0.009822274386329564,0.11143372559693808
212,0.0013670011111669076,-0.009885371679122687,1.5828143158362689,-0.3031136510156776,0.15849783764714287,-0.04846521083738262,0.9384304307553192,-0.16877959168922532,1.4448780882998435,0.022493016830692814,0.37816861656256434,-0.03688061877952783,0.22105261338730475,0.09291669025074667,0.04144045812271167,-0.009822277445160333,0.11143372559693808
213,0.0015094456910647192,-0.008824654835483395,1.5600769241983472,-0.3090193925390615,0.16396298225094907,-0.05011109331064724,0.9354742293689207,-0.1687789368121257,1.4847225178868413,0.022853626416712867,0.37948288748561165,-0.03404073448022858,0.23022776542613352,0.08974157176774446,0.053625774798182986,-0.009822293311621577,0.11143372559693808
214,0.0016908076523657273,-0.007678077133760849,1.5374507592871922,-0.3147298351783288,0.16939030815816558,-0.05177471747619283,0.9325081409730234,-0.16877873684379563,1.5237957974127363,0.023313218063102947,0.37995790039476657,-0.031153296243038697,0.2387997777010036,0.08646865831299626,0.06546324521100944,-0.009822298288885528,0.11143372559693808
215,0.0005253336449608571,-0.010027498922729746,1.5144892888492267,-0.3078716555622674,0.17300955977499205,-0.054207062558281484,0.9339937528145542,-0.1869986403103762,1.519036637356067,0.03265933348503977,0.36539326218873175,-0.030774916393634295,0.2485406956013637,0.08424719343967735,0.10233271088077922,-0.01545467686228156,0.14965245510070765
216,-0.0023928590361303125,-0.013194760618351791,1.4913743931108976,-0.30119962480195006,0.1782004372033236,-0.05662262611778005,0.9350493400945401,-0.19687003365417702,1.5148982145348369,0.025967600682949354,0.39740566869666627,-0.02690237637298009,0.259706637270705,0.08269847658600417,0.14293890380301413,-0.022463520299778026,0.1859168920188205
217,-0.005314509466994096,-0.016298483293739213,1.4684759496281776,-0.2949018236533643,0.18330911282196707,-0.05936069584150202,0.9358990283954547,-0.19884499932673247,1.5116307529281678,0.021091962783546202,0.43020117236494243,-0.02216288470816224,0.2708014841768368,0.0826984703107794,0.18237392032668515,-0.029251286453494348,0.22059670294622746
218,-0.008201289150365717,-0.019291846125162597,1.4457670181296352,-0.2889573559751511,0.1884635606418218,-0.062107814892248855,0.9365509874360105,-0.19884488541348033,1.5091687511537109,0.016986769956108618,0.46373462784582814,-0.017696456726776912,0.2815523453484425,0.08298500613709561,0.2205827348156477,-0.036688631248154524,0.25353249461969624
219,-0.010968205989411657,-0.022140365901981006,1.4232423631518902,-0.28333035318391087,0.1935782204637077,-0.0648298825253415,0.9370424055818044,-0.19884498922874044,1.5073350009229687,0.013813780696670972,0.49695498007351213,-0.013466674813731035,0.29208128505216036,0.08340634737112983,0.2573922917656068,-0.0447778168625487,0.28489716890427047
220,-0.013626699898985606,-0.02486397988998901,1.4008925218712611,-0.2779448710763052,0.1986401270915051,-0.0675394253480088,0.9374044882413928,-0.19884515873843545,1.505868000738375,0.01160378286926857,0.5297471260057258,-0.009496964067296622,0.30236281273727716,0.08396193327693798,0.292971140368013,-0.05347879842440496,0.31493563662572094
221,-0.017671010359160487,-0.0283228262137026,1.3803306510570519,-0.27022392234146664,0.19704344451483727,-0.07176296449321455,0.9396823876689756,-0.216106423024422,1.4927158538582115,0.015913961747285765,0.537272116990433,-0.004378621726615232,0.325481710085185,0.09691751481195195,0.33073666254447587,-0.05347896236915556,0.36260394725339384
222,-0.023258027304196915,-0.0325932964581388,1.3610194589694449,-0.26004406893022924,0.19050660539542819,-0.07681754034454785,0.9434952999407759,-0.24862185462936331,1.4687760777041057,0.024661763270909874,0.529817930893092,-0.0014909945625574197,0.3584245547080371,0.12093962898120568,0.364055488870436,-0.04857809310081614,0.4256905509104273
223,-0.028742829640256692,-0.03664982883056071,1.341950451101073,-0.25053708410067754,0.18437865871825365,-0.08115763724495469,0.946915581040044,-0.2737873205924798,1.4465518537032682,0.03058797042172176,0.5233587495720733,-0.0014909945625574197,0.39089642938997404,0.144145132502964,0.39482234088209656,-0.045960184728384666,0.48553453656487283
224,-0.03408243495846371,-0.04045809350835849,1.323066617974876,-0.24177713718085617,0.17874657495274382,-0.08509046716463718,0.949922675946309,-0.29129383576168844,1.4263777627335135,0.03455045858389185,0.5184618718509008,-0.0030450368154582626,0.4224014339282365,0.16692909607535034,0.4234542829870119,-0.04487153065771988,0.5418311540927797
225,-0.03846701030368185,-0.04099286432549142,1.3082627640879863,-0.24290401662362995,0.17372195372272337,-0.08830256647544826,0.9502741595227749,-0.3206298613273563,1.426377769553892,0.028258464776264286,0.5147703930162696,0.00582889088728808,0.4560001922845611,0.18697710634197742,0.42677227275392243,-0.031867412832779315,0.5519376779780544
226,-0.042984087068164124,-0.040888658492281696,1.2945444047878716,-0.24593396859274697,0.1686430357516192,-0.09138909792434737,0.9501179097171434,-0.3531535299099588,1.4293853332636957,0.019644243272633023,0.5118170073368852,0.01645627631313019,0.4901799679579643,0.2068594928170855,0.4246540963624891,-0.01583625513194372,0.5519376708599847
227,-0.04745053311260764,-0.04088152626383475,1.2807082667503553,-0.24849733243900557,0.16408875822707092,-0.09441211618918084,0.949952792253845,-0.37990759602354757,1.4316670688321151,0.011278898132799961,0.5094538790714452,0.025931980604835585,0.5224314970149171,0.22589893722113868,0.42446688925876574,-0.001650926039565806,0.5519376708599847
228,-0.051998744063681955,-0.04029768357492582,1.2694121516693961,-0.2466981179569158,0.1635682180018584,-0.0973340499791584,0.9502165855060976,-0.3799078347074742,1.427846810210433,0.0011172342234550443,0.507563646279291,0.026341273100164198,0.5224061162510147,0.2421463197073551,0.4367406876962329,0.001260514942664175,0.5519376641036448
229,-0.056493750742734605,-0.03959676989510625,1.258304054535417,-0.2443855961098903,0.16359893085302019,-0.10005939671999503,0.9505257426107896,-0.37990768897728566,1.4233962593708684,-0.009729419141727957,0.5060519768675118,0.02547217045508227,0.517924862898114,0.2574544146305769,0.4501561308133461,0.002110458283315025,0.5519373873835376
230,-0.0611515119851884,-0.038264804484353675,1.2490548003305615,-0.23888836745590705,0.1666095404599402,-0.10223486726434344,0.9511685659426625,-0.3686648237024387,1.414411450345585,-0.02354862498536359,0.504843729434368,0.027235162841662334,0.5143404697821279,0.26964240145980706,0.4719972552513068,-0.005765349977642886,0.5519367995937767
231,-0.0656572805471447,-0.03694623282227636,1.2398772515674952,-0.23300965992909958,0.16990767255206474,-0.10414613979839221,0.9518358381321642,-0.3601879350014183,1.4047671182883803,-0.038042180265473194,0.5038760478538217,0.02853056718875464,0.5114727094594388,0.28114064004317135,0.4943468202316498,-0.015049357948583782,0.5519364633209842
232,-0.07012517687261582,-0.0355540857247372,1.2305852499271437,-0.22720891335787746,0.1731200202202022,-0.10579641877128791,0.9524771315180536,-0.3573366737956689,1.3951593112868985,-0.05319579909120929,0.5030236919670716,0.029228326819943393,0.5091783197644277,0.2921453854477998,0.5157526560062246,-0.024413275504498226,0.5517878228411833
233,-0.07324157393137665,-0.032450512549061394,1.2238192659112537,-0.2259514762530865,0.17581677793439573,-0.10820716586172326,0.952011344592065,-0.35749308721844164,1.3942422313668903,-0.06903282865020322,0.5024211688606878,0.04215262010282418,0.5073435085456818,0.3036090704337911,0.5126036172747251,-0.024523527954836425,0.5383144157286283
234,-0.07633104532404285,-0.029393821290526638,1.2168592772245308,-0.22461969659237144,0.17850855420113748,-0.11058301555908215,0.9515524602719654,-0.35749411611973236,1.39329478674265,-0.08462701998987993,0.5019369357860028,0.05462936351455928,0.505700327668709,0.3148182775841458,0.5097488947241058,-0.024523338617296643,0.5251961942593184
235,-0.0792910003283166,-0.026090639021079498,1.212524958178989,-0.22011608872129884,0.1785504560630581,-0.11304331675955186,0.9523076449665365,-0.3647504633599889,1.3813515622697834,-0.08858331772410742,0.502111621998359,0.06345857127743872,0.5045607424387994,0.33151376027323703,0.5037080789049481,-0.024523342027944286,0.5201569336558353
236,-0.08221882110542346,-0.02290767544245465,1.208048714542175,-0.2153638773332973,0.17850888414298569,-0.11558530351675991,0.9530965408776453,-0.36780526389306223,1.3689565548282705,-0.09167940619265787,0.5016894075551851,0.07177878721978606,0.5036476841476341,0.3482932729679053,0.49793910598155045,-0.024523338242078554,0.5160136954923983
237,-0.08512584922738664,-0.019827954282295092,1.2033903797006382,-0.21044765588304779,0.178481680661828,-0.11818213237245274,0.9538810499162669,-0.36780623886884384,1.3563813680411476,-0.09412063157360875,0.5013515267476716,0.07965607254727461,0.5028452852855778,0.36491709902135877,0.49250565776078215,-0.024523171662215067,0.5124135424831257
238,-0.08803083986380346,-0.016799129496845686,1.1985659401666915,-0.20541748167489182,0.1784627267559137,-0.1207277960907668,0.9546619886809445,-0.3678039433090677,1.3436368465421469,-0.09631916780872041,0.5010818956065567,0.08695984015994306,0.5022765790062966,0.38105991504831765,0.4871818461674351,-0.024523676149751133,0.5092160877983862
239,-0.09094076904465115,-0.013820522987952952,1.1935698996154482,-0.20027655988059961,0.1784394482173668,-0.12322037361615588,0.9554398999456581,-0.36780351472507583,1.3307197908695916,-0.09828000819402745,0.5008658531583362,0.09364543501694592,0.5018212632050373,0.39672951428030195,0.481942359717676,-0.02452379653448495,0.5064459901304823
240,-0.09385633364549571,-0.0108902796877469,1.1884020785264102,-0.19502114366347328,0.17841237864273715,-0.12566187911768278,0.956213819607228,-0.36780530540616446,1.3176244786081248,-0.09999655728921014,0.5006921798210547,0.09971307405096153,0.5014570105640298,0.4119315171921209,0.47679761919028096,-0.024523435773352486,0.5041090424897248
241,-0.09677830293489784,-0.008006800973765712,1.183061821670014,-0.189648094605583,0.1783819692038936,-0.12805414416449426,0.9569825544061459,-0.36780791212852676,1.3043464796823472,-0.10146279423022937,0.5005529962827348,0.10516342716969129,0.5011656084512238,0.4266710639418868,0.47175761417113216,-0.024522917892451875,0.5022104287718914
242,-0.09970752224782767,-0.00516866819367579,1.177548165669824,-0.18415472658977222,0.17834833838782738,-0.13039888582328868,0.9577447663365184,-0.3678099984393756,1.290881969659979,-0.10267290801792352,0.5004417833643253,0.10999754567173202,0.500932486760979,0.4409533326375944,0.4668314600740582,-0.02452250729165551,0.5007553844639946
243,-0.10264491695114215,-0.0023745450960912426,1.171859936337327,-0.17853879942160264,0.1783112660294839,-0.13269770694200042,0.95849898700019,-0.3678119251058074,1.277227653320087,-0.10362138104976146,0.5003528467794165,0.11421688097493415,0.5007459894087832,0.4547835000815187,0.4620272549386862,-0.02452213047244471,0.49974910538955014
244,-0.10559146936059263,0.0003768190825068733,1.1659957557290608,-0.17279845508334232,0.17827031686556055,-0.13495212687546324,0.9592436142593036,-0.3678144053625704,1.2633808027621416,-0.1043028921010651,0.5002815162437736,0.11782323625816193,0.5005967915270266,0.4681667250734388,0.45735250291533636,-0.024521647058346797,0.49919666078002967
245,-0.1083186600071639,0.0031276021624511833,1.1601825964921681,-0.1667233981991465,0.17881748229745173,-0.13712421401237582,0.9599086240102324,-0.36609714425831513,1.2494827975038876,-0.10489227810615945,0.5002286532740889,0.1214639181398336,0.5004786238120507,0.4805555008606235,0.4541701477426471,-0.02565225644045247,0.49805296565861046
246,-0.1110421872032887,0.0058834562162189945,1.1542425039723667,-0.1605036945698424,0.17945726553023156,-0.1390782270490333,0.960568009377129,-0.3660888081216194,1.2353968768656816,-0.10583501590799217,0.5001863524910023,0.1241494496206241,0.500384024137171,0.49194641661040783,0.4512130969489978,-0.027282545593114358,0.4971248447138194
247,-0.11376088251640222,0.008616521906672775,1.1481584578947852,-0.1541384568601106,0.1801548085994501,-0.14098187955298067,0.9612022111361315,-0.36608711246372744,1.2211405002313753,-0.10656785106442052,0.5001498123017587,0.1262575950106645,0.5003074505379097,0.5028582669205672,0.4485377117559779,-0.028974288450739315,0.49651519823242257
248,-0.11625344133302476,0.011893383594375978,1.1417907096332842,-0.14771681040525628,0.18145727391452346,-0.1404463802825912,0.9620435623882762,-0.3753983517403812,1.2078393263236413,-0.11556799680534674,0.5001198498432389,0.12268892116014873,0.5002459604302966,0.5022866135364538,0.44594020114525523,-0.03698992000702675,0.4943405659515432
249,-0.11868318508660268,0.015209108159245375,1.1352378650157438,-0.1413601203968379,0.18273099648601657,-0.1402089164932366,0.9627918565403487,-0.38193760077355154,1.1949472597048978,-0.12346466342610392,0.5000958798821497,0.12025402680905702,0.5001967683441225,0.501829290829163,0.44348180787917624,-0.0437846512059468,0.49212133405381187
250,-0.12104536867977386,0.01861745809850621,1.128542395603519,-0.13556784183131768,0.1839961537045296,-0.14052408287615606,0.963337821231448,-0.38531240205343836,1.1835500048497092,-0.12975120643927848,0.5000777418199569,0.12025169506222864,0.5001570006111503,0.500420169350861,0.4439868382948391,-0.04802372840565554,0.48875474233595245
251,-0.12330097410110173,0.022395444632292955,1.1216556050450328,-0.13094787254335916,0.18561663345004362,-0.14080782358442434,0.9636245518252728,-0.3883140536693338,1.1755009793195168,-0.13702338565121286,0.5000629819453862,0.12229138698755178,0.5001254164354333,0.49195943708006673,0.45371875984636534,-0.05055314484349133,0.4820857552222811
252,-0.1257106048821349,0.026140972913112535,1.1150929745074951,-0.12593651544583578,0.1869545789767912,-0.14153321239621997,0.9639275539509067,-0.3894115917870923,1.1660235819333926,-0.14345498932653292,0.5000693379737484,0.12486603821501083,0.5001028932677519,0.48517370721364106,0.4635225913982914,-0.051654921990409705,0.476765060350608
253,-0.1281106858972952,0.029845823224776993,1.1084678700684634,-0.12097332709890025,0.18827756876582016,-0.14254003041088018,0.964157326871875,-0.38939229133574826,1.1566820869910963,-0.14868764946536514,0.5000655489765693,0.1280849432435115,0.5000844289062032,0.47925491982813506,0.47352687292651713,-0.05165871479955191,0.4715179563590075
254,-0.13004394743163153,0.03352459199456622,1.1027597447891624,-0.11516496774972516,0.18877129599530282,-0.14375544237943136,0.9645915201771953,-0.3893716570895839,1.144030657692695,-0.15354855812324034,0.5000743077380678,0.1309925505368341,0.500073062025859,0.47435899875419274,0.48281678135681605,-0.051662725095163696,0.4685861622192634
255,-0.1312527069275609,0.037168899430349435,1.0984425270442366,-0.10819565371904796,0.1880792903543357,-0.14530924129307038,0.9653005259767289,-0.38933218636958783,1.126667401795302,-0.15705535646953153,0.5000988093388429,0.13348888704525516,0.5000690468843132,0.4714390884924627,0.4903284416550945,-0.051537106708878774,0.4685702126321202
256,-0.13199457169390108,0.04084848819970877,1.0948700019311037,-0.10091716844910645,0.18765424213578294,-0.14705952001470154,0.9659063661109731,-0.3876896808564674,1.108488135100555,-0.15952964021084237,0.5001253435091609,0.13501710006898351,0.500066428737228,0.4693078097042843,0.4978701295752068,-0.05154349282451596,0.46768476516357177
257,-0.13264525933236906,0.04448562633530776,1.0914172449973236,-0.0935150741717404,0.18719383800646097,-0.14882265439611092,0.966470493834944,-0.3866048239904913,1.0898358561659758,-0.16146626252157376,0.5001202561051784,0.1358201809588865,0.5000546585579374,0.4676100911106535,0.5051782472450843,-0.05154267777017142,0.4669775546780173
258,-0.1328331075504217,0.04840947135198597,1.0889302103536742,-0.08793269498740243,0.18661471315500003,-0.15089415199770148,0.9667852630647739,-0.3865937077816141,1.0744186117813548,-0.16306524456691143,0.49918890113407793,0.13975546854042875,0.5000450707335486,0.4662147659026843,0.5041473134741936,-0.048212166209450694,0.46149337555808007
259,-0.13298938089358292,0.05226929983354888,1.08638907753244,-0.0824048521862888,0.1863076002077937,-0.1528568105771641,0.9670231196311418,-0.38658476503783035,1.0593983876056932,-0.16463719603958096,0.4991887026257587,0.14303998397526127,0.500037077563749,0.4645245916490667,0.5033217515204955,-0.04541233440187938,0.4554412135152931
260,-0.13314848811771743,0.05602151567629082,1.0837789737586643,-0.076763933953841,0.18605177398515352,-0.15477210765141292,0.9672319424698749,-0.3865775702997942,1.0441386699359292,-0.1658284410937984,0.49919458768085256,0.1455941779670694,0.5000304390316995,0.46296529766740185,0.5026606481087197,-0.0430215038064577,0.44966592586203863
261,-0.13331156097612296,0.05966627801009386,1.0810988874350278,-0.07101446756239392,0.18584099300843485,-0.1566446241451518,0.9674102193179958,-0.3865718374830471,1.028643292234049,-0.1666268118278921,0.49919941700509746,0.14747691450478126,0.5000249761792125,0.4615499129492581,0.5021311940214067,-0.041008829786617844,0.4441671925351621
262,-0.133479022247499,0.06320348719261332,1.0783459605984829,-0.06516111203102856,0.18567021104755058,-0.15847848964426078,0.9675562880414306,-0.3865672784608979,1.0129192407491983,-0.1670218224235338,0.4992033626428217,0.14872902851205952,0.5000204915375299,0.4602884540390306,0.5017071536538118,-0.039347677685077104,0.4389431718745271
263,-0.1332978941165588,0.06694627979158295,1.0760172853725947,-0.061374524255195864,0.18558766532339474,-0.16024668190742947,0.9675284942521947,-0.3876673088179943,1.0016603498067147,-0.168477791825703,0.4992060512186256,0.15303514411388544,0.5000169507502134,0.45639053342168784,0.5013671213422383,-0.03539878188352073,0.42857993832051594
264,-0.13275056308051958,0.07092741700115254,1.0741559735674127,-0.059886356705104726,0.1856135608999481,-0.161911934168235,0.9673395246057773,-0.39010623899686003,0.9954046619923107,-0.17129096347257394,0.49920821098398216,0.16072007425690643,0.5000140163606493,0.4495713827884501,0.5010948640325541,-0.029060090147986765,0.4124928235548618
265,-0.13218664287608237,0.07476823671372315,1.0722161843665239,-0.058529176108992775,0.18565267350961737,-0.16379390970897367,0.9670982243314185,-0.39110260390247226,0.9894076169305793,-0.1729956746446187,0.49920999321553455,0.16881384809735941,0.5000115906361268,0.4435367413872246,0.5008768588519624,-0.022292082431477588,0.3963182927813049
266,-0.13161234283886955,0.07848037339955083,1.0702026855647975,-0.057292702211239534,0.1857140173656528,-0.16582071019204697,0.9668150506165331,-0.39110177968324805,0.9836585319881107,-0.17382820689408549,0.4992103173179705,0.17712681805804692,0.5000094006009385,0.4380752211696894,0.5007025473666761,-0.015287220964241208,0.38003282980286573
267,-0.13105975406170606,0.08207414482401044,1.068100765225172,-0.056010125121824975,0.18581606573190956,-0.16781098224716423,0.9665271490428989,-0.391101027341557,0.9778218278362987,-0.1742955042601528,0.49921038366097253,0.18494024995032435,0.5000080826620754,0.43282017640745457,0.5005623752734664,-0.008695241967690441,0.3639289890681539
268,-0.1305628108772186,0.08555167367238847,1.0659290469564267,-0.05463052539284884,0.18595828965699662,-0.16976517895926213,0.9662374471195346,-0.3911010223914937,0.971760070833015,-0.17447450740119966,0.4993193221784229,0.19217115981547617,0.5000081146624371,0.4278411866106905,0.5004492062233353,-0.002522944692572468,0.3481191453895113
269,-0.13026097269219838,0.08894520232452376,1.063647636139823,-0.053206566434969654,0.18621057166919164,-0.17167444003435792,0.9659309348632146,-0.39110044202638505,0.9656847655111996,-0.17475868470976408,0.5011751174976297,0.19885310520760835,0.5000065626216762,0.4231142315624331,0.5003602101007016,0.003358148977883171,0.332492760721971
270,-0.13026778857670393,0.09228737211751899,1.0619525769706284,-0.051266050998798586,0.1863334886470205,-0.17360661816367154,0.9656667982039108,-0.39131383622419713,0.957634769940948,-0.1752563747997808,0.5009680254141212,0.20457759711577922,0.5000113239349367,0.4193806365893975,0.5000943192892504,0.009096590866725268,0.31788743759606247
271,-0.13035399571847006,0.09551058049147695,1.0602057709632036,-0.04914796117303236,0.18649158943490013,-0.17553354319139777,0.9653980216456073,-0.39132244308301306,0.9491537087885598,-0.17539689951058132,0.5007818726310598,0.20969649197395493,0.5000088314845026,0.4160619668438536,0.5000844655337864,0.014497571989078358,0.30375754562624446
272,-0.13049637048932688,0.09863376300387738,1.0584140708989709,-0.04692822770360473,0.18668666136176237,-0.17741651610054335,0.9651265262798152,-0.39132896062328226,0.9404269966413512,-0.1753995321650228,0.5006330754105417,0.21425452192484895,0.5000072448565756,0.4129809840084113,0.5000760966437622,0.019549786885297432,0.289896124242213
273,-0.13068500117360807,0.10166339151020017,1.0565672733325022,-0.044611886668508176,0.1869209484618081,-0.17923703864138507,0.9648546121427212,-0.39133411021719383,0.931489421301484,-0.17540200759196478,0.5005138204907924,0.21822326497028294,0.5000062741090759,0.41006172214484155,0.5000689770103374,0.024215414498708933,0.2762806460067918
274,-0.13091994916503613,0.1046003141856598,1.0546654947664234,-0.04219794798530886,0.18719263287785634,-0.18099771550113583,0.964581815278235,-0.39133703610757314,0.9223380450783097,-0.17540448473605036,0.5004202324542273,0.2216123232632852,0.5000063950342117,0.4073105761639529,0.5000640711107901,0.028513466055940177,0.26291325193451115
275,-0.13120106337704798,0.10744533548665466,1.0527083673326922,-0.03968595993463514,0.18750030207057994,-0.18270060624473125,0.9643076012275935,-0.39134002344100877,0.9129719976669854,-0.17540681992268758,0.5003512544116389,0.22443028773210352,0.5000070720928191,0.4047316456208534,0.5000620609435665,0.03246080841685903,0.24979425542506495
