yifeidong0/3D-Soft-Fixture/results/HandbagGripper_21-06-2023-16-19-50_dynamics/data.csv
chain_node_0_pos_0,chain_node_0_pos_1,chain_node_0_pos_2,chain_node_1_pos_0,chain_node_1_pos_1,chain_node_1_pos_2,chain_node_2_pos_0,chain_node_2_pos_1,chain_node_2_pos_2,chain_node_3_pos_0,chain_node_3_pos_1,chain_node_3_pos_2,chain_node_4_pos_0,chain_node_4_pos_1,chain_node_4_pos_2,chain_node_5_pos_0,chain_node_5_pos_1,chain_node_5_pos_2,chain_node_6_pos_0,chain_node_6_pos_1,chain_node_6_pos_2,obs_pos_x,obs_pos_y,obs_pos_z,obs_qtn_x,obs_qtn_y,obs_qtn_z,obs_qtn_w,obs_joint_0_pos,obs_joint_1_pos,obs_joint_2_pos,obs_joint_3_pos,obs_joint_4_pos,obs_joint_5_pos,obs_joint_6_pos,obs_joint_7_pos,obs_joint_8_pos,obs_joint_9_pos,obs_joint_10_pos,obs_joint_11_pos
-0.05,0.3,0.302,-0.795944941091348,0.300594016069671,0.7095117078135725,-0.9570189082219862,0.3007222836127705,1.544110510029485,-0.41629498477432736,0.30029169057286925,2.19994391357112,0.4337041749929138,0.2996148133232295,2.2009289172124213,0.9759466406591275,0.2991830110272148,1.5463504864839082,0.852159062109979,0.30020385399226196,0.6032983613448561,0,-0.5,2.2,0.1505842917243781,-0.6910065596697561,-0.15058429172437815,0.6907667310062802,0.0,0.005,0.0,0.0,0.0,0.005,0.0,0.0,0.0,0.005,0.0,0.0
-0.05,0.3,0.304,-0.795944941091348,0.300594016069671,0.7115117078135725,-0.9570189082219862,0.3007222836127705,1.546110510029485,-0.41629498477432736,0.30029169057286925,2.20194391357112,0.4337041749929138,0.2996148133232295,2.2029289172124216,0.9759466406591275,0.2991830110272148,1.5483504864839084,0.852159062109979,0.30020385399226196,0.6052983613448564,0,-0.5,2.2,0.1505842917243781,-0.6910065596697561,-0.15058429172437815,0.6907667310062802,0.0,0.01,0.0,0.0,0.0,0.01,0.0,0.0,0.0,0.01,0.0,0.0
-0.05,0.3,0.306,-0.795944941091348,0.300594016069671,0.7135117078135725,-0.9570189082219862,0.3007222836127705,1.548110510029485,-0.41629498477432736,0.30029169057286925,2.20394391357112,0.4337041749929138,0.2996148133232295,2.2049289172124213,0.9759466406591275,0.2991830110272148,1.5503504864839082,0.852159062109979,0.30020385399226196,0.6072983613448562,0,-0.5,2.2,0.1505842917243781,-0.6910065596697561,-0.15058429172437815,0.6907667310062802,0.0,0.015,0.0,0.0,0.0,0.015,0.0,0.0,0.0,0.015,0.0,0.0
-0.05,0.3,0.308,-0.795944941091348,0.300594016069671,0.7155117078135725,-0.9570189082219862,0.3007222836127705,1.550110510029485,-0.41629498477432736,0.30029169057286925,2.2059439135711196,0.4337041749929138,0.2996148133232295,2.206928917212421,0.9759466406591275,0.2991830110272148,1.552350486483908,0.852159062109979,0.30020385399226196,0.609298361344856,0,-0.5,2.2,0.1505842917243781,-0.6910065596697561,-0.15058429172437815,0.6907667310062802,0.0,0.02,0.0,0.0,0.0,0.02,0.0,0.0,0.0,0.02,0.0,0.0
-0.05,0.3,0.31,-0.795944941091348,0.300594016069671,0.7175117078135725,-0.9570189082219862,0.3007222836127705,1.552110510029485,-0.41629498477432736,0.30029169057286925,2.20794391357112,0.4337041749929138,0.2996148133232295,2.2089289172124214,0.9759466406591275,0.2991830110272148,1.5543504864839082,0.852159062109979,0.30020385399226196,0.6112983613448562,0,-0.5,2.2,0.1505842917243781,-0.6910065596697561,-0.15058429172437815,0.6907667310062802,0.0,0.025,0.0,0.0,0.0,0.025,0.0,0.0,0.0,0.025,0.0,0.0
-0.05,0.3,0.312,-0.795944941091348,0.300594016069671,0.7195117078135725,-0.9570189082219862,0.3007222836127705,1.554110510029485,-0.41629498477432736,0.30029169057286925,2.20994391357112,0.4337041749929138,0.2996148133232295,2.2109289172124216,0.9759466406591275,0.2991830110272148,1.5563504864839084,0.852159062109979,0.30020385399226196,0.6132983613448564,0,-0.5,2.2,0.1505842917243781,-0.6910065596697561,-0.15058429172437815,0.6907667310062802,0.0,0.030000000000000002,0.0,0.0,0.0,0.030000000000000002,0.0,0.0,0.0,0.030000000000000002,0.0,0.0
-0.05,0.3,0.314,-0.795944941091348,0.300594016069671,0.7215117078135725,-0.9570189082219862,0.3007222836127705,1.556110510029485,-0.41629498477432736,0.30029169057286925,2.21194391357112,0.4337041749929138,0.2996148133232295,2.2129289172124214,0.9759466406591275,0.2991830110272148,1.5583504864839082,0.852159062109979,0.30020385399226196,0.6152983613448562,0,-0.5,2.2,0.1505842917243781,-0.6910065596697561,-0.15058429172437815,0.6907667310062802,0.0,0.035,0.0,0.0,0.0,0.035,0.0,0.0,0.0,0.035,0.0,0.0
-0.05,0.3,0.316,-0.795944941091348,0.300594016069671,0.7235117078135725,-0.9570189082219862,0.3007222836127705,1.558110510029485,-0.41629498477432736,0.30029169057286925,2.2139439135711196,0.4337041749929138,0.2996148133232295,2.214928917212421,0.9759466406591275,0.2991830110272148,1.560350486483908,0.852159062109979,0.30020385399226196,0.617298361344856,0,-0.5,2.2,0.1505842917243781,-0.6910065596697561,-0.15058429172437815,0.6907667310062802,0.0,0.04,0.0,0.0,0.0,0.04,0.0,0.0,0.0,0.04,0.0,0.0
-0.05,0.3,0.318,-0.795944941091348,0.300594016069671,0.7255117078135725,-0.9570189082219862,0.3007222836127705,1.560110510029485,-0.41629498477432736,0.30029169057286925,2.21594391357112,0.4337041749929138,0.2996148133232295,2.2169289172124214,0.9759466406591275,0.2991830110272148,1.5623504864839082,0.852159062109979,0.30020385399226196,0.6192983613448562,0,-0.5,2.2,0.1505842917243781,-0.6910065596697561,-0.15058429172437815,0.6907667310062802,0.0,0.045,0.0,0.0,0.0,0.045,0.0,0.0,0.0,0.045,0.0,0.0
-0.05,0.3,0.32,-0.795944941091348,0.300594016069671,0.7275117078135726,-0.9570189082219862,0.3007222836127705,1.562110510029485,-0.41629498477432736,0.30029169057286925,2.21794391357112,0.4337041749929138,0.2996148133232295,2.2189289172124216,0.9759466406591275,0.2991830110272148,1.5643504864839084,0.852159062109979,0.30020385399226196,0.6212983613448564,0,-0.5,2.2,0.1505842917243781,-0.6910065596697561,-0.15058429172437815,0.6907667310062802,0.0,0.049999999999999996,0.0,0.0,0.0,0.049999999999999996,0.0,0.0,0.0,0.049999999999999996,0.0,0.0
-0.05,0.3,0.322,-0.795944941091348,0.300594016069671,0.7295117078135726,-0.9570189082219862,0.3007222836127705,1.564110510029485,-0.41629498477432736,0.30029169057286925,2.21994391357112,0.4337041749929138,0.2996148133232295,2.2209289172124214,0.9759466406591275,0.2991830110272148,1.5663504864839082,0.852159062109979,0.30020385399226196,0.6232983613448562,0,-0.5,2.2,0.1505842917243781,-0.6910065596697561,-0.15058429172437815,0.6907667310062802,0.0,0.05499999999999999,0.0,0.0,0.0,0.05499999999999999,0.0,0.0,0.0,0.05499999999999999,0.0,0.0
-0.05,0.3,0.324,-0.795944941091348,0.300594016069671,0.7315117078135726,-0.9570189082219862,0.3007222836127705,1.566110510029485,-0.41629498477432736,0.30029169057286925,2.2219439135711196,0.4337041749929138,0.2996148133232295,2.222928917212421,0.9759466406591275,0.2991830110272148,1.568350486483908,0.852159062109979,0.30020385399226196,0.6252983613448561,0,-0.5,2.2,0.1505842917243781,-0.6910065596697561,-0.15058429172437815,0.6907667310062802,0.0,0.05999999999999999,0.0,0.0,0.0,0.05999999999999999,0.0,0.0,0.0,0.05999999999999999,0.0,0.0
-0.05,0.3,0.326,-0.795944941091348,0.300594016069671,0.7335117078135726,-0.9570189082219862,0.3007222836127705,1.568110510029485,-0.41629498477432736,0.30029169057286925,2.22394391357112,0.4337041749929138,0.2996148133232295,2.2249289172124214,0.9759466406591275,0.2991830110272148,1.5703504864839082,0.852159062109979,0.30020385399226196,0.6272983613448562,0,-0.5,2.2,0.1505842917243781,-0.6910065596697561,-0.15058429172437815,0.6907667310062802,0.0,0.06499999999999999,0.0,0.0,0.0,0.06499999999999999,0.0,0.0,0.0,0.06499999999999999,0.0,0.0
-0.05,0.3,0.328,-0.795944941091348,0.300594016069671,0.7355117078135726,-0.9570189082219862,0.3007222836127705,1.570110510029485,-0.41629498477432736,0.30029169057286925,2.22594391357112,0.4337041749929138,0.2996148133232295,2.2269289172124216,0.9759466406591275,0.2991830110272148,1.5723504864839084,0.852159062109979,0.30020385399226196,0.6292983613448564,0,-0.5,2.2,0.1505842917243781,-0.6910065596697561,-0.15058429172437815,0.6907667310062802,0.0,0.06999999999999999,0.0,0.0,0.0,0.06999999999999999,0.0,0.0,0.0,0.06999999999999999,0.0,0.0
-0.05,0.3,0.33,-0.795944941091348,0.300594016069671,0.7375117078135726,-0.9570189082219862,0.3007222836127705,1.572110510029485,-0.41629498477432736,0.30029169057286925,2.22794391357112,0.4337041749929138,0.2996148133232295,2.2289289172124214,0.9759466406591275,0.2991830110272148,1.5743504864839082,0.852159062109979,0.30020385399226196,0.6312983613448562,0,-0.5,2.2,0.1505842917243781,-0.6910065596697561,-0.15058429172437815,0.6907667310062802,0.0,0.075,0.0,0.0,0.0,0.075,0.0,0.0,0.0,0.075,0.0,0.0
-0.05,0.3,0.332,-0.795944941091348,0.300594016069671,0.7395117078135726,-0.9570189082219862,0.3007222836127705,1.574110510029485,-0.41629498477432736,0.30029169057286925,2.2299439135711197,0.4337041749929138,0.2996148133232295,2.230928917212421,0.9759466406591275,0.2991830110272148,1.576350486483908,0.852159062109979,0.30020385399226196,0.6332983613448561,0,-0.5,2.2,0.1505842917243781,-0.6910065596697561,-0.15058429172437815,0.6907667310062802,0.0,0.08,0.0,0.0,0.0,0.08,0.0,0.0,0.0,0.08,0.0,0.0
-0.05,0.3,0.334,-0.795944941091348,0.300594016069671,0.7415117078135726,-0.9570189082219862,0.3007222836127705,1.576110510029485,-0.41629498477432736,0.30029169057286925,2.23194391357112,0.4337041749929138,0.2996148133232295,2.2329289172124214,0.9759466406591275,0.2991830110272148,1.5783504864839082,0.852159062109979,0.30020385399226196,0.6352983613448562,0,-0.5,2.2,0.1505842917243781,-0.6910065596697561,-0.15058429172437815,0.6907667310062802,0.0,0.085,0.0,0.0,0.0,0.085,0.0,0.0,0.0,0.085,0.0,0.0
-0.05,0.3,0.336,-0.795944941091348,0.300594016069671,0.7435117078135726,-0.9570189082219862,0.3007222836127705,1.578110510029485,-0.41629498477432736,0.30029169057286925,2.23394391357112,0.4337041749929138,0.2996148133232295,2.2349289172124216,0.9759466406591275,0.2991830110272148,1.5803504864839084,0.852159062109979,0.30020385399226196,0.6372983613448564,0,-0.5,2.2,0.1505842917243781,-0.6910065596697561,-0.15058429172437815,0.6907667310062802,0.0,0.09000000000000001,0.0,0.0,0.0,0.09000000000000001,0.0,0.0,0.0,0.09000000000000001,0.0,0.0
-0.05,0.3,0.338,-0.795944941091348,0.300594016069671,0.7455117078135726,-0.9570189082219862,0.3007222836127705,1.580110510029485,-0.41629498477432736,0.30029169057286925,2.23594391357112,0.4337041749929138,0.2996148133232295,2.2369289172124214,0.9759466406591275,0.2991830110272148,1.5823504864839082,0.852159062109979,0.30020385399226196,0.6392983613448562,0,-0.5,2.2,0.1505842917243781,-0.6910065596697561,-0.15058429172437815,0.6907667310062802,0.0,0.09500000000000001,0.0,0.0,0.0,0.09500000000000001,0.0,0.0,0.0,0.09500000000000001,0.0,0.0
-0.05,0.3,0.34,-0.795944941091348,0.300594016069671,0.7475117078135726,-0.9570189082219862,0.3007222836127705,1.582110510029485,-0.41629498477432736,0.30029169057286925,2.2379439135711197,0.4337041749929138,0.2996148133232295,2.238928917212421,0.9759466406591275,0.2991830110272148,1.584350486483908,0.852159062109979,0.30020385399226196,0.6412983613448561,0,-0.5,2.2,0.1505842917243781,-0.6910065596697561,-0.15058429172437815,0.6907667310062802,0.0,0.10000000000000002,0.0,0.0,0.0,0.10000000000000002,0.0,0.0,0.0,0.10000000000000002,0.0,0.0
-0.05,0.3,0.342,-0.795944941091348,0.300594016069671,0.7495117078135726,-0.9570189082219862,0.3007222836127705,1.584110510029485,-0.41629498477432736,0.30029169057286925,2.23994391357112,0.4337041749929138,0.2996148133232295,2.2409289172124214,0.9759466406591275,0.2991830110272148,1.5863504864839082,0.852159062109979,0.30020385399226196,0.6432983613448562,0,-0.5,2.2,0.1505842917243781,-0.6910065596697561,-0.15058429172437815,0.6907667310062802,0.0,0.10500000000000002,0.0,0.0,0.0,0.10500000000000002,0.0,0.0,0.0,0.10500000000000002,0.0,0.0
-0.05,0.3,0.34400000000000003,-0.795944941091348,0.300594016069671,0.7515117078135726,-0.9570189082219862,0.3007222836127705,1.586110510029485,-0.41629498477432736,0.30029169057286925,2.24194391357112,0.4337041749929138,0.2996148133232295,2.2429289172124216,0.9759466406591275,0.2991830110272148,1.5883504864839084,0.852159062109979,0.30020385399226196,0.6452983613448564,0,-0.5,2.2,0.1505842917243781,-0.6910065596697561,-0.15058429172437815,0.6907667310062802,0.0,0.11000000000000003,0.0,0.0,0.0,0.11000000000000003,0.0,0.0,0.0,0.11000000000000003,0.0,0.0
-0.05,0.3,0.34600000000000003,-0.795944941091348,0.300594016069671,0.7535117078135726,-0.9570189082219862,0.3007222836127705,1.588110510029485,-0.41629498477432736,0.30029169057286925,2.24394391357112,0.4337041749929138,0.2996148133232295,2.2449289172124214,0.9759466406591275,0.2991830110272148,1.5903504864839082,0.852159062109979,0.30020385399226196,0.6472983613448562,0,-0.5,2.2,0.1505842917243781,-0.6910065596697561,-0.15058429172437815,0.6907667310062802,0.0,0.11500000000000003,0.0,0.0,0.0,0.11500000000000003,0.0,0.0,0.0,0.11500000000000003,0.0,0.0
-0.05,0.3,0.34800000000000003,-0.795944941091348,0.300594016069671,0.7555117078135726,-0.9570189082219862,0.3007222836127705,1.590110510029485,-0.41629498477432736,0.30029169057286925,2.2459439135711197,0.4337041749929138,0.2996148133232295,2.246928917212421,0.9759466406591275,0.2991830110272148,1.592350486483908,0.852159062109979,0.30020385399226196,0.6492983613448561,0,-0.5,2.2,0.1505842917243781,-0.6910065596697561,-0.15058429172437815,0.6907667310062802,0.0,0.12000000000000004,0.0,0.0,0.0,0.12000000000000004,0.0,0.0,0.0,0.12000000000000004,0.0,0.0
-0.05,0.3,0.35000000000000003,-0.795944941091348,0.300594016069671,0.7575117078135726,-0.9570189082219862,0.3007222836127705,1.592110510029485,-0.41629498477432736,0.30029169057286925,2.24794391357112,0.4337041749929138,0.2996148133232295,2.2489289172124214,0.9759466406591275,0.2991830110272148,1.5943504864839082,0.852159062109979,0.30020385399226196,0.6512983613448562,0,-0.5,2.2,0.1505842917243781,-0.6910065596697561,-0.15058429172437815,0.6907667310062802,0.0,0.12500000000000003,0.0,0.0,0.0,0.12500000000000003,0.0,0.0,0.0,0.12500000000000003,0.0,0.0
-0.05,0.3,0.35200000000000004,-0.795944941091348,0.300594016069671,0.7595117078135726,-0.9570189082219862,0.3007222836127705,1.594110510029485,-0.41629498477432736,0.30029169057286925,2.24994391357112,0.4337041749929138,0.2996148133232295,2.2509289172124216,0.9759466406591275,0.2991830110272148,1.5963504864839084,0.852159062109979,0.30020385399226196,0.6532983613448564,0,-0.5,2.2,0.1505842917243781,-0.6910065596697561,-0.15058429172437815,0.6907667310062802,0.0,0.13000000000000003,0.0,0.0,0.0,0.13000000000000003,0.0,0.0,0.0,0.13000000000000003,0.0,0.0
-0.05,0.3,0.35400000000000004,-0.795944941091348,0.300594016069671,0.7615117078135726,-0.9570189082219862,0.3007222836127705,1.596110510029485,-0.41629498477432736,0.30029169057286925,2.25194391357112,0.4337041749929138,0.2996148133232295,2.2529289172124214,0.9759466406591275,0.2991830110272148,1.5983504864839082,0.852159062109979,0.30020385399226196,0.6552983613448562,0,-0.5,2.2,0.1505842917243781,-0.6910065596697561,-0.15058429172437815,0.6907667310062802,0.0,0.13500000000000004,0.0,0.0,0.0,0.13500000000000004,0.0,0.0,0.0,0.13500000000000004,0.0,0.0
-0.05,0.3,0.35600000000000004,-0.795944941091348,0.300594016069671,0.7635117078135726,-0.9570189082219862,0.3007222836127705,1.598110510029485,-0.41629498477432736,0.30029169057286925,2.2539439135711197,0.4337041749929138,0.2996148133232295,2.254928917212421,0.9759466406591275,0.2991830110272148,1.600350486483908,0.852159062109979,0.30020385399226196,0.6572983613448561,0,-0.5,2.2,0.1505842917243781,-0.6910065596697561,-0.15058429172437815,0.6907667310062802,0.0,0.14000000000000004,0.0,0.0,0.0,0.14000000000000004,0.0,0.0,0.0,0.14000000000000004,0.0,0.0
-0.05,0.3,0.35800000000000004,-0.795944941091348,0.300594016069671,0.7655117078135726,-0.9570189082219862,0.3007222836127705,1.600110510029485,-0.41629498477432736,0.30029169057286925,2.25594391357112,0.4337041749929138,0.2996148133232295,2.2569289172124214,0.9759466406591275,0.2991830110272148,1.6023504864839082,0.852159062109979,0.30020385399226196,0.6592983613448562,0,-0.5,2.2,0.1505842917243781,-0.6910065596697561,-0.15058429172437815,0.6907667310062802,0.0,0.14500000000000005,0.0,0.0,0.0,0.14500000000000005,0.0,0.0,0.0,0.14500000000000005,0.0,0.0
-0.05,0.3,0.36000000000000004,-0.795944941091348,0.300594016069671,0.7675117078135726,-0.9570189082219862,0.3007222836127705,1.602110510029485,-0.41629498477432736,0.30029169057286925,2.25794391357112,0.4337041749929138,0.2996148133232295,2.2589289172124216,0.9759466406591275,0.2991830110272148,1.6043504864839084,0.852159062109979,0.30020385399226196,0.6612983613448564,0,-0.5,2.2,0.1505842917243781,-0.6910065596697561,-0.15058429172437815,0.6907667310062802,0.0,0.15000000000000005,0.0,0.0,0.0,0.15000000000000005,0.0,0.0,0.0,0.15000000000000005,0.0,0.0
-0.05,0.3,0.36200000000000004,-0.795944941091348,0.300594016069671,0.7695117078135726,-0.9570189082219862,0.3007222836127705,1.604110510029485,-0.41629498477432736,0.30029169057286925,2.25994391357112,0.4337041749929138,0.2996148133232295,2.2609289172124214,0.9759466406591275,0.2991830110272148,1.6063504864839082,0.852159062109979,0.30020385399226196,0.6632983613448562,0,-0.5,2.2,0.1505842917243781,-0.6910065596697561,-0.15058429172437815,0.6907667310062802,0.0,0.15500000000000005,0.0,0.0,0.0,0.15500000000000005,0.0,0.0,0.0,0.15500000000000005,0.0,0.0
-0.05,0.3,0.36400000000000005,-0.795944941091348,0.300594016069671,0.7715117078135726,-0.9570189082219862,0.3007222836127705,1.606110510029485,-0.41629498477432736,0.30029169057286925,2.2619439135711197,0.4337041749929138,0.2996148133232295,2.262928917212421,0.9759466406591275,0.2991830110272148,1.608350486483908,0.852159062109979,0.30020385399226196,0.6652983613448561,0,-0.5,2.2,0.1505842917243781,-0.6910065596697561,-0.15058429172437815,0.6907667310062802,0.0,0.16000000000000006,0.0,0.0,0.0,0.16000000000000006,0.0,0.0,0.0,0.16000000000000006,0.0,0.0
-0.05,0.3,0.36600000000000005,-0.795944941091348,0.300594016069671,0.7735117078135726,-0.9570189082219862,0.3007222836127705,1.608110510029485,-0.41629498477432736,0.30029169057286925,2.26394391357112,0.4337041749929138,0.2996148133232295,2.2649289172124214,0.9759466406591275,0.2991830110272148,1.6103504864839082,0.852159062109979,0.30020385399226196,0.6672983613448562,0,-0.5,2.2,0.1505842917243781,-0.6910065596697561,-0.15058429172437815,0.6907667310062802,0.0,0.16500000000000006,0.0,0.0,0.0,0.16500000000000006,0.0,0.0,0.0,0.16500000000000006,0.0,0.0
-0.05,0.3,0.36800000000000005,-0.795944941091348,0.300594016069671,0.7755117078135726,-0.9570189082219862,0.3007222836127705,1.610110510029485,-0.41629498477432736,0.30029169057286925,2.26594391357112,0.4337041749929138,0.2996148133232295,2.2669289172124216,0.9759466406591275,0.2991830110272148,1.6123504864839084,0.852159062109979,0.30020385399226196,0.6692983613448564,0,-0.5,2.2,0.1505842917243781,-0.6910065596697561,-0.15058429172437815,0.6907667310062802,0.0,0.17000000000000007,0.0,0.0,0.0,0.17000000000000007,0.0,0.0,0.0,0.17000000000000007,0.0,0.0
-0.05,0.3,0.37000000000000005,-0.795944941091348,0.300594016069671,0.7775117078135726,-0.9570189082219862,0.3007222836127705,1.612110510029485,-0.41629498477432736,0.30029169057286925,2.26794391357112,0.4337041749929138,0.2996148133232295,2.2689289172124214,0.9759466406591275,0.2991830110272148,1.6143504864839082,0.852159062109979,0.30020385399226196,0.6712983613448562,0,-0.5,2.2,0.1505842917243781,-0.6910065596697561,-0.15058429172437815,0.6907667310062802,0.0,0.17500000000000007,0.0,0.0,0.0,0.17500000000000007,0.0,0.0,0.0,0.17500000000000007,0.0,0.0
-0.05,0.3,0.37200000000000005,-0.795944941091348,0.300594016069671,0.7795117078135726,-0.9570189082219862,0.3007222836127705,1.614110510029485,-0.41629498477432736,0.30029169057286925,2.2699439135711197,0.4337041749929138,0.2996148133232295,2.270928917212421,0.9759466406591275,0.2991830110272148,1.616350486483908,0.852159062109979,0.30020385399226196,0.6732983613448561,0,-0.5,2.2,0.1505842917243781,-0.6910065596697561,-0.15058429172437815,0.6907667310062802,0.0,0.18000000000000008,0.0,0.0,0.0,0.18000000000000008,0.0,0.0,0.0,0.18000000000000008,0.0,0.0
-0.05,0.3,0.37400000000000005,-0.795944941091348,0.300594016069671,0.7815117078135726,-0.9570189082219862,0.3007222836127705,1.616110510029485,-0.41629498477432736,0.30029169057286925,2.27194391357112,0.4337041749929138,0.2996148133232295,2.2729289172124214,0.9759466406591275,0.2991830110272148,1.6183504864839082,0.852159062109979,0.30020385399226196,0.6752983613448562,0,-0.5,2.2,0.1505842917243781,-0.6910065596697561,-0.15058429172437815,0.6907667310062802,0.0,0.18500000000000008,0.0,0.0,0.0,0.18500000000000008,0.0,0.0,0.0,0.18500000000000008,0.0,0.0
-0.05,0.3,0.37600000000000006,-0.795944941091348,0.300594016069671,0.7835117078135726,-0.9570189082219862,0.3007222836127705,1.618110510029485,-0.41629498477432736,0.30029169057286925,2.27394391357112,0.4337041749929138,0.2996148133232295,2.2749289172124216,0.9759466406591275,0.2991830110272148,1.6203504864839084,0.852159062109979,0.30020385399226196,0.6772983613448564,0,-0.5,2.2,0.1505842917243781,-0.6910065596697561,-0.15058429172437815,0.6907667310062802,0.0,0.19000000000000009,0.0,0.0,0.0,0.19000000000000009,0.0,0.0,0.0,0.19000000000000009,0.0,0.0
-0.05,0.3,0.37800000000000006,-0.795944941091348,0.300594016069671,0.7855117078135726,-0.9570189082219862,0.3007222836127705,1.620110510029485,-0.41629498477432736,0.30029169057286925,2.27594391357112,0.4337041749929138,0.2996148133232295,2.2769289172124214,0.9759466406591275,0.2991830110272148,1.6223504864839082,0.852159062109979,0.30020385399226196,0.6792983613448562,0,-0.5,2.2,0.1505842917243781,-0.6910065596697561,-0.15058429172437815,0.6907667310062802,0.0,0.1950000000000001,0.0,0.0,0.0,0.1950000000000001,0.0,0.0,0.0,0.1950000000000001,0.0,0.0
-0.05,0.3,0.38000000000000006,-0.795944941091348,0.300594016069671,0.7875117078135726,-0.9570189082219862,0.3007222836127705,1.622110510029485,-0.41629498477432736,0.30029169057286925,2.2779439135711197,0.4337041749929138,0.2996148133232295,2.278928917212421,0.9759466406591275,0.2991830110272148,1.624350486483908,0.852159062109979,0.30020385399226196,0.681298361344856,0,-0.5,2.2,0.1505842917243781,-0.6910065596697561,-0.15058429172437815,0.6907667310062802,0.0,0.2000000000000001,0.0,0.0,0.0,0.2000000000000001,0.0,0.0,0.0,0.2000000000000001,0.0,0.0
-0.05,0.3,0.38200000000000006,-0.795944941091348,0.300594016069671,0.7895117078135726,-0.9570189082219862,0.3007222836127705,1.624110510029485,-0.41629498477432736,0.30029169057286925,2.27994391357112,0.4337041749929138,0.2996148133232295,2.2809289172124214,0.9759466406591275,0.2991830110272148,1.6263504864839082,0.852159062109979,0.30020385399226196,0.6832983613448562,0,-0.5,2.2,0.1505842917243781,-0.6910065596697561,-0.15058429172437815,0.6907667310062802,0.0,0.2050000000000001,0.0,0.0,0.0,0.2050000000000001,0.0,0.0,0.0,0.2050000000000001,0.0,0.0
-0.05,0.3,0.38400000000000006,-0.795944941091348,0.300594016069671,0.7915117078135726,-0.9570189082219862,0.3007222836127705,1.626110510029485,-0.41629498477432736,0.30029169057286925,2.28194391357112,0.4337041749929138,0.2996148133232295,2.2829289172124216,0.9759466406591275,0.2991830110272148,1.6283504864839085,0.852159062109979,0.30020385399226196,0.6852983613448564,0,-0.5,2.2,0.1505842917243781,-0.6910065596697561,-0.15058429172437815,0.6907667310062802,0.0,0.2100000000000001,0.0,0.0,0.0,0.2100000000000001,0.0,0.0,0.0,0.2100000000000001,0.0,0.0
-0.05,0.3,0.38600000000000007,-0.795944941091348,0.300594016069671,0.7935117078135726,-0.9570189082219862,0.3007222836127705,1.628110510029485,-0.41629498477432736,0.30029169057286925,2.28394391357112,0.4337041749929138,0.2996148133232295,2.2849289172124214,0.9759466406591275,0.2991830110272148,1.6303504864839082,0.852159062109979,0.30020385399226196,0.6872983613448562,0,-0.5,2.2,0.1505842917243781,-0.6910065596697561,-0.15058429172437815,0.6907667310062802,0.0,0.2150000000000001,0.0,0.0,0.0,0.2150000000000001,0.0,0.0,0.0,0.2150000000000001,0.0,0.0
-0.05,0.3,0.38800000000000007,-0.795944941091348,0.300594016069671,0.7955117078135726,-0.9570189082219862,0.3007222836127705,1.630110510029485,-0.41629498477432736,0.30029169057286925,2.2859439135711197,0.4337041749929138,0.2996148133232295,2.286928917212421,0.9759466406591275,0.2991830110272148,1.632350486483908,0.852159062109979,0.30020385399226196,0.689298361344856,0,-0.5,2.2,0.1505842917243781,-0.6910065596697561,-0.15058429172437815,0.6907667310062802,0.0,0.2200000000000001,0.0,0.0,0.0,0.2200000000000001,0.0,0.0,0.0,0.2200000000000001,0.0,0.0
-0.05,0.3,0.39000000000000007,-0.795944941091348,0.300594016069671,0.7975117078135726,-0.9570189082219862,0.3007222836127705,1.632110510029485,-0.41629498477432736,0.30029169057286925,2.28794391357112,0.4337041749929138,0.2996148133232295,2.2889289172124214,0.9759466406591275,0.2991830110272148,1.6343504864839082,0.852159062109979,0.30020385399226196,0.6912983613448562,0,-0.5,2.2,0.1505842917243781,-0.6910065596697561,-0.15058429172437815,0.6907667310062802,0.0,0.22500000000000012,0.0,0.0,0.0,0.22500000000000012,0.0,0.0,0.0,0.22500000000000012,0.0,0.0
-0.05,0.3,0.39200000000000007,-0.795944941091348,0.300594016069671,0.7995117078135726,-0.9570189082219862,0.3007222836127705,1.634110510029485,-0.41629498477432736,0.30029169057286925,2.28994391357112,0.4337041749929138,0.2996148133232295,2.2909289172124216,0.9759466406591275,0.2991830110272148,1.6363504864839085,0.852159062109979,0.30020385399226196,0.6932983613448565,0,-0.5,2.2,0.1505842917243781,-0.6910065596697561,-0.15058429172437815,0.6907667310062802,0.0,0.23000000000000012,0.0,0.0,0.0,0.23000000000000012,0.0,0.0,0.0,0.23000000000000012,0.0,0.0
-0.05,0.3,0.3940000000000001,-0.795944941091348,0.300594016069671,0.8015117078135726,-0.9570189082219862,0.3007222836127705,1.636110510029485,-0.41629498477432736,0.30029169057286925,2.29194391357112,0.4337041749929138,0.2996148133232295,2.2929289172124214,0.9759466406591275,0.2991830110272148,1.6383504864839082,0.852159062109979,0.30020385399226196,0.6952983613448562,0,-0.5,2.2,0.1505842917243781,-0.6910065596697561,-0.15058429172437815,0.6907667310062802,0.0,0.23500000000000013,0.0,0.0,0.0,0.23500000000000013,0.0,0.0,0.0,0.23500000000000013,0.0,0.0
-0.05,0.3,0.3960000000000001,-0.795944941091348,0.300594016069671,0.8035117078135726,-0.9570189082219862,0.3007222836127705,1.638110510029485,-0.41629498477432736,0.30029169057286925,2.2939439135711197,0.4337041749929138,0.2996148133232295,2.294928917212421,0.9759466406591275,0.2991830110272148,1.640350486483908,0.852159062109979,0.30020385399226196,0.697298361344856,0,-0.5,2.2,0.1505842917243781,-0.6910065596697561,-0.15058429172437815,0.6907667310062802,0.0,0.24000000000000013,0.0,0.0,0.0,0.24000000000000013,0.0,0.0,0.0,0.24000000000000013,0.0,0.0
-0.05,0.3,0.3980000000000001,-0.795944941091348,0.300594016069671,0.8055117078135726,-0.9570189082219862,0.3007222836127705,1.640110510029485,-0.41629498477432736,0.30029169057286925,2.29594391357112,0.4337041749929138,0.2996148133232295,2.2969289172124214,0.9759466406591275,0.2991830110272148,1.6423504864839082,0.852159062109979,0.30020385399226196,0.6992983613448562,0,-0.5,2.2,0.1505842917243781,-0.6910065596697561,-0.15058429172437815,0.6907667310062802,0.0,0.24500000000000013,0.0,0.0,0.0,0.24500000000000013,0.0,0.0,0.0,0.24500000000000013,0.0,0.0
-0.05,0.3,0.4000000000000001,-0.795944941091348,0.300594016069671,0.8075117078135726,-0.9570189082219862,0.3007222836127705,1.642110510029485,-0.41629498477432736,0.30029169057286925,2.29794391357112,0.4337041749929138,0.2996148133232295,2.2989289172124217,0.9759466406591275,0.2991830110272148,1.6443504864839085,0.852159062109979,0.30020385399226196,0.7012983613448565,0,-0.5,2.2,0.1505842917243781,-0.6910065596697561,-0.15058429172437815,0.6907667310062802,0.0,0.2500000000000001,0.0,0.0,0.0,0.2500000000000001,0.0,0.0,0.0,0.2500000000000001,0.0,0.0
-0.05,0.3,0.4020000000000001,-0.795944941091348,0.300594016069671,0.8095117078135726,-0.9570189082219862,0.3007222836127705,1.644110510029485,-0.41629498477432736,0.30029169057286925,2.29994391357112,0.4337041749929138,0.2996148133232295,2.3009289172124214,0.9759466406591275,0.2991830110272148,1.6463504864839082,0.852159062109979,0.30020385399226196,0.7032983613448562,0,-0.5,2.2,0.1505842917243781,-0.6910065596697561,-0.15058429172437815,0.6907667310062802,0.0,0.2550000000000001,0.0,0.0,0.0,0.2550000000000001,0.0,0.0,0.0,0.2550000000000001,0.0,0.0
-0.05,0.3,0.4040000000000001,-0.795944941091348,0.300594016069671,0.8115117078135726,-0.9570189082219862,0.3007222836127705,1.646110510029485,-0.41629498477432736,0.30029169057286925,2.3019439135711197,0.4337041749929138,0.2996148133232295,2.302928917212421,0.9759466406591275,0.2991830110272148,1.648350486483908,0.852159062109979,0.30020385399226196,0.705298361344856,0,-0.5,2.2,0.1505842917243781,-0.6910065596697561,-0.15058429172437815,0.6907667310062802,0.0,0.2600000000000001,0.0,0.0,0.0,0.2600000000000001,0.0,0.0,0.0,0.2600000000000001,0.0,0.0
-0.05,0.3,0.4060000000000001,-0.795944941091348,0.300594016069671,0.8135117078135726,-0.9570189082219862,0.3007222836127705,1.648110510029485,-0.41629498477432736,0.30029169057286925,2.30394391357112,0.4337041749929138,0.2996148133232295,2.3049289172124214,0.9759466406591275,0.2991830110272148,1.6503504864839083,0.852159062109979,0.30020385399226196,0.7072983613448562,0,-0.5,2.2,0.1505842917243781,-0.6910065596697561,-0.15058429172437815,0.6907667310062802,0.0,0.2650000000000001,0.0,0.0,0.0,0.2650000000000001,0.0,0.0,0.0,0.2650000000000001,0.0,0.0
-0.05,0.3,0.4080000000000001,-0.795944941091348,0.300594016069671,0.8155117078135726,-0.9570189082219862,0.3007222836127705,1.650110510029485,-0.41629498477432736,0.30029169057286925,2.30594391357112,0.4337041749929138,0.2996148133232295,2.3069289172124217,0.9759466406591275,0.2991830110272148,1.6523504864839085,0.852159062109979,0.30020385399226196,0.7092983613448565,0,-0.5,2.2,0.1505842917243781,-0.6910065596697561,-0.15058429172437815,0.6907667310062802,0.0,0.27000000000000013,0.0,0.0,0.0,0.27000000000000013,0.0,0.0,0.0,0.27000000000000013,0.0,0.0
-0.05,0.3,0.4100000000000001,-0.795944941091348,0.300594016069671,0.8175117078135726,-0.9570189082219862,0.3007222836127705,1.652110510029485,-0.41629498477432736,0.30029169057286925,2.30794391357112,0.4337041749929138,0.2996148133232295,2.3089289172124214,0.9759466406591275,0.2991830110272148,1.6543504864839083,0.852159062109979,0.30020385399226196,0.7112983613448562,0,-0.5,2.2,0.1505842917243781,-0.6910065596697561,-0.15058429172437815,0.6907667310062802,0.0,0.27500000000000013,0.0,0.0,0.0,0.27500000000000013,0.0,0.0,0.0,0.27500000000000013,0.0,0.0
-0.05,0.3,0.4120000000000001,-0.795944941091348,0.300594016069671,0.8195117078135726,-0.9570189082219862,0.3007222836127705,1.654110510029485,-0.41629498477432736,0.30029169057286925,2.3099439135711197,0.4337041749929138,0.2996148133232295,2.310928917212421,0.9759466406591275,0.2991830110272148,1.656350486483908,0.852159062109979,0.30020385399226196,0.713298361344856,0,-0.5,2.2,0.1505842917243781,-0.6910065596697561,-0.15058429172437815,0.6907667310062802,0.0,0.28000000000000014,0.0,0.0,0.0,0.28000000000000014,0.0,0.0,0.0,0.28000000000000014,0.0,0.0
-0.05,0.3,0.4140000000000001,-0.795944941091348,0.300594016069671,0.8215117078135726,-0.9570189082219862,0.3007222836127705,1.656110510029485,-0.41629498477432736,0.30029169057286925,2.31194391357112,0.4337041749929138,0.2996148133232295,2.3129289172124214,0.9759466406591275,0.2991830110272148,1.6583504864839083,0.852159062109979,0.30020385399226196,0.7152983613448562,0,-0.5,2.2,0.1505842917243781,-0.6910065596697561,-0.15058429172437815,0.6907667310062802,0.0,0.28500000000000014,0.0,0.0,0.0,0.28500000000000014,0.0,0.0,0.0,0.28500000000000014,0.0,0.0
-0.05,0.3,0.4160000000000001,-0.795944941091348,0.300594016069671,0.8235117078135726,-0.9570189082219862,0.3007222836127705,1.658110510029485,-0.41629498477432736,0.30029169057286925,2.31394391357112,0.4337041749929138,0.2996148133232295,2.3149289172124217,0.9759466406591275,0.2991830110272148,1.6603504864839085,0.852159062109979,0.30020385399226196,0.7172983613448565,0,-0.5,2.2,0.1505842917243781,-0.6910065596697561,-0.15058429172437815,0.6907667310062802,0.0,0.29000000000000015,0.0,0.0,0.0,0.29000000000000015,0.0,0.0,0.0,0.29000000000000015,0.0,0.0
-0.05,0.3,0.4180000000000001,-0.795944941091348,0.300594016069671,0.8255117078135726,-0.9570189082219862,0.3007222836127705,1.660110510029485,-0.41629498477432736,0.30029169057286925,2.31594391357112,0.4337041749929138,0.2996148133232295,2.3169289172124214,0.9759466406591275,0.2991830110272148,1.6623504864839083,0.852159062109979,0.30020385399226196,0.7192983613448563,0,-0.5,2.2,0.1505842917243781,-0.6910065596697561,-0.15058429172437815,0.6907667310062802,0.0,0.29500000000000015,0.0,0.0,0.0,0.29500000000000015,0.0,0.0,0.0,0.29500000000000015,0.0,0.0
-0.05,0.3,0.4200000000000001,-0.795944941091348,0.300594016069671,0.8275117078135726,-0.9570189082219862,0.3007222836127705,1.662110510029485,-0.41629498477432736,0.30029169057286925,2.3179439135711197,0.4337041749929138,0.2996148133232295,2.3189289172124212,0.9759466406591275,0.2991830110272148,1.664350486483908,0.852159062109979,0.30020385399226196,0.721298361344856,0,-0.5,2.2,0.1505842917243781,-0.6910065596697561,-0.15058429172437815,0.6907667310062802,0.0,0.30000000000000016,0.0,0.0,0.0,0.30000000000000016,0.0,0.0,0.0,0.30000000000000016,0.0,0.0
-0.05,0.3,0.4220000000000001,-0.795944941091348,0.300594016069671,0.8295117078135726,-0.9570189082219862,0.3007222836127705,1.664110510029485,-0.41629498477432736,0.30029169057286925,2.31994391357112,0.4337041749929138,0.2996148133232295,2.3209289172124214,0.9759466406591275,0.2991830110272148,1.6663504864839083,0.852159062109979,0.30020385399226196,0.7232983613448563,0,-0.5,2.2,0.1505842917243781,-0.6910065596697561,-0.15058429172437815,0.6907667310062802,0.0,0.30500000000000016,0.0,0.0,0.0,0.30500000000000016,0.0,0.0,0.0,0.30500000000000016,0.0,0.0
-0.05,0.3,0.4240000000000001,-0.795944941091348,0.300594016069671,0.8315117078135726,-0.9570189082219862,0.3007222836127705,1.666110510029485,-0.41629498477432736,0.30029169057286925,2.32194391357112,0.4337041749929138,0.2996148133232295,2.3229289172124217,0.9759466406591275,0.2991830110272148,1.6683504864839085,0.852159062109979,0.30020385399226196,0.7252983613448565,0,-0.5,2.2,0.1505842917243781,-0.6910065596697561,-0.15058429172437815,0.6907667310062802,0.0,0.31000000000000016,0.0,0.0,0.0,0.31000000000000016,0.0,0.0,0.0,0.31000000000000016,0.0,0.0
-0.05,0.3,0.4260000000000001,-0.795944941091348,0.300594016069671,0.8335117078135726,-0.9570189082219862,0.3007222836127705,1.668110510029485,-0.41629498477432736,0.30029169057286925,2.32394391357112,0.4337041749929138,0.2996148133232295,2.3249289172124215,0.9759466406591275,0.2991830110272148,1.6703504864839083,0.852159062109979,0.30020385399226196,0.7272983613448563,0,-0.5,2.2,0.1505842917243781,-0.6910065596697561,-0.15058429172437815,0.6907667310062802,0.0,0.31500000000000017,0.0,0.0,0.0,0.31500000000000017,0.0,0.0,0.0,0.31500000000000017,0.0,0.0
-0.05,0.3,0.4280000000000001,-0.795944941091348,0.300594016069671,0.8355117078135726,-0.9570189082219862,0.3007222836127705,1.670110510029485,-0.41629498477432736,0.30029169057286925,2.3259439135711197,0.4337041749929138,0.2996148133232295,2.3269289172124212,0.9759466406591275,0.2991830110272148,1.672350486483908,0.852159062109979,0.30020385399226196,0.729298361344856,0,-0.5,2.2,0.1505842917243781,-0.6910065596697561,-0.15058429172437815,0.6907667310062802,0.0,0.3200000000000002,0.0,0.0,0.0,0.3200000000000002,0.0,0.0,0.0,0.3200000000000002,0.0,0.0
-0.05,0.3,0.4300000000000001,-0.795944941091348,0.300594016069671,0.8375117078135726,-0.9570189082219862,0.3007222836127705,1.672110510029485,-0.41629498477432736,0.30029169057286925,2.32794391357112,0.4337041749929138,0.2996148133232295,2.3289289172124215,0.9759466406591275,0.2991830110272148,1.6743504864839083,0.852159062109979,0.30020385399226196,0.7312983613448563,0,-0.5,2.2,0.1505842917243781,-0.6910065596697561,-0.15058429172437815,0.6907667310062802,0.0,0.3250000000000002,0.0,0.0,0.0,0.3250000000000002,0.0,0.0,0.0,0.3250000000000002,0.0,0.0
-0.05,0.3,0.4320000000000001,-0.795944941091348,0.300594016069671,0.8395117078135726,-0.9570189082219862,0.3007222836127705,1.674110510029485,-0.41629498477432736,0.30029169057286925,2.32994391357112,0.4337041749929138,0.2996148133232295,2.3309289172124217,0.9759466406591275,0.2991830110272148,1.6763504864839085,0.852159062109979,0.30020385399226196,0.7332983613448565,0,-0.5,2.2,0.1505842917243781,-0.6910065596697561,-0.15058429172437815,0.6907667310062802,0.0,0.3300000000000002,0.0,0.0,0.0,0.3300000000000002,0.0,0.0,0.0,0.3300000000000002,0.0,0.0
-0.05,0.3,0.4340000000000001,-0.795944941091348,0.300594016069671,0.8415117078135727,-0.9570189082219862,0.3007222836127705,1.676110510029485,-0.41629498477432736,0.30029169057286925,2.33194391357112,0.4337041749929138,0.2996148133232295,2.3329289172124215,0.9759466406591275,0.2991830110272148,1.6783504864839083,0.852159062109979,0.30020385399226196,0.7352983613448563,0,-0.5,2.2,0.1505842917243781,-0.6910065596697561,-0.15058429172437815,0.6907667310062802,0.0,0.3350000000000002,0.0,0.0,0.0,0.3350000000000002,0.0,0.0,0.0,0.3350000000000002,0.0,0.0
-0.05,0.3,0.4360000000000001,-0.795944941091348,0.300594016069671,0.8435117078135727,-0.9570189082219862,0.3007222836127705,1.678110510029485,-0.41629498477432736,0.30029169057286925,2.3339439135711197,0.4337041749929138,0.2996148133232295,2.3349289172124212,0.9759466406591275,0.2991830110272148,1.680350486483908,0.852159062109979,0.30020385399226196,0.737298361344856,0,-0.5,2.2,0.1505842917243781,-0.6910065596697561,-0.15058429172437815,0.6907667310062802,0.0,0.3400000000000002,0.0,0.0,0.0,0.3400000000000002,0.0,0.0,0.0,0.3400000000000002,0.0,0.0
-0.05,0.3,0.4380000000000001,-0.795944941091348,0.300594016069671,0.8455117078135727,-0.9570189082219862,0.3007222836127705,1.680110510029485,-0.41629498477432736,0.30029169057286925,2.33594391357112,0.4337041749929138,0.2996148133232295,2.3369289172124215,0.9759466406591275,0.2991830110272148,1.6823504864839083,0.852159062109979,0.30020385399226196,0.7392983613448563,0,-0.5,2.2,0.1505842917243781,-0.6910065596697561,-0.15058429172437815,0.6907667310062802,0.0,0.3450000000000002,0.0,0.0,0.0,0.3450000000000002,0.0,0.0,0.0,0.3450000000000002,0.0,0.0
-0.05,0.3,0.4400000000000001,-0.795944941091348,0.300594016069671,0.8475117078135727,-0.9570189082219862,0.3007222836127705,1.682110510029485,-0.41629498477432736,0.30029169057286925,2.33794391357112,0.4337041749929138,0.2996148133232295,2.3389289172124217,0.9759466406591275,0.2991830110272148,1.6843504864839085,0.852159062109979,0.30020385399226196,0.7412983613448565,0,-0.5,2.2,0.1505842917243781,-0.6910065596697561,-0.15058429172437815,0.6907667310062802,0.0,0.3500000000000002,0.0,0.0,0.0,0.3500000000000002,0.0,0.0,0.0,0.3500000000000002,0.0,0.0
-0.05,0.3,0.4420000000000001,-0.795944941091348,0.300594016069671,0.8495117078135727,-0.9570189082219862,0.3007222836127705,1.684110510029485,-0.41629498477432736,0.30029169057286925,2.33994391357112,0.4337041749929138,0.2996148133232295,2.3409289172124215,0.9759466406591275,0.2991830110272148,1.6863504864839083,0.852159062109979,0.30020385399226196,0.7432983613448563,0,-0.5,2.2,0.1505842917243781,-0.6910065596697561,-0.15058429172437815,0.6907667310062802,0.0,0.3550000000000002,0.0,0.0,0.0,0.3550000000000002,0.0,0.0,0.0,0.3550000000000002,0.0,0.0
-0.05,0.3,0.4440000000000001,-0.795944941091348,0.300594016069671,0.8515117078135727,-0.9570189082219862,0.3007222836127705,1.686110510029485,-0.41629498477432736,0.30029169057286925,2.3419439135711198,0.4337041749929138,0.2996148133232295,2.3429289172124212,0.9759466406591275,0.2991830110272148,1.688350486483908,0.852159062109979,0.30020385399226196,0.745298361344856,0,-0.5,2.2,0.1505842917243781,-0.6910065596697561,-0.15058429172437815,0.6907667310062802,0.0,0.3600000000000002,0.0,0.0,0.0,0.3600000000000002,0.0,0.0,0.0,0.3600000000000002,0.0,0.0
-0.05,0.3,0.4460000000000001,-0.795944941091348,0.300594016069671,0.8535117078135727,-0.9570189082219862,0.3007222836127705,1.688110510029485,-0.41629498477432736,0.30029169057286925,2.34394391357112,0.4337041749929138,0.2996148133232295,2.3449289172124215,0.9759466406591275,0.2991830110272148,1.6903504864839083,0.852159062109979,0.30020385399226196,0.7472983613448563,0,-0.5,2.2,0.1505842917243781,-0.6910065596697561,-0.15058429172437815,0.6907667310062802,0.0,0.3650000000000002,0.0,0.0,0.0,0.3650000000000002,0.0,0.0,0.0,0.3650000000000002,0.0,0.0
-0.05,0.3,0.4480000000000001,-0.795944941091348,0.300594016069671,0.8555117078135727,-0.9570189082219862,0.3007222836127705,1.690110510029485,-0.41629498477432736,0.30029169057286925,2.34594391357112,0.4337041749929138,0.2996148133232295,2.3469289172124217,0.9759466406591275,0.2991830110272148,1.6923504864839085,0.852159062109979,0.30020385399226196,0.7492983613448565,0,-0.5,2.2,0.1505842917243781,-0.6910065596697561,-0.15058429172437815,0.6907667310062802,0.0,0.3700000000000002,0.0,0.0,0.0,0.3700000000000002,0.0,0.0,0.0,0.3700000000000002,0.0,0.0
-0.05,0.3,0.4500000000000001,-0.795944941091348,0.300594016069671,0.8575117078135727,-0.9570189082219862,0.3007222836127705,1.692110510029485,-0.41629498477432736,0.30029169057286925,2.34794391357112,0.4337041749929138,0.2996148133232295,2.3489289172124215,0.9759466406591275,0.2991830110272148,1.6943504864839083,0.852159062109979,0.30020385399226196,0.7512983613448563,0,-0.5,2.2,0.1505842917243781,-0.6910065596697561,-0.15058429172437815,0.6907667310062802,0.0,0.3750000000000002,0.0,0.0,0.0,0.3750000000000002,0.0,0.0,0.0,0.3750000000000002,0.0,0.0
-0.05,0.3,0.4520000000000001,-0.795944941091348,0.300594016069671,0.8595117078135727,-0.9570189082219862,0.3007222836127705,1.694110510029485,-0.41629498477432736,0.30029169057286925,2.3499439135711198,0.4337041749929138,0.2996148133232295,2.3509289172124213,0.9759466406591275,0.2991830110272148,1.696350486483908,0.852159062109979,0.30020385399226196,0.7532983613448561,0,-0.5,2.2,0.1505842917243781,-0.6910065596697561,-0.15058429172437815,0.6907667310062802,0.0,0.3800000000000002,0.0,0.0,0.0,0.3800000000000002,0.0,0.0,0.0,0.3800000000000002,0.0,0.0
-0.05,0.3,0.4540000000000001,-0.795944941091348,0.300594016069671,0.8615117078135727,-0.9570189082219862,0.3007222836127705,1.696110510029485,-0.41629498477432736,0.30029169057286925,2.35194391357112,0.4337041749929138,0.2996148133232295,2.3529289172124215,0.9759466406591275,0.2991830110272148,1.6983504864839083,0.852159062109979,0.30020385399226196,0.7552983613448563,0,-0.5,2.2,0.1505842917243781,-0.6910065596697561,-0.15058429172437815,0.6907667310062802,0.0,0.38500000000000023,0.0,0.0,0.0,0.38500000000000023,0.0,0.0,0.0,0.38500000000000023,0.0,0.0
-0.05,0.3,0.4560000000000001,-0.795944941091348,0.300594016069671,0.8635117078135727,-0.9570189082219862,0.3007222836127705,1.698110510029485,-0.41629498477432736,0.30029169057286925,2.35394391357112,0.4337041749929138,0.2996148133232295,2.3549289172124217,0.9759466406591275,0.2991830110272148,1.7003504864839085,0.852159062109979,0.30020385399226196,0.7572983613448565,0,-0.5,2.2,0.1505842917243781,-0.6910065596697561,-0.15058429172437815,0.6907667310062802,0.0,0.39000000000000024,0.0,0.0,0.0,0.39000000000000024,0.0,0.0,0.0,0.39000000000000024,0.0,0.0
-0.05,0.3,0.45800000000000013,-0.795944941091348,0.300594016069671,0.8655117078135727,-0.9570189082219862,0.3007222836127705,1.700110510029485,-0.41629498477432736,0.30029169057286925,2.35594391357112,0.4337041749929138,0.2996148133232295,2.3569289172124215,0.9759466406591275,0.2991830110272148,1.7023504864839083,0.852159062109979,0.30020385399226196,0.7592983613448563,0,-0.5,2.2,0.1505842917243781,-0.6910065596697561,-0.15058429172437815,0.6907667310062802,0.0,0.39500000000000024,0.0,0.0,0.0,0.39500000000000024,0.0,0.0,0.0,0.39500000000000024,0.0,0.0
-0.05,0.3,0.46000000000000013,-0.795944941091348,0.300594016069671,0.8675117078135727,-0.9570189082219862,0.3007222836127705,1.702110510029485,-0.41629498477432736,0.30029169057286925,2.3579439135711198,0.4337041749929138,0.2996148133232295,2.3589289172124213,0.9759466406591275,0.2991830110272148,1.704350486483908,0.852159062109979,0.30020385399226196,0.7612983613448561,0,-0.5,2.2,0.1505842917243781,-0.6910065596697561,-0.15058429172437815,0.6907667310062802,0.0,0.40000000000000024,0.0,0.0,0.0,0.40000000000000024,0.0,0.0,0.0,0.40000000000000024,0.0,0.0
-0.05,0.3,0.46200000000000013,-0.795944941091348,0.300594016069671,0.8695117078135727,-0.9570189082219862,0.3007222836127705,1.704110510029485,-0.41629498477432736,0.30029169057286925,2.35994391357112,0.4337041749929138,0.2996148133232295,2.3609289172124215,0.9759466406591275,0.2991830110272148,1.7063504864839083,0.852159062109979,0.30020385399226196,0.7632983613448563,0,-0.5,2.2,0.1505842917243781,-0.6910065596697561,-0.15058429172437815,0.6907667310062802,0.0,0.40500000000000025,0.0,0.0,0.0,0.40500000000000025,0.0,0.0,0.0,0.40500000000000025,0.0,0.0
-0.05,0.3,0.46400000000000013,-0.795944941091348,0.300594016069671,0.8715117078135727,-0.9570189082219862,0.3007222836127705,1.706110510029485,-0.41629498477432736,0.30029169057286925,2.36194391357112,0.4337041749929138,0.2996148133232295,2.3629289172124217,0.9759466406591275,0.2991830110272148,1.7083504864839085,0.852159062109979,0.30020385399226196,0.7652983613448565,0,-0.5,2.2,0.1505842917243781,-0.6910065596697561,-0.15058429172437815,0.6907667310062802,0.0,0.41000000000000025,0.0,0.0,0.0,0.41000000000000025,0.0,0.0,0.0,0.41000000000000025,0.0,0.0
-0.05,0.3,0.46600000000000014,-0.795944941091348,0.300594016069671,0.8735117078135727,-0.9570189082219862,0.3007222836127705,1.708110510029485,-0.41629498477432736,0.30029169057286925,2.36394391357112,0.4337041749929138,0.2996148133232295,2.3649289172124215,0.9759466406591275,0.2991830110272148,1.7103504864839083,0.852159062109979,0.30020385399226196,0.7672983613448563,0,-0.5,2.2,0.1505842917243781,-0.6910065596697561,-0.15058429172437815,0.6907667310062802,0.0,0.41500000000000026,0.0,0.0,0.0,0.41500000000000026,0.0,0.0,0.0,0.41500000000000026,0.0,0.0
-0.05,0.3,0.46800000000000014,-0.795944941091348,0.300594016069671,0.8755117078135727,-0.9570189082219862,0.3007222836127705,1.710110510029485,-0.41629498477432736,0.30029169057286925,2.3659439135711198,0.4337041749929138,0.2996148133232295,2.3669289172124213,0.9759466406591275,0.2991830110272148,1.712350486483908,0.852159062109979,0.30020385399226196,0.7692983613448561,0,-0.5,2.2,0.1505842917243781,-0.6910065596697561,-0.15058429172437815,0.6907667310062802,0.0,0.42000000000000026,0.0,0.0,0.0,0.42000000000000026,0.0,0.0,0.0,0.42000000000000026,0.0,0.0
-0.05,0.3,0.47000000000000014,-0.795944941091348,0.300594016069671,0.8775117078135727,-0.9570189082219862,0.3007222836127705,1.712110510029485,-0.41629498477432736,0.30029169057286925,2.36794391357112,0.4337041749929138,0.2996148133232295,2.3689289172124215,0.9759466406591275,0.2991830110272148,1.7143504864839083,0.852159062109979,0.30020385399226196,0.7712983613448563,0,-0.5,2.2,0.1505842917243781,-0.6910065596697561,-0.15058429172437815,0.6907667310062802,0.0,0.42500000000000027,0.0,0.0,0.0,0.42500000000000027,0.0,0.0,0.0,0.42500000000000027,0.0,0.0
-0.05,0.3,0.47200000000000014,-0.795944941091348,0.300594016069671,0.8795117078135727,-0.9570189082219862,0.3007222836127705,1.7141105100294851,-0.41629498477432736,0.30029169057286925,2.36994391357112,0.4337041749929138,0.2996148133232295,2.3709289172124217,0.9759466406591275,0.2991830110272148,1.7163504864839085,0.852159062109979,0.30020385399226196,0.7732983613448565,0,-0.5,2.2,0.1505842917243781,-0.6910065596697561,-0.15058429172437815,0.6907667310062802,0.0,0.43000000000000027,0.0,0.0,0.0,0.43000000000000027,0.0,0.0,0.0,0.43000000000000027,0.0,0.0
-0.05,0.3,0.47400000000000014,-0.795944941091348,0.300594016069671,0.8815117078135727,-0.9570189082219862,0.3007222836127705,1.7161105100294851,-0.41629498477432736,0.30029169057286925,2.37194391357112,0.4337041749929138,0.2996148133232295,2.3729289172124215,0.9759466406591275,0.2991830110272148,1.7183504864839083,0.852159062109979,0.30020385399226196,0.7752983613448563,0,-0.5,2.2,0.1505842917243781,-0.6910065596697561,-0.15058429172437815,0.6907667310062802,0.0,0.4350000000000003,0.0,0.0,0.0,0.4350000000000003,0.0,0.0,0.0,0.4350000000000003,0.0,0.0
-0.05,0.3,0.47600000000000015,-0.795944941091348,0.300594016069671,0.8835117078135727,-0.9570189082219862,0.3007222836127705,1.7181105100294851,-0.41629498477432736,0.30029169057286925,2.37394391357112,0.4337041749929138,0.2996148133232295,2.3749289172124213,0.9759466406591275,0.2991830110272148,1.720350486483908,0.852159062109979,0.30020385399226196,0.7772983613448561,0,-0.5,2.2,0.1505842917243781,-0.6910065596697561,-0.15058429172437815,0.6907667310062802,0.0,0.4400000000000003,0.0,0.0,0.0,0.4400000000000003,0.0,0.0,0.0,0.4400000000000003,0.0,0.0
-0.05,0.3,0.47800000000000015,-0.795944941091348,0.300594016069671,0.8855117078135727,-0.9570189082219862,0.3007222836127705,1.7201105100294851,-0.41629498477432736,0.30029169057286925,2.37594391357112,0.4337041749929138,0.2996148133232295,2.3769289172124215,0.9759466406591275,0.2991830110272148,1.7223504864839083,0.852159062109979,0.30020385399226196,0.7792983613448563,0,-0.5,2.2,0.1505842917243781,-0.6910065596697561,-0.15058429172437815,0.6907667310062802,0.0,0.4450000000000003,0.0,0.0,0.0,0.4450000000000003,0.0,0.0,0.0,0.4450000000000003,0.0,0.0
-0.05,0.3,0.48000000000000015,-0.795944941091348,0.300594016069671,0.8875117078135727,-0.9570189082219862,0.3007222836127705,1.7221105100294851,-0.41629498477432736,0.30029169057286925,2.3779439135711202,0.4337041749929138,0.2996148133232295,2.3789289172124217,0.9759466406591275,0.2991830110272148,1.7243504864839085,0.852159062109979,0.30020385399226196,0.7812983613448565,0,-0.5,2.2,0.1505842917243781,-0.6910065596697561,-0.15058429172437815,0.6907667310062802,0.0,0.4500000000000003,0.0,0.0,0.0,0.4500000000000003,0.0,0.0,0.0,0.4500000000000003,0.0,0.0
-0.05,0.3,0.48200000000000015,-0.795944941091348,0.300594016069671,0.8895117078135727,-0.9570189082219862,0.3007222836127705,1.7241105100294851,-0.41629498477432736,0.30029169057286925,2.37994391357112,0.4337041749929138,0.2996148133232295,2.3809289172124215,0.9759466406591275,0.2991830110272148,1.7263504864839083,0.852159062109979,0.30020385399226196,0.7832983613448563,0,-0.5,2.2,0.1505842917243781,-0.6910065596697561,-0.15058429172437815,0.6907667310062802,0.0,0.4550000000000003,0.0,0.0,0.0,0.4550000000000003,0.0,0.0,0.0,0.4550000000000003,0.0,0.0
-0.05,0.3,0.48400000000000015,-0.795944941091348,0.300594016069671,0.8915117078135727,-0.9570189082219862,0.3007222836127705,1.7261105100294851,-0.41629498477432736,0.30029169057286925,2.38194391357112,0.4337041749929138,0.2996148133232295,2.3829289172124213,0.9759466406591275,0.2991830110272148,1.728350486483908,0.852159062109979,0.30020385399226196,0.7852983613448561,0,-0.5,2.2,0.1505842917243781,-0.6910065596697561,-0.15058429172437815,0.6907667310062802,0.0,0.4600000000000003,0.0,0.0,0.0,0.4600000000000003,0.0,0.0,0.0,0.4600000000000003,0.0,0.0
-0.05,0.3,0.48600000000000015,-0.795944941091348,0.300594016069671,0.8935117078135727,-0.9570189082219862,0.3007222836127705,1.7281105100294851,-0.41629498477432736,0.30029169057286925,2.38394391357112,0.4337041749929138,0.2996148133232295,2.3849289172124215,0.9759466406591275,0.2991830110272148,1.7303504864839083,0.852159062109979,0.30020385399226196,0.7872983613448563,0,-0.5,2.2,0.1505842917243781,-0.6910065596697561,-0.15058429172437815,0.6907667310062802,0.0,0.4650000000000003,0.0,0.0,0.0,0.4650000000000003,0.0,0.0,0.0,0.4650000000000003,0.0,0.0
-0.05,0.3,0.48800000000000016,-0.795944941091348,0.300594016069671,0.8955117078135727,-0.9570189082219862,0.3007222836127705,1.7301105100294851,-0.41629498477432736,0.30029169057286925,2.3859439135711202,0.4337041749929138,0.2996148133232295,2.3869289172124217,0.9759466406591275,0.2991830110272148,1.7323504864839085,0.852159062109979,0.30020385399226196,0.7892983613448565,0,-0.5,2.2,0.1505842917243781,-0.6910065596697561,-0.15058429172437815,0.6907667310062802,0.0,0.4700000000000003,0.0,0.0,0.0,0.4700000000000003,0.0,0.0,0.0,0.4700000000000003,0.0,0.0
-0.05,0.3,0.49000000000000016,-0.795944941091348,0.300594016069671,0.8975117078135727,-0.9570189082219862,0.3007222836127705,1.7321105100294851,-0.41629498477432736,0.30029169057286925,2.38794391357112,0.4337041749929138,0.2996148133232295,2.3889289172124215,0.9759466406591275,0.2991830110272148,1.7343504864839083,0.852159062109979,0.30020385399226196,0.7912983613448563,0,-0.5,2.2,0.1505842917243781,-0.6910065596697561,-0.15058429172437815,0.6907667310062802,0.0,0.4750000000000003,0.0,0.0,0.0,0.4750000000000003,0.0,0.0,0.0,0.4750000000000003,0.0,0.0
-0.05,0.3,0.49200000000000016,-0.795944941091348,0.300594016069671,0.8995117078135727,-0.9570189082219862,0.3007222836127705,1.7341105100294851,-0.41629498477432736,0.30029169057286925,2.38994391357112,0.4337041749929138,0.2996148133232295,2.3909289172124213,0.9759466406591275,0.2991830110272148,1.736350486483908,0.852159062109979,0.30020385399226196,0.7932983613448561,0,-0.5,2.2,0.1505842917243781,-0.6910065596697561,-0.15058429172437815,0.6907667310062802,0.0,0.4800000000000003,0.0,0.0,0.0,0.4800000000000003,0.0,0.0,0.0,0.4800000000000003,0.0,0.0
-0.05,0.3,0.49400000000000016,-0.795944941091348,0.300594016069671,0.9015117078135727,-0.9570189082219862,0.3007222836127705,1.7361105100294851,-0.41629498477432736,0.30029169057286925,2.39194391357112,0.4337041749929138,0.2996148133232295,2.3929289172124215,0.9759466406591275,0.2991830110272148,1.7383504864839083,0.852159062109979,0.30020385399226196,0.7952983613448563,0,-0.5,2.2,0.1505842917243781,-0.6910065596697561,-0.15058429172437815,0.6907667310062802,0.0,0.4850000000000003,0.0,0.0,0.0,0.4850000000000003,0.0,0.0,0.0,0.4850000000000003,0.0,0.0
-0.05,0.3,0.49600000000000016,-0.795944941091348,0.300594016069671,0.9035117078135727,-0.9570189082219862,0.3007222836127705,1.7381105100294851,-0.41629498477432736,0.30029169057286925,2.3939439135711202,0.4337041749929138,0.2996148133232295,2.3949289172124217,0.9759466406591275,0.2991830110272148,1.7403504864839086,0.852159062109979,0.30020385399226196,0.7972983613448565,0,-0.5,2.2,0.1505842917243781,-0.6910065596697561,-0.15058429172437815,0.6907667310062802,0.0,0.4900000000000003,0.0,0.0,0.0,0.4900000000000003,0.0,0.0,0.0,0.4900000000000003,0.0,0.0
-0.05,0.3,0.49800000000000016,-0.795944941091348,0.300594016069671,0.9055117078135727,-0.9570189082219862,0.3007222836127705,1.7401105100294851,-0.41629498477432736,0.30029169057286925,2.39594391357112,0.4337041749929138,0.2996148133232295,2.3969289172124215,0.9759466406591275,0.2991830110272148,1.7423504864839083,0.852159062109979,0.30020385399226196,0.7992983613448563,0,-0.5,2.2,0.1505842917243781,-0.6910065596697561,-0.15058429172437815,0.6907667310062802,0.0,0.49500000000000033,0.0,0.0,0.0,0.49500000000000033,0.0,0.0,0.0,0.49500000000000033,0.0,0.0
-0.05,0.3,0.5000000000000001,-0.795944941091348,0.300594016069671,0.9075117078135726,-0.9570189082219862,0.3007222836127705,1.7421105100294851,-0.41629498477432736,0.30029169057286925,2.39794391357112,0.4337041749929138,0.2996148133232295,2.3989289172124213,0.9759466406591275,0.2991830110272148,1.7443504864839081,0.852159062109979,0.30020385399226196,0.8012983613448561,0,-0.5,2.2,0.1505842917243781,-0.6910065596697561,-0.15058429172437815,0.6907667310062802,0.0,0.5000000000000003,0.0,0.0,0.0,0.5000000000000003,0.0,0.0,0.0,0.5000000000000003,0.0,0.0
-0.05,0.3,0.5020000000000001,-0.795944941091348,0.300594016069671,0.9095117078135726,-0.9570189082219862,0.3007222836127705,1.744110510029485,-0.41629498477432736,0.30029169057286925,2.3999439135711196,0.4337041749929138,0.2996148133232295,2.400928917212421,0.9759466406591275,0.2991830110272148,1.746350486483908,0.8521590621099792,0.30020385399226196,0.803298361344856,0,-0.5,2.2,0.1505842917243781,-0.6910065596697561,-0.15058429172437815,0.6907667310062802,0.0,0.5050000000000003,0.0,0.0,0.0,0.5050000000000003,0.0,0.0,0.0,0.5050000000000003,0.0,0.0
-0.05,0.3,0.5040000000000001,-0.795944941091348,0.300594016069671,0.9115117078135726,-0.9570189082219862,0.3007222836127705,1.7461105100294851,-0.41629498477432736,0.30029169057286925,2.4019439135711202,0.4337041749929138,0.2996148133232295,2.4029289172124217,0.9759466406591275,0.2991830110272148,1.7483504864839086,0.852159062109979,0.30020385399226196,0.8052983613448566,0,-0.5,2.2,0.1505842917243781,-0.6910065596697561,-0.15058429172437815,0.6907667310062802,0.0,0.5100000000000003,0.0,0.0,0.0,0.5100000000000003,0.0,0.0,0.0,0.5100000000000003,0.0,0.0
-0.05,0.3,0.5060000000000001,-0.795944941091348,0.300594016069671,0.9135117078135726,-0.9570189082219862,0.3007222836127705,1.748110510029485,-0.41629498477432736,0.30029169057286925,2.40394391357112,0.4337041749929138,0.2996148133232295,2.4049289172124215,0.9759466406591275,0.2991830110272148,1.7503504864839083,0.852159062109979,0.30020385399226196,0.8072983613448563,0,-0.5,2.2,0.1505842917243781,-0.6910065596697561,-0.15058429172437815,0.6907667310062802,0.0,0.5150000000000003,0.0,0.0,0.0,0.5150000000000003,0.0,0.0,0.0,0.5150000000000003,0.0,0.0
-0.05,0.3,0.5080000000000001,-0.795944941091348,0.300594016069671,0.9155117078135726,-0.9570189082219862,0.3007222836127705,1.7501105100294851,-0.41629498477432736,0.30029169057286925,2.40594391357112,0.4337041749929138,0.2996148133232295,2.4069289172124213,0.9759466406591275,0.2991830110272148,1.7523504864839081,0.852159062109979,0.30020385399226196,0.8092983613448561,0,-0.5,2.2,0.1505842917243781,-0.6910065596697561,-0.15058429172437815,0.6907667310062802,0.0,0.5200000000000004,0.0,0.0,0.0,0.5200000000000004,0.0,0.0,0.0,0.5200000000000004,0.0,0.0
-0.05,0.3,0.5100000000000001,-0.795944941091348,0.300594016069671,0.9175117078135726,-0.9570189082219862,0.3007222836127705,1.752110510029485,-0.41629498477432736,0.30029169057286925,2.4079439135711196,0.4337041749929138,0.2996148133232295,2.408928917212421,0.9759466406591275,0.2991830110272148,1.754350486483908,0.8521590621099792,0.30020385399226196,0.811298361344856,0,-0.5,2.2,0.1505842917243781,-0.6910065596697561,-0.15058429172437815,0.6907667310062802,0.0,0.5250000000000004,0.0,0.0,0.0,0.5250000000000004,0.0,0.0,0.0,0.5250000000000004,0.0,0.0
-0.05,0.3,0.5120000000000001,-0.795944941091348,0.300594016069671,0.9195117078135726,-0.9570189082219862,0.3007222836127705,1.7541105100294851,-0.41629498477432736,0.30029169057286925,2.4099439135711203,0.4337041749929138,0.2996148133232295,2.4109289172124218,0.9759466406591275,0.2991830110272148,1.7563504864839086,0.852159062109979,0.30020385399226196,0.8132983613448566,0,-0.5,2.2,0.1505842917243781,-0.6910065596697561,-0.15058429172437815,0.6907667310062802,0.0,0.5300000000000004,0.0,0.0,0.0,0.5300000000000004,0.0,0.0,0.0,0.5300000000000004,0.0,0.0
-0.05,0.3,0.5140000000000001,-0.795944941091348,0.300594016069671,0.9215117078135726,-0.9570189082219862,0.3007222836127705,1.756110510029485,-0.41629498477432736,0.30029169057286925,2.41194391357112,0.4337041749929138,0.2996148133232295,2.4129289172124215,0.9759466406591275,0.2991830110272148,1.7583504864839083,0.852159062109979,0.30020385399226196,0.8152983613448563,0,-0.5,2.2,0.1505842917243781,-0.6910065596697561,-0.15058429172437815,0.6907667310062802,0.0,0.5350000000000004,0.0,0.0,0.0,0.5350000000000004,0.0,0.0,0.0,0.5350000000000004,0.0,0.0
-0.05,0.3,0.5160000000000001,-0.795944941091348,0.300594016069671,0.9235117078135726,-0.9570189082219862,0.3007222836127705,1.7581105100294852,-0.41629498477432736,0.30029169057286925,2.41394391357112,0.4337041749929138,0.2996148133232295,2.4149289172124213,0.9759466406591275,0.2991830110272148,1.7603504864839081,0.852159062109979,0.30020385399226196,0.8172983613448561,0,-0.5,2.2,0.1505842917243781,-0.6910065596697561,-0.15058429172437815,0.6907667310062802,0.0,0.5400000000000004,0.0,0.0,0.0,0.5400000000000004,0.0,0.0,0.0,0.5400000000000004,0.0,0.0
-0.05,0.3,0.5180000000000001,-0.795944941091348,0.300594016069671,0.9255117078135726,-0.9570189082219862,0.3007222836127705,1.760110510029485,-0.41629498477432736,0.30029169057286925,2.4159439135711196,0.4337041749929138,0.2996148133232295,2.416928917212421,0.9759466406591275,0.2991830110272148,1.762350486483908,0.8521590621099792,0.30020385399226196,0.819298361344856,0,-0.5,2.2,0.1505842917243781,-0.6910065596697561,-0.15058429172437815,0.6907667310062802,0.0,0.5450000000000004,0.0,0.0,0.0,0.5450000000000004,0.0,0.0,0.0,0.5450000000000004,0.0,0.0
-0.05,0.3,0.5200000000000001,-0.795944941091348,0.300594016069671,0.9275117078135726,-0.9570189082219862,0.3007222836127705,1.7621105100294852,-0.41629498477432736,0.30029169057286925,2.4179439135711203,0.4337041749929138,0.2996148133232295,2.4189289172124218,0.9759466406591275,0.2991830110272148,1.7643504864839086,0.852159062109979,0.30020385399226196,0.8212983613448566,0,-0.5,2.2,0.1505842917243781,-0.6910065596697561,-0.15058429172437815,0.6907667310062802,0.0,0.5500000000000004,0.0,0.0,0.0,0.5500000000000004,0.0,0.0,0.0,0.5500000000000004,0.0,0.0
-0.05,0.3,0.5220000000000001,-0.795944941091348,0.300594016069671,0.9295117078135726,-0.9570189082219862,0.3007222836127705,1.764110510029485,-0.41629498477432736,0.30029169057286925,2.41994391357112,0.4337041749929138,0.2996148133232295,2.4209289172124215,0.9759466406591275,0.2991830110272148,1.7663504864839084,0.852159062109979,0.30020385399226196,0.8232983613448563,0,-0.5,2.2,0.1505842917243781,-0.6910065596697561,-0.15058429172437815,0.6907667310062802,0.0,0.5550000000000004,0.0,0.0,0.0,0.5550000000000004,0.0,0.0,0.0,0.5550000000000004,0.0,0.0
-0.05,0.3,0.5240000000000001,-0.795944941091348,0.300594016069671,0.9315117078135726,-0.9570189082219862,0.3007222836127705,1.7661105100294852,-0.41629498477432736,0.30029169057286925,2.42194391357112,0.4337041749929138,0.2996148133232295,2.4229289172124213,0.9759466406591275,0.2991830110272148,1.7683504864839081,0.852159062109979,0.30020385399226196,0.8252983613448561,0,-0.5,2.2,0.1505842917243781,-0.6910065596697561,-0.15058429172437815,0.6907667310062802,0.0,0.5600000000000004,0.0,0.0,0.0,0.5600000000000004,0.0,0.0,0.0,0.5600000000000004,0.0,0.0
-0.05,0.3,0.5260000000000001,-0.795944941091348,0.300594016069671,0.9335117078135726,-0.9570189082219862,0.3007222836127705,1.768110510029485,-0.41629498477432736,0.30029169057286925,2.4239439135711196,0.4337041749929138,0.2996148133232295,2.424928917212421,0.9759466406591275,0.2991830110272148,1.770350486483908,0.8521590621099792,0.30020385399226196,0.827298361344856,0,-0.5,2.2,0.1505842917243781,-0.6910065596697561,-0.15058429172437815,0.6907667310062802,0.0,0.5650000000000004,0.0,0.0,0.0,0.5650000000000004,0.0,0.0,0.0,0.5650000000000004,0.0,0.0
-0.05,0.3,0.5280000000000001,-0.795944941091348,0.300594016069671,0.9355117078135726,-0.9570189082219862,0.3007222836127705,1.7701105100294852,-0.41629498477432736,0.30029169057286925,2.4259439135711203,0.4337041749929138,0.2996148133232295,2.4269289172124218,0.9759466406591275,0.2991830110272148,1.7723504864839086,0.852159062109979,0.30020385399226196,0.8292983613448566,0,-0.5,2.2,0.1505842917243781,-0.6910065596697561,-0.15058429172437815,0.6907667310062802,0.0,0.5700000000000004,0.0,0.0,0.0,0.5700000000000004,0.0,0.0,0.0,0.5700000000000004,0.0,0.0
-0.05,0.3,0.5300000000000001,-0.795944941091348,0.300594016069671,0.9375117078135726,-0.9570189082219862,0.3007222836127705,1.772110510029485,-0.41629498477432736,0.30029169057286925,2.42794391357112,0.4337041749929138,0.2996148133232295,2.4289289172124215,0.9759466406591275,0.2991830110272148,1.7743504864839084,0.852159062109979,0.30020385399226196,0.8312983613448564,0,-0.5,2.2,0.1505842917243781,-0.6910065596697561,-0.15058429172437815,0.6907667310062802,0.0,0.5750000000000004,0.0,0.0,0.0,0.5750000000000004,0.0,0.0,0.0,0.5750000000000004,0.0,0.0
-0.05,0.3,0.5320000000000001,-0.795944941091348,0.300594016069671,0.9395117078135726,-0.9570189082219862,0.3007222836127705,1.7741105100294852,-0.41629498477432736,0.30029169057286925,2.42994391357112,0.4337041749929138,0.2996148133232295,2.4309289172124213,0.9759466406591275,0.2991830110272148,1.7763504864839081,0.852159062109979,0.30020385399226196,0.8332983613448561,0,-0.5,2.2,0.1505842917243781,-0.6910065596697561,-0.15058429172437815,0.6907667310062802,0.0,0.5800000000000004,0.0,0.0,0.0,0.5800000000000004,0.0,0.0,0.0,0.5800000000000004,0.0,0.0
-0.05,0.3,0.5340000000000001,-0.795944941091348,0.300594016069671,0.9415117078135726,-0.9570189082219862,0.3007222836127705,1.776110510029485,-0.41629498477432736,0.30029169057286925,2.4319439135711196,0.4337041749929138,0.2996148133232295,2.432928917212421,0.9759466406591275,0.2991830110272148,1.778350486483908,0.8521590621099792,0.30020385399226196,0.835298361344856,0,-0.5,2.2,0.1505842917243781,-0.6910065596697561,-0.15058429172437815,0.6907667310062802,0.0,0.5850000000000004,0.0,0.0,0.0,0.5850000000000004,0.0,0.0,0.0,0.5850000000000004,0.0,0.0
-0.05,0.3,0.5360000000000001,-0.795944941091348,0.300594016069671,0.9435117078135726,-0.9570189082219862,0.3007222836127705,1.7781105100294852,-0.41629498477432736,0.30029169057286925,2.4339439135711203,0.4337041749929138,0.2996148133232295,2.4349289172124218,0.9759466406591275,0.2991830110272148,1.7803504864839086,0.852159062109979,0.30020385399226196,0.8372983613448566,0,-0.5,2.2,0.1505842917243781,-0.6910065596697561,-0.15058429172437815,0.6907667310062802,0.0,0.5900000000000004,0.0,0.0,0.0,0.5900000000000004,0.0,0.0,0.0,0.5900000000000004,0.0,0.0
-0.05,0.3,0.5380000000000001,-0.795944941091348,0.300594016069671,0.9455117078135726,-0.9570189082219862,0.3007222836127705,1.780110510029485,-0.41629498477432736,0.30029169057286925,2.43594391357112,0.4337041749929138,0.2996148133232295,2.4369289172124216,0.9759466406591275,0.2991830110272148,1.7823504864839084,0.852159062109979,0.30020385399226196,0.8392983613448564,0,-0.5,2.2,0.1505842917243781,-0.6910065596697561,-0.15058429172437815,0.6907667310062802,0.0,0.5950000000000004,0.0,0.0,0.0,0.5950000000000004,0.0,0.0,0.0,0.5950000000000004,0.0,0.0
-0.05,0.3,0.5400000000000001,-0.795944941091348,0.300594016069671,0.9475117078135726,-0.9570189082219862,0.3007222836127705,1.7821105100294852,-0.41629498477432736,0.30029169057286925,2.43794391357112,0.4337041749929138,0.2996148133232295,2.4389289172124213,0.9759466406591275,0.2991830110272148,1.7843504864839081,0.852159062109979,0.30020385399226196,0.8412983613448561,0,-0.5,2.2,0.1505842917243781,-0.6910065596697561,-0.15058429172437815,0.6907667310062802,0.0,0.6000000000000004,0.0,0.0,0.0,0.6000000000000004,0.0,0.0,0.0,0.6000000000000004,0.0,0.0
-0.05,0.3,0.5420000000000001,-0.795944941091348,0.300594016069671,0.9495117078135726,-0.9570189082219862,0.3007222836127705,1.784110510029485,-0.41629498477432736,0.30029169057286925,2.4399439135711196,0.4337041749929138,0.2996148133232295,2.440928917212421,0.9759466406591275,0.2991830110272148,1.786350486483908,0.8521590621099792,0.30020385399226196,0.843298361344856,0,-0.5,2.2,0.1505842917243781,-0.6910065596697561,-0.15058429172437815,0.6907667310062802,0.0,0.6050000000000004,0.0,0.0,0.0,0.6050000000000004,0.0,0.0,0.0,0.6050000000000004,0.0,0.0
-0.05,0.3,0.5440000000000002,-0.795944941091348,0.300594016069671,0.9515117078135726,-0.9570189082219862,0.3007222836127705,1.7861105100294852,-0.41629498477432736,0.30029169057286925,2.4419439135711203,0.4337041749929138,0.2996148133232295,2.442928917212422,0.9759466406591275,0.2991830110272148,1.7883504864839086,0.852159062109979,0.30020385399226196,0.8452983613448566,0,-0.5,2.2,0.1505842917243781,-0.6910065596697561,-0.15058429172437815,0.6907667310062802,0.0,0.6100000000000004,0.0,0.0,0.0,0.6100000000000004,0.0,0.0,0.0,0.6100000000000004,0.0,0.0
-0.05,0.3,0.5460000000000002,-0.795944941091348,0.300594016069671,0.9535117078135726,-0.9570189082219862,0.3007222836127705,1.788110510029485,-0.41629498477432736,0.30029169057286925,2.44394391357112,0.4337041749929138,0.2996148133232295,2.4449289172124216,0.9759466406591275,0.2991830110272148,1.7903504864839084,0.852159062109979,0.30020385399226196,0.8472983613448564,0,-0.5,2.2,0.1505842917243781,-0.6910065596697561,-0.15058429172437815,0.6907667310062802,0.0,0.6150000000000004,0.0,0.0,0.0,0.6150000000000004,0.0,0.0,0.0,0.6150000000000004,0.0,0.0
-0.05,0.3,0.5480000000000002,-0.795944941091348,0.300594016069671,0.9555117078135726,-0.9570189082219862,0.3007222836127705,1.7901105100294852,-0.41629498477432736,0.30029169057286925,2.44594391357112,0.4337041749929138,0.2996148133232295,2.4469289172124213,0.9759466406591275,0.2991830110272148,1.7923504864839082,0.852159062109979,0.30020385399226196,0.8492983613448561,0,-0.5,2.2,0.1505842917243781,-0.6910065596697561,-0.15058429172437815,0.6907667310062802,0.0,0.6200000000000004,0.0,0.0,0.0,0.6200000000000004,0.0,0.0,0.0,0.6200000000000004,0.0,0.0
-0.05,0.3,0.5500000000000002,-0.795944941091348,0.300594016069671,0.9575117078135726,-0.9570189082219862,0.3007222836127705,1.792110510029485,-0.41629498477432736,0.30029169057286925,2.4479439135711196,0.4337041749929138,0.2996148133232295,2.448928917212421,0.9759466406591275,0.2991830110272148,1.794350486483908,0.8521590621099792,0.30020385399226196,0.851298361344856,0,-0.5,2.2,0.1505842917243781,-0.6910065596697561,-0.15058429172437815,0.6907667310062802,0.0,0.6250000000000004,0.0,0.0,0.0,0.6250000000000004,0.0,0.0,0.0,0.6250000000000004,0.0,0.0
-0.05,0.3,0.5520000000000002,-0.795944941091348,0.300594016069671,0.9595117078135726,-0.9570189082219862,0.3007222836127705,1.7941105100294852,-0.41629498477432736,0.30029169057286925,2.4499439135711203,0.4337041749929138,0.2996148133232295,2.450928917212422,0.9759466406591275,0.2991830110272148,1.7963504864839086,0.852159062109979,0.30020385399226196,0.8532983613448566,0,-0.5,2.2,0.1505842917243781,-0.6910065596697561,-0.15058429172437815,0.6907667310062802,0.0,0.6300000000000004,0.0,0.0,0.0,0.6300000000000004,0.0,0.0,0.0,0.6300000000000004,0.0,0.0
-0.05,0.3,0.5540000000000002,-0.795944941091348,0.300594016069671,0.9615117078135726,-0.9570189082219862,0.3007222836127705,1.796110510029485,-0.41629498477432736,0.30029169057286925,2.45194391357112,0.4337041749929138,0.2996148133232295,2.4529289172124216,0.9759466406591275,0.2991830110272148,1.7983504864839084,0.852159062109979,0.30020385399226196,0.8552983613448564,0,-0.5,2.2,0.1505842917243781,-0.6910065596697561,-0.15058429172437815,0.6907667310062802,0.0,0.6350000000000005,0.0,0.0,0.0,0.6350000000000005,0.0,0.0,0.0,0.6350000000000005,0.0,0.0
-0.05,0.3,0.5560000000000002,-0.795944941091348,0.300594016069671,0.9635117078135726,-0.9570189082219862,0.3007222836127705,1.7981105100294852,-0.41629498477432736,0.30029169057286925,2.45394391357112,0.4337041749929138,0.2996148133232295,2.4549289172124213,0.9759466406591275,0.2991830110272148,1.8003504864839082,0.852159062109979,0.30020385399226196,0.8572983613448562,0,-0.5,2.2,0.1505842917243781,-0.6910065596697561,-0.15058429172437815,0.6907667310062802,0.0,0.6400000000000005,0.0,0.0,0.0,0.6400000000000005,0.0,0.0,0.0,0.6400000000000005,0.0,0.0
-0.05,0.3,0.5580000000000002,-0.795944941091348,0.300594016069671,0.9655117078135727,-0.9570189082219862,0.3007222836127705,1.800110510029485,-0.41629498477432736,0.30029169057286925,2.4559439135711196,0.4337041749929138,0.2996148133232295,2.456928917212421,0.9759466406591275,0.2991830110272148,1.802350486483908,0.8521590621099792,0.30020385399226196,0.859298361344856,0,-0.5,2.2,0.1505842917243781,-0.6910065596697561,-0.15058429172437815,0.6907667310062802,0.0,0.6450000000000005,0.0,0.0,0.0,0.6450000000000005,0.0,0.0,0.0,0.6450000000000005,0.0,0.0
-0.05,0.3,0.5600000000000002,-0.795944941091348,0.300594016069671,0.9675117078135727,-0.9570189082219862,0.3007222836127705,1.8021105100294852,-0.41629498477432736,0.30029169057286925,2.4579439135711203,0.4337041749929138,0.2996148133232295,2.458928917212422,0.9759466406591275,0.2991830110272148,1.8043504864839086,0.852159062109979,0.30020385399226196,0.8612983613448566,0,-0.5,2.2,0.1505842917243781,-0.6910065596697561,-0.15058429172437815,0.6907667310062802,0.0,0.6500000000000005,0.0,0.0,0.0,0.6500000000000005,0.0,0.0,0.0,0.6500000000000005,0.0,0.0
-0.05,0.3,0.5620000000000002,-0.795944941091348,0.300594016069671,0.9695117078135727,-0.9570189082219862,0.3007222836127705,1.804110510029485,-0.41629498477432736,0.30029169057286925,2.45994391357112,0.4337041749929138,0.2996148133232295,2.4609289172124216,0.9759466406591275,0.2991830110272148,1.8063504864839084,0.852159062109979,0.30020385399226196,0.8632983613448564,0,-0.5,2.2,0.1505842917243781,-0.6910065596697561,-0.15058429172437815,0.6907667310062802,0.0,0.6550000000000005,0.0,0.0,0.0,0.6550000000000005,0.0,0.0,0.0,0.6550000000000005,0.0,0.0
-0.05,0.3,0.5640000000000002,-0.795944941091348,0.300594016069671,0.9715117078135727,-0.9570189082219862,0.3007222836127705,1.8061105100294852,-0.41629498477432736,0.30029169057286925,2.46194391357112,0.4337041749929138,0.2996148133232295,2.4629289172124214,0.9759466406591275,0.2991830110272148,1.8083504864839082,0.852159062109979,0.30020385399226196,0.8652983613448562,0,-0.5,2.2,0.1505842917243781,-0.6910065596697561,-0.15058429172437815,0.6907667310062802,0.0,0.6600000000000005,0.0,0.0,0.0,0.6600000000000005,0.0,0.0,0.0,0.6600000000000005,0.0,0.0
-0.05,0.3,0.5660000000000002,-0.795944941091348,0.300594016069671,0.9735117078135727,-0.9570189082219862,0.3007222836127705,1.808110510029485,-0.41629498477432736,0.30029169057286925,2.4639439135711196,0.4337041749929138,0.2996148133232295,2.464928917212421,0.9759466406591275,0.2991830110272148,1.810350486483908,0.8521590621099792,0.30020385399226196,0.867298361344856,0,-0.5,2.2,0.1505842917243781,-0.6910065596697561,-0.15058429172437815,0.6907667310062802,0.0,0.6650000000000005,0.0,0.0,0.0,0.6650000000000005,0.0,0.0,0.0,0.6650000000000005,0.0,0.0
-0.05,0.3,0.5680000000000002,-0.795944941091348,0.300594016069671,0.9755117078135727,-0.9570189082219862,0.3007222836127705,1.8101105100294852,-0.41629498477432736,0.30029169057286925,2.4659439135711203,0.4337041749929138,0.2996148133232295,2.466928917212422,0.9759466406591275,0.2991830110272148,1.8123504864839086,0.852159062109979,0.30020385399226196,0.8692983613448566,0,-0.5,2.2,0.1505842917243781,-0.6910065596697561,-0.15058429172437815,0.6907667310062802,0.0,0.6700000000000005,0.0,0.0,0.0,0.6700000000000005,0.0,0.0,0.0,0.6700000000000005,0.0,0.0
-0.05,0.3,0.5700000000000002,-0.795944941091348,0.300594016069671,0.9775117078135727,-0.9570189082219862,0.3007222836127705,1.812110510029485,-0.41629498477432736,0.30029169057286925,2.46794391357112,0.4337041749929138,0.2996148133232295,2.4689289172124216,0.9759466406591275,0.2991830110272148,1.8143504864839084,0.852159062109979,0.30020385399226196,0.8712983613448564,0,-0.5,2.2,0.1505842917243781,-0.6910065596697561,-0.15058429172437815,0.6907667310062802,0.0,0.6750000000000005,0.0,0.0,0.0,0.6750000000000005,0.0,0.0,0.0,0.6750000000000005,0.0,0.0
-0.05,0.3,0.5720000000000002,-0.795944941091348,0.300594016069671,0.9795117078135727,-0.9570189082219862,0.3007222836127705,1.8141105100294852,-0.41629498477432736,0.30029169057286925,2.46994391357112,0.4337041749929138,0.2996148133232295,2.4709289172124214,0.9759466406591275,0.2991830110272148,1.8163504864839082,0.852159062109979,0.30020385399226196,0.8732983613448562,0,-0.5,2.2,0.1505842917243781,-0.6910065596697561,-0.15058429172437815,0.6907667310062802,0.0,0.6800000000000005,0.0,0.0,0.0,0.6800000000000005,0.0,0.0,0.0,0.6800000000000005,0.0,0.0
-0.05,0.3,0.5740000000000002,-0.795944941091348,0.300594016069671,0.9815117078135727,-0.9570189082219862,0.3007222836127705,1.816110510029485,-0.41629498477432736,0.30029169057286925,2.4719439135711196,0.4337041749929138,0.2996148133232295,2.472928917212421,0.9759466406591275,0.2991830110272148,1.818350486483908,0.8521590621099792,0.30020385399226196,0.8752983613448561,0,-0.5,2.2,0.1505842917243781,-0.6910065596697561,-0.15058429172437815,0.6907667310062802,0.0,0.6850000000000005,0.0,0.0,0.0,0.6850000000000005,0.0,0.0,0.0,0.6850000000000005,0.0,0.0
-0.05,0.3,0.5760000000000002,-0.795944941091348,0.300594016069671,0.9835117078135727,-0.9570189082219862,0.3007222836127705,1.8181105100294852,-0.41629498477432736,0.30029169057286925,2.4739439135711203,0.4337041749929138,0.2996148133232295,2.474928917212422,0.9759466406591275,0.2991830110272148,1.8203504864839086,0.852159062109979,0.30020385399226196,0.8772983613448566,0,-0.5,2.2,0.1505842917243781,-0.6910065596697561,-0.15058429172437815,0.6907667310062802,0.0,0.6900000000000005,0.0,0.0,0.0,0.6900000000000005,0.0,0.0,0.0,0.6900000000000005,0.0,0.0
-0.05,0.3,0.5780000000000002,-0.795944941091348,0.300594016069671,0.9855117078135727,-0.9570189082219862,0.3007222836127705,1.820110510029485,-0.41629498477432736,0.30029169057286925,2.47594391357112,0.4337041749929138,0.2996148133232295,2.4769289172124216,0.9759466406591275,0.2991830110272148,1.8223504864839084,0.852159062109979,0.30020385399226196,0.8792983613448564,0,-0.5,2.2,0.1505842917243781,-0.6910065596697561,-0.15058429172437815,0.6907667310062802,0.0,0.6950000000000005,0.0,0.0,0.0,0.6950000000000005,0.0,0.0,0.0,0.6950000000000005,0.0,0.0
-0.05,0.3,0.5800000000000002,-0.795944941091348,0.300594016069671,0.9875117078135727,-0.9570189082219862,0.3007222836127705,1.8221105100294852,-0.41629498477432736,0.30029169057286925,2.47794391357112,0.4337041749929138,0.2996148133232295,2.4789289172124214,0.9759466406591275,0.2991830110272148,1.8243504864839082,0.852159062109979,0.30020385399226196,0.8812983613448562,0,-0.5,2.2,0.1505842917243781,-0.6910065596697561,-0.15058429172437815,0.6907667310062802,0.0,0.7000000000000005,0.0,0.0,0.0,0.7000000000000005,0.0,0.0,0.0,0.7000000000000005,0.0,0.0
-0.05,0.3,0.5820000000000002,-0.795944941091348,0.300594016069671,0.9895117078135727,-0.9570189082219862,0.3007222836127705,1.824110510029485,-0.41629498477432736,0.30029169057286925,2.4799439135711197,0.4337041749929138,0.2996148133232295,2.480928917212421,0.9759466406591275,0.2991830110272148,1.826350486483908,0.8521590621099792,0.30020385399226196,0.8832983613448561,0,-0.5,2.2,0.1505842917243781,-0.6910065596697561,-0.15058429172437815,0.6907667310062802,0.0,0.7050000000000005,0.0,0.0,0.0,0.7050000000000005,0.0,0.0,0.0,0.7050000000000005,0.0,0.0
-0.05,0.3,0.5840000000000002,-0.795944941091348,0.300594016069671,0.9915117078135727,-0.9570189082219862,0.3007222836127705,1.8261105100294852,-0.41629498477432736,0.30029169057286925,2.4819439135711203,0.4337041749929138,0.2996148133232295,2.482928917212422,0.9759466406591275,0.2991830110272148,1.8283504864839086,0.852159062109979,0.30020385399226196,0.8852983613448566,0,-0.5,2.2,0.1505842917243781,-0.6910065596697561,-0.15058429172437815,0.6907667310062802,0.0,0.7100000000000005,0.0,0.0,0.0,0.7100000000000005,0.0,0.0,0.0,0.7100000000000005,0.0,0.0
-0.05,0.3,0.5860000000000002,-0.795944941091348,0.300594016069671,0.9935117078135727,-0.9570189082219862,0.3007222836127705,1.828110510029485,-0.41629498477432736,0.30029169057286925,2.48394391357112,0.4337041749929138,0.2996148133232295,2.4849289172124216,0.9759466406591275,0.2991830110272148,1.8303504864839084,0.852159062109979,0.30020385399226196,0.8872983613448564,0,-0.5,2.2,0.1505842917243781,-0.6910065596697561,-0.15058429172437815,0.6907667310062802,0.0,0.7150000000000005,0.0,0.0,0.0,0.7150000000000005,0.0,0.0,0.0,0.7150000000000005,0.0,0.0
-0.05,0.3,0.5880000000000002,-0.795944941091348,0.300594016069671,0.9955117078135727,-0.9570189082219862,0.3007222836127705,1.8301105100294852,-0.41629498477432736,0.30029169057286925,2.48594391357112,0.4337041749929138,0.2996148133232295,2.4869289172124214,0.9759466406591275,0.2991830110272148,1.8323504864839082,0.852159062109979,0.30020385399226196,0.8892983613448562,0,-0.5,2.2,0.1505842917243781,-0.6910065596697561,-0.15058429172437815,0.6907667310062802,0.0,0.7200000000000005,0.0,0.0,0.0,0.7200000000000005,0.0,0.0,0.0,0.7200000000000005,0.0,0.0
-0.05,0.3,0.5900000000000002,-0.795944941091348,0.300594016069671,0.9975117078135727,-0.9570189082219862,0.3007222836127705,1.832110510029485,-0.41629498477432736,0.30029169057286925,2.4879439135711197,0.4337041749929138,0.2996148133232295,2.488928917212421,0.9759466406591275,0.2991830110272148,1.834350486483908,0.8521590621099792,0.30020385399226196,0.8912983613448561,0,-0.5,2.2,0.1505842917243781,-0.6910065596697561,-0.15058429172437815,0.6907667310062802,0.0,0.7250000000000005,0.0,0.0,0.0,0.7250000000000005,0.0,0.0,0.0,0.7250000000000005,0.0,0.0
-0.05,0.3,0.5920000000000002,-0.795944941091348,0.300594016069671,0.9995117078135727,-0.9570189082219862,0.3007222836127705,1.8341105100294852,-0.41629498477432736,0.30029169057286925,2.4899439135711203,0.4337041749929138,0.2996148133232295,2.490928917212422,0.9759466406591275,0.2991830110272148,1.8363504864839086,0.852159062109979,0.30020385399226196,0.8932983613448566,0,-0.5,2.2,0.1505842917243781,-0.6910065596697561,-0.15058429172437815,0.6907667310062802,0.0,0.7300000000000005,0.0,0.0,0.0,0.7300000000000005,0.0,0.0,0.0,0.7300000000000005,0.0,0.0
-0.05,0.3,0.5940000000000002,-0.795944941091348,0.300594016069671,1.0015117078135727,-0.9570189082219862,0.3007222836127705,1.836110510029485,-0.41629498477432736,0.30029169057286925,2.49194391357112,0.4337041749929138,0.2996148133232295,2.4929289172124216,0.9759466406591275,0.2991830110272148,1.8383504864839084,0.852159062109979,0.30020385399226196,0.8952983613448564,0,-0.5,2.2,0.1505842917243781,-0.6910065596697561,-0.15058429172437815,0.6907667310062802,0.0,0.7350000000000005,0.0,0.0,0.0,0.7350000000000005,0.0,0.0,0.0,0.7350000000000005,0.0,0.0
-0.05,0.3,0.5960000000000002,-0.795944941091348,0.300594016069671,1.0035117078135727,-0.9570189082219862,0.3007222836127705,1.8381105100294852,-0.41629498477432736,0.30029169057286925,2.49394391357112,0.4337041749929138,0.2996148133232295,2.4949289172124214,0.9759466406591275,0.2991830110272148,1.8403504864839082,0.852159062109979,0.30020385399226196,0.8972983613448562,0,-0.5,2.2,0.1505842917243781,-0.6910065596697561,-0.15058429172437815,0.6907667310062802,0.0,0.7400000000000005,0.0,0.0,0.0,0.7400000000000005,0.0,0.0,0.0,0.7400000000000005,0.0,0.0
-0.05,0.3,0.5980000000000002,-0.795944941091348,0.300594016069671,1.0055117078135727,-0.9570189082219862,0.3007222836127705,1.840110510029485,-0.41629498477432736,0.30029169057286925,2.4959439135711197,0.4337041749929138,0.2996148133232295,2.496928917212421,0.9759466406591275,0.2991830110272148,1.842350486483908,0.8521590621099792,0.30020385399226196,0.8992983613448561,0,-0.5,2.2,0.1505842917243781,-0.6910065596697561,-0.15058429172437815,0.6907667310062802,0.0,0.7450000000000006,0.0,0.0,0.0,0.7450000000000006,0.0,0.0,0.0,0.7450000000000006,0.0,0.0
-0.05,0.3,0.6000000000000002,-0.795944941091348,0.300594016069671,1.0075117078135727,-0.9570189082219862,0.3007222836127705,1.8421105100294852,-0.41629498477432736,0.30029169057286925,2.4979439135711203,0.4337041749929138,0.2996148133232295,2.498928917212422,0.9759466406591275,0.2991830110272148,1.8443504864839086,0.852159062109979,0.30020385399226196,0.9012983613448566,0,-0.5,2.2,0.1505842917243781,-0.6910065596697561,-0.15058429172437815,0.6907667310062802,0.0,0.7500000000000006,0.0,0.0,0.0,0.7500000000000006,0.0,0.0,0.0,0.7500000000000006,0.0,0.0
-0.05,0.29669999999999996,0.5920000000000002,-0.795944941091348,0.297294016069671,0.9995117078135727,-0.9570189082219862,0.29742228361277046,1.8341105100294852,-0.41629498477432736,0.2969916905728692,2.4899439135711203,0.4337041749929138,0.29631481332322945,2.490928917212422,0.9759466406591275,0.29588301102721476,1.8363504864839086,0.852159062109979,0.296903853992262,0.8932983613448566,0,-0.5,2.2,0.14705882788032432,-0.6917627440885984,-0.14705882788032437,0.6915285302689562,0.0,0.7500000000000006,0.0,0.0,0.0,0.7500000000000006,0.0,0.0,0.0,0.7500000000000006,0.0,0.0
-0.05,0.29339999999999994,0.5840000000000002,-0.795944941091348,0.29399401606967096,0.9915117078135727,-0.9570189082219862,0.29412228361277043,1.8261105100294852,-0.41629498477432736,0.2936916905728692,2.4819439135711203,0.4337041749929138,0.29301481332322943,2.482928917212422,0.9759466406591275,0.29258301102721473,1.8283504864839086,0.852159062109979,0.2936038539922619,0.8852983613448566,0,-0.5,2.2,0.1435295390444482,-0.6925009357974662,-0.1435295390444482,0.692272342913546,0.0,0.7500000000000006,0.0,0.0,0.0,0.7500000000000006,0.0,0.0,0.0,0.7500000000000006,0.0,0.0
-0.05,0.2900999999999999,0.5760000000000002,-0.795944941091348,0.29069401606967094,0.9835117078135727,-0.9570189082219862,0.2908222836127704,1.8181105100294852,-0.41629498477432736,0.2903916905728692,2.4739439135711203,0.4337041749929138,0.2897148133232294,2.474928917212422,0.9759466406591275,0.2892830110272147,1.8203504864839086,0.852159062109979,0.29030385399226194,0.8772983613448566,0,-0.5,2.2,0.1399965170133531,-0.6932211155960347,-0.13999651701335322,0.6929981495935246,0.0,0.7500000000000006,0.0,0.0,0.0,0.7500000000000006,0.0,0.0,0.0,0.7500000000000006,0.0,0.0
-0.05,0.2867999999999999,0.5680000000000002,-0.795944941091348,0.2873940160696709,0.9755117078135727,-0.9570189082219862,0.2875222836127704,1.8101105100294852,-0.41629498477432736,0.28709169057286915,2.4659439135711203,0.4337041749929138,0.2864148133232294,2.466928917212422,0.9759466406591275,0.2859830110272147,1.8123504864839086,0.852159062109979,0.28700385399226186,0.8692983613448566,0,-0.5,2.2,0.13645985368074312,-0.693923264752468,-0.13645985368074312,0.6937059314307011,0.0,0.7500000000000006,0.0,0.0,0.0,0.7500000000000006,0.0,0.0,0.0,0.7500000000000006,0.0,0.0
-0.05,0.28349999999999986,0.5600000000000002,-0.795944941091348,0.2840940160696709,0.9675117078135727,-0.9570189082219862,0.28422228361277035,1.8021105100294852,-0.41629498477432736,0.2837916905728691,2.4579439135711203,0.4337041749929138,0.28311481332322935,2.458928917212422,0.9759466406591275,0.28268301102721466,1.8043504864839086,0.852159062109979,0.2837038539922619,0.8612983613448566,0,-0.5,2.2,0.13291964103503187,-0.6946073650039061,-0.13291964103503198,0.69439567001571,0.0,0.7500000000000006,0.0,0.0,0.0,0.7500000000000006,0.0,0.0,0.0,0.7500000000000006,0.0,0.0
-0.05,0.28019999999999984,0.5520000000000002,-0.795944941091348,0.28079401606967086,0.9595117078135726,-0.9570189082219862,0.28092228361277033,1.7941105100294852,-0.41629498477432736,0.2804916905728691,2.4499439135711203,0.4337041749929138,0.27981481332322933,2.450928917212422,0.9759466406591275,0.27938301102721463,1.7963504864839086,0.852159062109979,0.2804038539922618,0.8532983613448566,0,-0.5,2.2,0.12937597115695104,-0.6952733985569403,-0.1293759711569511,0.6950673474084894,0.0,0.7500000000000006,0.0,0.0,0.0,0.7500000000000006,0.0,0.0,0.0,0.7500000000000006,0.0,0.0
-0.05,0.2768999999999998,0.5440000000000002,-0.795944941091348,0.27749401606967083,0.9515117078135726,-0.9570189082219862,0.2776222836127703,1.7861105100294852,-0.41629498477432736,0.2771916905728691,2.4419439135711203,0.4337041749929138,0.2765148133232293,2.442928917212422,0.9759466406591275,0.2760830110272146,1.7883504864839086,0.852159062109979,0.27710385399226184,0.8452983613448566,0,-0.5,2.2,0.12582893621715419,-0.695921348088075,-0.12582893621715413,0.6957209461387482,0.0,0.7500000000000006,0.0,0.0,0.0,0.7500000000000006,0.0,0.0,0.0,0.7500000000000006,0.0,0.0
-0.05,0.2735999999999998,0.5360000000000001,-0.795944941091348,0.2741940160696708,0.9435117078135726,-0.9570189082219862,0.2743222836127703,1.7781105100294852,-0.41629498477432736,0.27389169057286905,2.4339439135711203,0.4337041749929138,0.2732148133232293,2.4349289172124218,0.9759466406591275,0.2727830110272146,1.7803504864839086,0.852159062109979,0.27380385399226176,0.8372983613448566,0,-0.5,2.2,0.12227862847382007,-0.6965511967441799,-0.12227862847382007,0.6963564492064204,0.0,0.7500000000000006,0.0,0.0,0.0,0.7500000000000006,0.0,0.0,0.0,0.7500000000000006,0.0,0.0
-0.05,0.27029999999999976,0.5280000000000001,-0.795944941091348,0.2708940160696708,0.9355117078135726,-0.9570189082219862,0.27102228361277025,1.7701105100294852,-0.41629498477432736,0.270591690572869,2.4259439135711203,0.4337041749929138,0.26991481332322925,2.4269289172124218,0.9759466406591275,0.26948301102721456,1.7723504864839086,0.852159062109979,0.2705038539922618,0.8292983613448566,0,-0.5,2.2,0.11872514027025305,-0.6971629281429264,-0.11872514027025305,0.696973840082107,0.0,0.7500000000000006,0.0,0.0,0.0,0.7500000000000006,0.0,0.0,0.0,0.7500000000000006,0.0,0.0
-0.05,0.26699999999999974,0.5200000000000001,-0.795944941091348,0.26759401606967076,0.9275117078135726,-0.9570189082219862,0.26772228361277023,1.7621105100294852,-0.41629498477432736,0.267291690572869,2.4179439135711203,0.4337041749929138,0.2666148133232292,2.4189289172124218,0.9759466406591275,0.26618301102721453,1.7643504864839086,0.852159062109979,0.2672038539922617,0.8212983613448566,0,-0.5,2.2,0.11516856403248094,-0.6977565263732156,-0.11516856403248088,0.697573102707506,0.0,0.7500000000000006,0.0,0.0,0.0,0.7500000000000006,0.0,0.0,0.0,0.7500000000000006,0.0,0.0
-0.05,0.2636999999999997,0.5120000000000001,-0.795944941091348,0.26429401606967073,0.9195117078135726,-0.9570189082219862,0.2644222836127702,1.7541105100294851,-0.41629498477432736,0.263991690572869,2.4099439135711203,0.4337041749929138,0.2633148133232292,2.4109289172124218,0.9759466406591275,0.2628830110272145,1.7563504864839086,0.852159062109979,0.26390385399226174,0.8132983613448566,0,-0.5,2.2,0.11160899226685109,-0.698331975995591,-0.11160899226685103,0.6981542214958306,0.0,0.7500000000000006,0.0,0.0,0.0,0.7500000000000006,0.0,0.0,0.0,0.7500000000000006,0.0,0.0
-0.05,0.2603999999999997,0.5040000000000001,-0.795944941091348,0.2609940160696707,0.9115117078135726,-0.9570189082219862,0.2611222836127702,1.7461105100294851,-0.41629498477432736,0.26069169057286895,2.4019439135711202,0.4337041749929138,0.2600148133232292,2.4029289172124217,0.9759466406591275,0.2595830110272145,1.7483504864839086,0.852159062109979,0.26060385399226166,0.8052983613448566,0,-0.5,2.2,0.10804651755762446,-0.6988892620426406,-0.10804651755762451,0.6987171813322135,0.0,0.7500000000000006,0.0,0.0,0.0,0.7500000000000006,0.0,0.0,0.0,0.7500000000000006,0.0,0.0
-0.05,0.25709999999999966,0.4960000000000001,-0.795944941091348,0.2576940160696707,0.9035117078135726,-0.9570189082219862,0.25782228361277015,1.7381105100294851,-0.41629498477432736,0.2573916905728689,2.3939439135711202,0.4337041749929138,0.25671481332322915,2.3949289172124217,0.9759466406591275,0.25628301102721446,1.7403504864839086,0.852159062109979,0.2573038539922617,0.7972983613448565,0,-0.5,2.2,0.10448123256456757,-0.6994283700193852,-0.10448123256456757,0.6992619675741013,0.0,0.7500000000000006,0.0,0.0,0.0,0.7500000000000006,0.0,0.0,0.0,0.7500000000000006,0.0,0.0
-0.05,0.25379999999999964,0.4880000000000001,-0.795944941091348,0.25439401606967066,0.8955117078135726,-0.9570189082219862,0.25452228361277013,1.7301105100294851,-0.41629498477432736,0.2540916905728689,2.3859439135711202,0.4337041749929138,0.2534148133232291,2.3869289172124217,0.9759466406591275,0.25298301102721443,1.7323504864839085,0.852159062109979,0.2540038539922616,0.7892983613448565,0,-0.5,2.2,0.10091323002054192,-0.6999492859036571,-0.10091323002054192,0.6997885660516345,0.0,0.7500000000000006,0.0,0.0,0.0,0.7500000000000006,0.0,0.0,0.0,0.7500000000000006,0.0,0.0
-0.05,0.2504999999999996,0.4800000000000001,-0.795944941091348,0.25109401606967063,0.8875117078135726,-0.9570189082219862,0.2512222836127701,1.7221105100294851,-0.41629498477432736,0.2507916905728689,2.3779439135711202,0.4337041749929138,0.2501148133232291,2.3789289172124217,0.9759466406591275,0.24968301102721444,1.7243504864839085,0.852159062109979,0.25070385399226164,0.7812983613448565,0,-0.5,2.2,0.09734260272909268,-0.7004519961464635,-0.09734260272909262,0.7002969630680165,0.0,0.7500000000000006,0.0,0.0,0.0,0.7500000000000006,0.0,0.0,0.0,0.7500000000000006,0.0,0.0
-0.05,0.24719999999999961,0.4720000000000001,-0.795944941091348,0.24779401606967064,0.8795117078135726,-0.9570189082219862,0.2479222836127701,1.7141105100294851,-0.41629498477432736,0.24749169057286888,2.36994391357112,0.4337041749929138,0.24681481332322913,2.3709289172124217,0.9759466406591275,0.24638301102721447,1.7163504864839085,0.852159062109979,0.24740385399226164,0.7732983613448565,0,-0.5,2.2,0.09376944356203422,-0.7009364876723393,-0.09376944356203422,0.7007871453998694,0.0,0.7500000000000006,0.0,0.0,0.0,0.7500000000000006,0.0,0.0,0.0,0.7500000000000006,0.0,0.0
-0.05,0.24389999999999962,0.4640000000000001,-0.795944941091348,0.24449401606967064,0.8715117078135726,-0.9570189082219862,0.2446222836127701,1.706110510029485,-0.41629498477432736,0.24419169057286888,2.36194391357112,0.4337041749929138,0.24351481332322913,2.3629289172124217,0.9759466406591275,0.24308301102721447,1.7083504864839085,0.852159062109979,0.24410385399226164,0.7652983613448565,0,-0.5,2.2,0.09019384545703513,-0.7014027478796869,-0.09019384545703513,0.7012591002975785,0.0,0.7500000000000006,0.0,0.0,0.0,0.7500000000000006,0.0,0.0,0.0,0.7500000000000006,0.0,0.0
-0.05,0.24059999999999962,0.45600000000000007,-0.795944941091348,0.24119401606967064,0.8635117078135726,-0.9570189082219862,0.2413222836127701,1.698110510029485,-0.41629498477432736,0.24089169057286888,2.35394391357112,0.4337041749929138,0.24021481332322914,2.3549289172124217,0.9759466406591275,0.23978301102721447,1.7003504864839085,0.852159062109979,0.24080385399226165,0.7572983613448565,0,-0.5,2.2,0.08661590141520041,-0.7018507646411051,-0.08661590141520047,0.7017128154856235,0.0,0.7500000000000006,0.0,0.0,0.0,0.7500000000000006,0.0,0.0,0.0,0.7500000000000006,0.0,0.0
-0.05,0.23729999999999962,0.44800000000000006,-0.795944941091348,0.23789401606967064,0.8555117078135726,-0.9570189082219862,0.2380222836127701,1.690110510029485,-0.41629498477432736,0.23759169057286889,2.34594391357112,0.4337041749929138,0.23691481332322914,2.3469289172124217,0.9759466406591275,0.23648301102721447,1.6923504864839085,0.852159062109979,0.23750385399226165,0.7492983613448565,0,-0.5,2.2,0.08303570449865322,-0.702280526303703,-0.08303570449865327,0.7021482791628979,0.0,0.7500000000000006,0.0,0.0,0.0,0.7500000000000006,0.0,0.0,0.0,0.7500000000000006,0.0,0.0
-0.05,0.23399999999999962,0.44000000000000006,-0.795944941091348,0.23459401606967065,0.8475117078135725,-0.9570189082219862,0.23472228361277012,1.682110510029485,-0.41629498477432736,0.2342916905728689,2.33794391357112,0.4337041749929138,0.23361481332322914,2.3389289172124217,0.9759466406591275,0.23318301102721448,1.6843504864839085,0.852159062109979,0.23420385399226165,0.7412983613448565,0,-0.5,2.2,0.07945334782811309,-0.7026920216894038,-0.07945334782811314,0.7025654800030161,0.0,0.7500000000000006,0.0,0.0,0.0,0.7500000000000006,0.0,0.0,0.0,0.7500000000000006,0.0,0.0
-0.05,0.23069999999999963,0.43200000000000005,-0.795944941091348,0.23129401606967065,0.8395117078135725,-0.9570189082219862,0.23142228361277012,1.674110510029485,-0.41629498477432736,0.2309916905728689,2.32994391357112,0.4337041749929138,0.23031481332322915,2.3309289172124217,0.9759466406591275,0.22988301102721448,1.6763504864839085,0.852159062109979,0.23090385399226165,0.7332983613448565,0,-0.5,2.2,0.0758689245804754,-0.7030852400952359,-0.0758689245804754,0.7029644071546075,0.0,0.7500000000000006,0.0,0.0,0.0,0.7500000000000006,0.0,0.0,0.0,0.7500000000000006,0.0,0.0
-0.05,0.22739999999999963,0.42400000000000004,-0.795944941091348,0.22799401606967065,0.8315117078135725,-0.9570189082219862,0.22812228361277012,1.666110510029485,-0.41629498477432736,0.2276916905728689,2.32194391357112,0.4337041749929138,0.22701481332322915,2.3229289172124217,0.9759466406591275,0.22658301102721448,1.6683504864839085,0.852159062109979,0.22760385399226166,0.7252983613448565,0,-0.5,2.2,0.07228252798638657,-0.7034601712936107,-0.07228252798638657,0.7033450502415997,0.0,0.7500000000000006,0.0,0.0,0.0,0.7500000000000006,0.0,0.0,0.0,0.7500000000000006,0.0,0.0
-0.05,0.22409999999999963,0.41600000000000004,-0.795944941091348,0.22469401606967065,0.8235117078135725,-0.9570189082219862,0.22482228361277012,1.658110510029485,-0.41629498477432736,0.2243916905728689,2.31394391357112,0.4337041749929138,0.22371481332322915,2.3149289172124217,0.9759466406591275,0.22328301102721448,1.6603504864839085,0.852159062109979,0.22430385399226166,0.7172983613448565,0,-0.5,2.2,0.06869425132781981,-0.7038168055325889,-0.06869425132781981,0.7037073993634874,0.0,0.7500000000000006,0.0,0.0,0.0,0.7500000000000006,0.0,0.0,0.0,0.7500000000000006,0.0,0.0
-0.05,0.22079999999999964,0.40800000000000003,-0.795944941091348,0.22139401606967066,0.8155117078135725,-0.9570189082219862,0.22152228361277013,1.650110510029485,-0.41629498477432736,0.2210916905728689,2.30594391357112,0.4337041749929138,0.22041481332322915,2.3069289172124217,0.9759466406591275,0.2199830110272145,1.6523504864839085,0.852159062109979,0.22100385399226166,0.7092983613448565,0,-0.5,2.2,0.06510418793564882,-0.704155133536134,-0.06510418793564882,0.7040514450955901,0.0,0.7500000000000006,0.0,0.0,0.0,0.7500000000000006,0.0,0.0,0.0,0.7500000000000006,0.0,0.0
-0.05,0.21749999999999964,0.4,-0.795944941091348,0.21809401606967066,0.8075117078135725,-0.9570189082219862,0.21822228361277013,1.642110510029485,-0.41629498477432736,0.2177916905728689,2.29794391357112,0.4337041749929138,0.21711481332322916,2.2989289172124217,0.9759466406591275,0.2166830110272145,1.6443504864839085,0.852159062109979,0.21770385399226166,0.7012983613448565,0,-0.5,2.2,0.06151243118721994,-0.7044751465043537,-0.06151243118721994,0.7043771784892982,0.0,0.7500000000000006,0.0,0.0,0.0,0.7500000000000006,0.0,0.0,0.0,0.7500000000000006,0.0,0.0
-0.05,0.21419999999999964,0.392,-0.795944941091348,0.21479401606967066,0.7995117078135725,-0.9570189082219862,0.21492228361277013,1.634110510029485,-0.41629498477432736,0.2144916905728689,2.28994391357112,0.4337041749929138,0.21381481332322916,2.2909289172124216,0.9759466406591275,0.2133830110272145,1.6363504864839085,0.852159062109979,0.21440385399226167,0.6932983613448565,0,-0.5,2.2,0.05791907450392375,-0.7047768361137288,-0.057919074503923806,0.704684591072304,0.0,0.7500000000000006,0.0,0.0,0.0,0.7500000000000006,0.0,0.0,0.0,0.7500000000000006,0.0,0.0
-0.05,0.21089999999999964,0.384,-0.795944941091348,0.21149401606967067,0.7915117078135725,-0.9570189082219862,0.21162228361277013,1.626110510029485,-0.41629498477432736,0.2111916905728689,2.28194391357112,0.4337041749929138,0.21051481332322916,2.2829289172124216,0.9759466406591275,0.2100830110272145,1.6283504864839085,0.852159062109979,0.21110385399226167,0.6852983613448564,0,-0.5,2.2,0.05432421134876509,-0.7050601945173295,-0.05432421134876498,0.7049736748488238,0.0,0.7500000000000006,0.0,0.0,0.0,0.7500000000000006,0.0,0.0,0.0,0.7500000000000006,0.0,0.0
-0.05,0.20759999999999965,0.376,-0.795944941091348,0.20819401606967067,0.7835117078135725,-0.9570189082219862,0.20832228361277014,1.618110510029485,-0.41629498477432736,0.2078916905728689,2.27394391357112,0.4337041749929138,0.20721481332322916,2.2749289172124216,0.9759466406591275,0.2067830110272145,1.6203504864839084,0.852159062109979,0.20780385399226167,0.6772983613448564,0,-0.5,2.2,0.05072793522393175,-0.7053252143450196,-0.05072793522393175,0.7052444222998048,0.0,0.7500000000000006,0.0,0.0,0.0,0.7500000000000006,0.0,0.0,0.0,0.7500000000000006,0.0,0.0
