yifeidong0/3D-Soft-Fixture/results/ShovelFish_18-06-2023-16-10-25_dynamics/data.csv
index,obj_pos_x,obj_pos_y,obj_pos_z,obj_qtn_x,obj_qtn_y,obj_qtn_z,obj_qtn_w,obj_joint_0_pos,obj_joint_1_pos,obj_joint_2_pos,obj_joint_3_pos,obj_joint_4_pos,obj_joint_5_pos,obj_joint_6_pos,obj_joint_7_pos,obj_joint_8_pos,obs_pos_x,obs_pos_y,obs_pos_z,obs_qtn_x,obs_qtn_y,obs_qtn_z,obs_qtn_w
0,0.0,-1.3,1.7,-0.0007956920697244818,0.0007969603417828076,-0.0007956920697244819,0.9999990493007851,0.0,0.0,0.0,0.0,0.0,0.0,0.0,0.0,0.0,0,5.9999,1.75,-3.9799747470500266e-05,-0.04997915342387482,0.9987499437230536,0.0007953315097043137
100,-0.040887193283981195,-1.28941473279329,1.2534514866593127,-0.2404655654764919,-0.09934465319559231,-0.031427356852984506,0.9650488448481526,0.41366215001140966,0.2125806750657102,0.01427652948353545,-0.005549034316701046,-0.07745692270901947,-0.11248250649993374,0.06671545566445763,0.15001370572113895,0.10000054670984096,0,5.9899000000000235,1.75,-3.9799747470500266e-05,-0.04997915342387482,0.9987499437230536,0.0007953315097043137
200,-0.02098312308745459,-1.3008063574545257,1.2358111344792042,-0.2187026880993665,-0.062048967741356556,-0.01953958389222736,0.9736206984661234,0.42807442856290717,0.16491067809204366,-0.023123678715661292,-0.00803388590440123,-0.05160704231270757,-0.1065847323113116,0.05732429296636011,0.1500696293716832,0.10000159526600276,0,5.979900000000047,1.75,-3.9799747470500266e-05,-0.04997915342387482,0.9987499437230536,0.0007953315097043137
300,-0.021231308775979663,-1.301856658683847,1.2362251717919235,-0.21971847326490926,-0.06243684051012889,-0.01972166009056702,0.9733634930366569,0.42963380218693803,0.16547973314375822,-0.02292620217481218,-0.009396448623979781,-0.052615100808652185,-0.10087536595982728,0.05851610552425974,0.1500004645517135,0.10000087097515488,0,5.96990000000007,1.75,-3.9799747470500266e-05,-0.04997915342387482,0.9987499437230536,0.0007953315097043137
400,-0.020556051948475897,-1.3027946420799335,1.2383702730393733,-0.22128044544977335,-0.05998539233288483,-0.019191376761171594,0.9731743976421855,0.43125427033061314,0.1662732715664362,-0.022776970226205347,-0.010363808135664931,-0.05281496432862826,-0.09642091375988175,0.05907582678213754,0.15000047963897986,0.09999957676435631,0,5.9599000000000935,1.75,-3.9799747470500266e-05,-0.04997915342387482,0.9987499437230536,0.0007953315097043137
500,-0.02343565589464242,-1.30375609208724,1.2332762733217308,-0.2240355606062503,-0.06840735557498161,-0.021999910560914313,0.9719282407782958,0.44446103172353246,0.16173085527398706,-0.02253790651791612,-0.00923730912225195,-0.05970942540224334,-0.09395002539700273,0.060202714719099146,0.1500006610561633,0.09994798902712003,0,5.949900000000117,1.75,-3.9799747470500266e-05,-0.04997915342387482,0.9987499437230536,0.0007953315097043137
600,-0.02333615802127203,-1.306515115771149,1.2347333186663827,-0.2253533869334886,-0.06661873423731518,-0.021861437609161257,0.9717509314592315,0.44642532724859113,0.1614318453292164,-0.022114223660303987,-0.009173360302107695,-0.061920037820304016,-0.0879156471098526,0.06086386003444444,0.15000028081845748,0.0998901852109067,0,5.93990000000014,1.75,-3.9799747470500266e-05,-0.04997915342387482,0.9987499437230536,0.0007953315097043137
700,-0.02415389269662264,-1.3084512344481114,1.2376512469495022,-0.22838311201614397,-0.06341122372632801,-0.02182030253400776,0.9712590000863185,0.4510726379097776,0.16163917049378634,-0.021955062270912356,-0.009065333122426918,-0.062300497507556306,-0.08446317562856893,0.06122141106997454,0.15000092363067527,0.09989927887885412,0,5.929900000000163,1.75,-3.9799747470500266e-05,-0.04997915342387482,0.9987499437230536,0.0007953315097043137
800,-0.02508235841767392,-1.3100388363355338,1.2409374073125947,-0.23141526537008286,-0.05906530071298379,-0.021630604827597977,0.9708194384849179,0.45591170327905334,0.16169120344525303,-0.02191443633455834,-0.009384288342081647,-0.06199062477226189,-0.08194378264679561,0.061093565660517844,0.15000084881862982,0.09980365839962246,0,5.919900000000187,1.75,-3.9799747470500266e-05,-0.04997915342387482,0.9987499437230536,0.0007953315097043137
900,-0.025614098816211472,-1.3123164342112559,1.2429398465495674,-0.2348598490606051,-0.057112534196570086,-0.021838879786550205,0.9701041557825345,0.463011316212709,0.16177415215235058,-0.023202573777345876,-0.00998033721568144,-0.06185709449048832,-0.07750470406311159,0.06108317836703512,0.15000001919420397,0.09980153688834946,0,5.90990000000021,1.75,-3.9799747470500266e-05,-0.04997915342387482,0.9987499437230536,0.0007953315097043137
1000,-0.02559117027775802,-1.3148103881084605,1.2445089275979662,-0.23804587352544954,-0.05624490972246728,-0.021843321479710992,0.9693779147136329,0.4694929581033043,0.16193118701997633,-0.023769121870326534,-0.010926489879163389,-0.062493953185766705,-0.07206497478112334,0.061494136783686724,0.15001032276589063,0.09986123091240584,0,5.899900000000233,1.75,-3.9799747470500266e-05,-0.04997915342387482,0.9987499437230536,0.0007953315097043137
1100,-0.02713664417902306,-1.315353451664947,1.2434684650141596,-0.23816260190955674,-0.058330802380398485,-0.022749669176762233,0.9692051099213607,0.47024797260777396,0.16217537988616648,-0.023589413421736278,-0.01100430991618724,-0.06294522131885526,-0.07361181119854637,0.06494215691596138,0.15001907979568005,0.10000128247179,0,5.889900000000257,1.75,-3.9799747470500266e-05,-0.04997915342387482,0.9987499437230536,0.0007953315097043137
1200,-0.028267201075221408,-1.3164381930552156,1.244209940320915,-0.23929731913156252,-0.05819709128548225,-0.023155868484482377,0.9689239894734187,0.4716892463762712,0.16262158633403612,-0.023152733739845246,-0.01064588658420441,-0.06337174158942611,-0.07355987411263719,0.06828488880181847,0.1500510116269166,0.09999993531712201,0,5.87990000000028,1.75,-3.9799747470500266e-05,-0.04997915342387482,0.9987499437230536,0.0007953315097043137
1300,-0.02880402099305936,-1.3183132244531452,1.2460653122051966,-0.24191530967592637,-0.05655105612153659,-0.023247509353058894,0.9683689969762657,0.47634047992047235,0.1628896192522185,-0.023283451191091684,-0.010915382526255332,-0.06281262446882763,-0.07251125659223562,0.07110580565927227,0.15000113536837337,0.10000040272743985,0,5.869900000000303,1.75,-3.9799747470500266e-05,-0.04997915342387482,0.9987499437230536,0.0007953315097043137
1400,-0.029495282768819017,-1.32038794494953,1.2475051867402156,-0.24472910269698583,-0.05554495717400219,-0.02358735796191308,0.9677117652328316,0.4819993967122118,0.16307890404448744,-0.023924663911073053,-0.010921571739640923,-0.06239643154185816,-0.07193937814616444,0.07436205675825666,0.15000092503327286,0.09999982117419817,0,5.8599000000003265,1.75,-3.9799747470500266e-05,-0.04997915342387482,0.9987499437230536,0.0007953315097043137
1500,-0.030619378946151,-1.3225917780121161,1.2486178599187956,-0.24744894606559137,-0.055263768311608584,-0.02419765574336391,0.9670208934969061,0.4874222825761733,0.16323158328136575,-0.023996532457822267,-0.010919775095204509,-0.062352619271336035,-0.07187552085246454,0.07835069379330976,0.1500006301044754,0.09999776883568212,0,5.84990000000035,1.75,-3.9799747470500266e-05,-0.04997915342387482,0.9987499437230536,0.0007953315097043137
1600,-0.03153242019205859,-1.3248009193497092,1.249861540774009,-0.25026395801971013,-0.05472360373886835,-0.02471282208456697,0.9663139008286886,0.49307505517597544,0.16338531732119108,-0.024270346232267166,-0.010916563428963284,-0.06217916619439088,-0.07163448360708152,0.08207662612709594,0.1500018127879678,0.09998880869979912,0,5.839900000000373,1.75,-3.9799747470500266e-05,-0.04997915342387482,0.9987499437230536,0.0007953315097043137
1700,-0.03377073470244804,-1.3271088858787177,1.2497391358914889,-0.2524740465215238,-0.05658748294880405,-0.026041181279800443,0.965596483777835,0.49783490119057316,0.16372196563543295,-0.023900219980290672,-0.010876822686001784,-0.06277819702064949,-0.07310364645915564,0.08901801912597551,0.15000068108152742,0.09887659711794068,0,5.829900000000396,1.75,-3.9799747470500266e-05,-0.04997915342387482,0.9987499437230536,0.0007953315097043137
1800,-0.03412636173828516,-1.3285888969020414,1.2520724253699849,-0.254524574246719,-0.054296745407788914,-0.02586118891255883,0.9651944381577616,0.5001179908101974,0.16505506987595991,-0.024313974258565768,-0.01072443884460964,-0.06254329616134148,-0.07138098271229425,0.09123578073219259,0.14998283948223484,0.09892327082871423,0,5.81990000000042,1.75,-3.9799747470500266e-05,-0.04997915342387482,0.9987499437230536,0.0007953315097043137
1900,-0.03426124176801746,-1.3292546093512048,1.2536179045426667,-0.25538067026417116,-0.052788565234867746,-0.02562757232913273,0.9650581890085084,0.5000723674208638,0.16701277144238894,-0.025448115571984665,-0.010635561155483584,-0.06197506004130239,-0.0703128620375504,0.09494863539462192,0.15001195480901922,0.09896716547466916,0,5.809900000000443,1.75,-3.9799747470500266e-05,-0.04997915342387482,0.9987499437230536,0.0007953315097043137
2000,-0.03425458629497846,-1.3301881174180081,1.2560861858652919,-0.2567006379242261,-0.05021472506332914,-0.025148537593693,0.964857924739704,0.5000733711608425,0.16999449096725341,-0.0274147718318431,-0.010087943440798127,-0.06176700525617059,-0.06808491736228352,0.09708336045797528,0.15000302801140503,0.09901366614788613,0,5.799900000000466,1.75,-3.9799747470500266e-05,-0.04997915342387482,0.9987499437230536,0.0007953315097043137
2100,-0.034103549446067125,-1.3309833748305002,1.2583992350260742,-0.2579034024316765,-0.04771017638983056,-0.02465100602015308,0.9646770972637478,0.5000747436335319,0.1727388216025913,-0.029333442389603972,-0.009787921984013213,-0.061094520405137125,-0.06615196524753535,0.0994272052109517,0.15000310991140242,0.09907933110043737,0,5.78990000000049,1.75,-3.9799747470500266e-05,-0.04997915342387482,0.9987499437230536,0.0007953315097043137
2200,-0.034242377033364774,-1.331750891026849,1.2599848094799744,-0.2588404201322063,-0.04628488255740494,-0.02443666447167478,0.9645010088029607,0.5000728651591886,0.17481849155827417,-0.03040744040898235,-0.009479576144265586,-0.06100126068297958,-0.0649231222366146,0.10326957320406292,0.1500221228891031,0.0991628916926982,0,5.779900000000513,1.75,-3.9799747470500266e-05,-0.04997915342387482,0.9987499437230536,0.0007953315097043137
2300,-0.034359378112723986,-1.332530770663913,1.2615770005954625,-0.2597854183677836,-0.04486622120791468,-0.024215559781861344,0.9643195348339934,0.5000734117766698,0.17691264818567823,-0.031473734948525726,-0.009174044162228246,-0.06091012986792398,-0.06369904749029355,0.10717625277819681,0.15000049724652315,0.09928665521221423,0,5.769900000000536,1.75,-3.9799747470500266e-05,-0.04997915342387482,0.9987499437230536,0.0007953315097043137
2400,-0.03447190025545252,-1.3333136545750857,1.2631205919922457,-0.2607169323309774,-0.0435274613858573,-0.02400827247202948,0.9641346607990691,0.5000780675808381,0.17897091525994488,-0.03248108156886462,-0.008979533843658748,-0.06062991078912277,-0.06264781619315658,0.11122649959043532,0.1500019871611665,0.09938790775457196,0,5.75990000000056,1.75,-3.9799747470500266e-05,-0.04997915342387482,0.9987499437230536,0.0007953315097043137
2500,-0.03511226421650306,-1.3345326065315521,1.2641606886716839,-0.2616916277702201,-0.04356588524530643,-0.024242604005475978,0.9638629579711003,0.5000435855152536,0.1810043954210205,-0.03240322707390337,-0.00905543040748373,-0.06052733769378107,-0.06279633479983021,0.11657292316604938,0.1499986364093019,0.09941018894919618,0,5.749900000000583,1.75,-3.9799747470500266e-05,-0.04997915342387482,0.9987499437230536,0.0007953315097043137
2600,-0.03513941426884561,-1.334965277447647,1.2645245001880936,-0.26204067330531083,-0.04360483104781377,-0.024278788284426304,0.9637654510732531,0.5000498229969356,0.18171930804758293,-0.032370226359617005,-0.009061508818624282,-0.06053538923711117,-0.06283702520899864,0.12197078308819767,0.1499849724575508,0.09941067806164357,0,5.739900000000606,1.75,-3.9799747470500266e-05,-0.04997915342387482,0.9987499437230536,0.0007953315097043137
2700,-0.035192818892004055,-1.3357789140180698,1.2651893238750878,-0.2626865604419217,-0.04368830355397505,-0.024352637760731034,0.9635839621589096,0.5000703549130503,0.1830257517828745,-0.03228760662701983,-0.009076620323022342,-0.06056044575908375,-0.0629210414913315,0.127279865575559,0.1499677519661704,0.09941074474026804,0,5.7299000000006295,1.75,-3.9799747470500266e-05,-0.04997915342387482,0.9987499437230536,0.0007953315097043137
2800,-0.035326207071898735,-1.336877796223302,1.2659855757449374,-0.2635263197690409,-0.043960307627204286,-0.02450808400039151,0.9633383226888342,0.5000961760074891,0.18470736710029673,-0.03205249288986905,-0.009101989317618199,-0.0606653541383845,-0.06314859543271366,0.13258542725125208,0.149929256480076,0.09941675625113142,0,5.719900000000653,1.75,-3.9799747470500266e-05,-0.04997915342387482,0.9987499437230536,0.0007953315097043137
2900,-0.0355011515561762,-1.3381898607681058,1.2669677263499812,-0.26453750510767043,-0.04423886396355917,-0.02469290534213825,0.9630436603458782,0.5001113459788831,0.18675228844484948,-0.03180404582540986,-0.009130343006380054,-0.06077317472930089,-0.06338989111451061,0.13787609935169562,0.14986744152128104,0.09943115215282548,0,5.709900000000676,1.75,-3.9799747470500266e-05,-0.04997915342387482,0.9987499437230536,0.0007953315097043137
3000,-0.03648744618088304,-1.3408534823734,1.2699531463217486,-0.2669350960302597,-0.043215483671849575,-0.024924680747661555,0.9624223796067667,0.500095049680918,0.19200262326462075,-0.03284982861675075,-0.009082625445622257,-0.060053316174122295,-0.06295615654967372,0.1442026489149069,0.14906234602107074,0.09944415573870173,0,5.699900000000699,1.75,-3.9799747470500266e-05,-0.04997915342387482,0.9987499437230536,0.0007953315097043137
3100,-0.037221699023047755,-1.341858566608698,1.2719786076374238,-0.268166625999012,-0.041414644622085765,-0.024878222682083072,0.9621603618666241,0.5000805071733729,0.1947474676599378,-0.03417722218579066,-0.009329138433718132,-0.05871025648272507,-0.06131424028944633,0.14600488798751438,0.14893952691725734,0.09945713138554665,0,5.689900000000723,1.75,-3.9799747470500266e-05,-0.04997915342387482,0.9987499437230536,0.0007953315097043137
3200,-0.03874767955221907,-1.343209980433215,1.2719115206156457,-0.26883823336174556,-0.043248443117389984,-0.02577032991815353,0.9618687366510916,0.5000823239165135,0.19637138065961232,-0.0335875656528766,-0.009398734039370995,-0.05875161525660377,-0.06134144196841822,0.14933797542128094,0.1488473717719562,0.09949490296932394,0,5.679900000000746,1.75,-3.9799747470500266e-05,-0.04997915342387482,0.9987499437230536,0.0007953315097043137
3300,-0.04013641062298517,-1.3444677839501662,1.2719058937951453,-0.26947747006800543,-0.044867173468666435,-0.026565278196204942,0.9615940494122445,0.500066900148892,0.19790195720184303,-0.03303355298479772,-0.009469851869489933,-0.058799052419279615,-0.06137483330820197,0.15314323452501163,0.14877699395827387,0.09952452620386562,0,5.669900000000769,1.75,-3.9799747470500266e-05,-0.04997915342387482,0.9987499437230536,0.0007953315097043137
3400,-0.04157985036447309,-1.3457949945928205,1.271850408229018,-0.2701331418712842,-0.04662344471012575,-0.027385718589794338,0.9613034705458163,0.5000811813801944,0.19941885909995413,-0.032367728396121606,-0.00936918438675949,-0.05926960400727985,-0.06131775604723981,0.1570532530724725,0.14872350540916796,0.09955719232927604,0,5.659900000000793,1.75,-3.9799747470500266e-05,-0.04997915342387482,0.9987499437230536,0.0007953315097043137
3500,-0.043048558969745715,-1.3472885705493354,1.2718698988184727,-0.2708932809964881,-0.0484873212038093,-0.02823815540087268,0.960972640907634,0.500075484296487,0.20110904107017863,-0.03149561264748595,-0.009114665101068342,-0.060265613451647056,-0.06116126035294186,0.16110336493258537,0.1486639116274082,0.09960301366227016,0,5.649900000000816,1.75,-3.9799747470500266e-05,-0.04997915342387482,0.9987499437230536,0.0007953315097043137
3600,-0.044659191216351195,-1.3487355455222028,1.2719139931570915,-0.27165115178071275,-0.05023328213663837,-0.029141425428429554,0.9606419970134515,0.500089687240922,0.202518367201611,-0.03023282311409951,-0.009009954316692319,-0.06126531663334784,-0.061122210498454045,0.16568498389453898,0.14796020414272426,0.0996415341576074,0,5.639900000000839,1.75,-3.9799747470500266e-05,-0.04997915342387482,0.9987499437230536,0.0007953315097043137
3700,-0.046241646952751736,-1.3502200470908674,1.2719875953040738,-0.2724426251388142,-0.05199380640334572,-0.030050313264058347,0.9602961203586605,0.5000966850213189,0.20407030518797634,-0.029065168212160836,-0.008891609666567801,-0.06224354059750575,-0.06104201791651506,0.17040691969251706,0.14712386427619278,0.09968337236698623,0,5.6299000000008625,1.75,-3.9799747470500266e-05,-0.04997915342387482,0.9987499437230536,0.0007953315097043137
3800,-0.047599632434765636,-1.351511947864258,1.2721773726024923,-0.27317346881943266,-0.05333811992461651,-0.03080607169276672,0.9599907743530277,0.500078955630318,0.205632607252117,-0.028351693882830944,-0.008706783941512575,-0.06300502481489538,-0.060878760540493355,0.17484649334208524,0.1470181165143336,0.09973760086929344,0,5.619900000000886,1.75,-3.9799747470500266e-05,-0.04997915342387482,0.9987499437230536,0.0007953315097043137
3900,-0.04892996153348033,-1.3527657814885197,1.27237495824219,-0.27389009439683615,-0.0546076257089099,-0.03153966985227511,0.9596913423759419,0.5000762176377871,0.2071376762130242,-0.02765535128481022,-0.00853868397313774,-0.0637291061341093,-0.06074118314701509,0.17942865110336867,0.1464374008823197,0.09978709483532211,0,5.609900000000909,1.75,-3.9799747470500266e-05,-0.04997915342387482,0.9987499437230536,0.0007953315097043137
4000,-0.05020798194537664,-1.3540365987390883,1.272624254347716,-0.2746355080972604,-0.05581951740163216,-0.032251166274803456,0.9593848974437338,0.5000814679163561,0.20866943697129708,-0.026939128507733452,-0.008402033261839949,-0.06441948388377013,-0.060666542057854225,0.18463749766971857,0.14480778782909787,0.0998230434343749,0,5.5999000000009325,1.75,-3.9799747470500266e-05,-0.04997915342387482,0.9987499437230536,0.0007953315097043137
4100,-0.05141394857666839,-1.3552753166380567,1.2728970157803776,-0.27537148941878886,-0.05695692983555647,-0.03292747465782349,0.95908405907493,0.5000798841655504,0.21019775496255338,-0.0262835703446558,-0.008261417881238069,-0.06506998914735505,-0.06061412066011826,0.19011709471286375,0.14279434434502342,0.09985259396047373,0,5.589900000000956,1.75,-3.9799747470500266e-05,-0.04997915342387482,0.9987499437230536,0.0007953315097043137
4200,-0.052627666226313305,-1.3563317234809054,1.2730235947118207,-0.2759637110564063,-0.05808201323694934,-0.03359970958333891,0.9588230125702211,0.5000536516378823,0.21148033019234388,-0.025692742279162822,-0.008099242478055152,-0.06570792359064999,-0.06057525751571876,0.19633956362854912,0.13865285422956797,0.09987500257346105,0,5.579900000000979,1.75,-3.9799747470500266e-05,-0.04997915342387482,0.9987499437230536,0.0007953315097043137
4300,-0.05375278670285199,-1.3573805686854596,1.2732756563718663,-0.2766038240285984,-0.058984029560598894,-0.03420109150319926,0.958562201492183,0.5000852586015393,0.2127575030781329,-0.02513604000192444,-0.007997006407019332,-0.06633413743339017,-0.058712514523400094,0.20000302260874728,0.13416690193355638,0.09989383507174751,0,5.569900000001002,1.75,-3.9799747470500266e-05,-0.04997915342387482,0.9987499437230536,0.0007953315097043137
4400,-0.05485749850694222,-1.3585619857421565,1.2736283941823847,-0.27733970593729096,-0.059925346221827075,-0.034814347175689146,0.9582690653577114,0.5000800059316971,0.2142593032303944,-0.0245273329264132,-0.007910503849075639,-0.06709344040058929,-0.05479905920093052,0.20000160158471064,0.1311853318762545,0.09992268921470406,0,5.559900000001026,1.75,-3.9799747470500266e-05,-0.04997915342387482,0.9987499437230536,0.0007953315097043137
4500,-0.05601936515032432,-1.359689897431498,1.2739119089050894,-0.2780297377065842,-0.06090289402506343,-0.03546620971781019,0.9579835334797943,0.5000657075030158,0.21568162647845565,-0.023917446035923808,-0.007803438629115342,-0.06788467797720554,-0.050923401626338544,0.20000103163219513,0.1287999306426499,0.09994848076990283,0,5.549900000001049,1.75,-3.9799747470500266e-05,-0.04997915342387482,0.9987499437230536,0.0007953315097043137
4600,-0.05696410635317256,-1.3606065324349226,1.2741690893913653,-0.2785997687932994,-0.06164585264210111,-0.035987047417228406,0.9577509541099599,0.5000606041054305,0.21685747631928579,-0.023463674966041556,-0.007715004546027362,-0.06857948493999672,-0.046571538237415874,0.20000198911065173,0.12358690948881028,0.09996201044797311,0,5.539900000001072,1.75,-3.9799747470500266e-05,-0.04997915342387482,0.9987499437230536,0.0007953315097043137
4700,-0.057768435943349676,-1.3612954096181444,1.274385830765381,-0.27904255002122835,-0.06217435764217957,-0.036422555956397554,0.9575714082756626,0.500043320114928,0.21776692187007002,-0.023110711646837638,-0.007658146487178042,-0.06919807682348071,-0.04173659859028816,0.20000130655033185,0.11607351629157826,0.0999712795022805,0,5.529900000001096,1.75,-3.9799747470500266e-05,-0.04997915342387482,0.9987499437230536,0.0007953315097043137
4800,-0.058400721688836504,-1.3617144347920263,1.2745396255636572,-0.27933202166592913,-0.06245986069801695,-0.03675781007424523,0.957455613003629,0.5000319442232671,0.21834968789893142,-0.022895806952443372,-0.00762213693522575,-0.0697394099827142,-0.036425693855285005,0.20004135282569763,0.10519723547245959,0.09996009771193674,0,5.519900000001119,1.75,-3.9799747470500266e-05,-0.04997915342387482,0.9987499437230536,0.0007953315097043137
4900,-0.05883160204330726,-1.3618328533535615,1.274815719149095,-0.27950349252944306,-0.06217069208352891,-0.036894216673808995,0.9574191451426719,0.5000218170236987,0.21862442096879983,-0.02289218691555721,-0.007718266912825214,-0.07002843049001134,-0.0300289007244337,0.20000326273508026,0.08657062847713583,0.0999538875883026,0,5.509900000001142,1.75,-3.9799747470500266e-05,-0.04997915342387482,0.9987499437230536,0.0007953315097043137
5000,-0.058948826950057945,-1.3617318380267098,1.2752602790915935,-0.27962448789115285,-0.06138932721822442,-0.03682571398696291,0.9574368715819622,0.5000048606493539,0.2187259664004166,-0.023018287302010935,-0.007932831508775016,-0.07009961233176376,-0.023399311333922045,0.20002303900007656,0.0624386854216442,0.09993285099939969,0,5.4999000000011655,1.75,-3.9799747470500266e-05,-0.04997915342387482,0.9987499437230536,0.0007953315097043137
5100,-0.058052252346287345,-1.3614110816299798,1.2776612024143819,-0.28030706831702745,-0.05743680249924538,-0.03587351337603095,0.9575186954875794,0.5000191480837817,0.21910605815853615,-0.023255509238856272,-0.008636560314637429,-0.07006090309819026,-0.012450978748764403,0.1999997700951687,-0.0019047977661056374,0.09991221132483649,0,5.489900000001189,1.75,-3.9799747470500266e-05,-0.04997915342387482,0.9987499437230536,0.0007953315097043137
5200,-0.05831225658405187,-1.3611791411565877,1.2790858149954063,-0.2807072208475396,-0.054981346913184154,-0.035557203085189115,0.9575574097485859,0.5000023476598142,0.2192417591787849,-0.023253760197662444,-0.00912120887503136,-0.06959988405762899,-0.004117742327637866,0.20000243604931867,-0.062283856997499366,0.09956445166476212,0,5.479900000001212,1.75,-3.9799747470500266e-05,-0.04997915342387482,0.9987499437230536,0.0007953315097043137
5300,-0.059199525520783294,-1.36133546960659,1.2787408525063273,-0.28068702837867177,-0.055613142102916374,-0.0359807102739521,0.9575110229201403,0.5000327369496552,0.21931692766145586,-0.02319698077381135,-0.009162068256179857,-0.0694287649892603,-0.0006526732714756601,0.20000104801293556,-0.0702015283488647,0.0995688880874523,0,5.469900000001235,1.75,-3.9799747470500266e-05,-0.04997915342387482,0.9987499437230536,0.0007953315097043137
5400,-0.06008577941206594,-1.3615306488616603,1.2783513445399044,-0.28066592052836725,-0.05639833727382232,-0.036432233260048935,0.9574542082973984,0.5000105794879324,0.21948134282849116,-0.023131855369539246,-0.009157437661966694,-0.06932171862550757,0.0023450571585688583,0.2000437282334464,-0.0774917363997844,0.09956397209705987,0,5.459900000001259,1.75,-3.9799747470500266e-05,-0.04997915342387482,0.9987499437230536,0.0007953315097043137
5500,-0.060948014796838305,-1.3616566834797588,1.277933233013377,-0.280603450092393,-0.057126030450715126,-0.03686608569912362,0.9574127700038342,0.5000084780361245,0.21955471544741587,-0.023127262615172332,-0.009237060056036153,-0.06900142212988587,0.0055066680348308805,0.20000158625975287,-0.08554675185183948,0.0995503917894734,0,5.449900000001282,1.75,-3.9799747470500266e-05,-0.04997915342387482,0.9987499437230536,0.0007953315097043137
5600,-0.061748702412540914,-1.361758097190523,1.277502962215762,-0.28052472976890636,-0.057843329159190056,-0.03727942515869347,0.9573767647690752,0.5000093603351149,0.2195383755366805,-0.023033449097368888,-0.009092416399256724,-0.06921618240199759,0.00888270996242993,0.2000018473164217,-0.09359616580373191,0.0995557060066741,0,5.439900000001305,1.75,-3.9799747470500266e-05,-0.04997915342387482,0.9987499437230536,0.0007953315097043137
5700,-0.06256362710896163,-1.361821901834308,1.2770048646081529,-0.28040533822642355,-0.05861549772170357,-0.037701676219849406,0.9573482403656339,0.5000138793604088,0.21941843812208905,-0.022884850506539548,-0.008852566591769976,-0.06966014320990528,0.012420294851674037,0.20000268768322466,-0.10274414824529107,0.09956080922152487,0,5.429900000001329,1.75,-3.9799747470500266e-05,-0.04997915342387482,0.9987499437230536,0.0007953315097043137
5800,-0.0634450753600856,-1.3618553677830871,1.276338332810015,-0.2802072472860555,-0.059597525369407434,-0.0381778259128909,0.9573267400144942,0.49999594709367734,0.21923410691879539,-0.02276173847983343,-0.008548207281446767,-0.0701869754360334,0.01601035533657652,0.20000098065201066,-0.11360884556855576,0.0995650462662411,0,5.419900000001352,1.75,-3.9799747470500266e-05,-0.04997915342387482,0.9987499437230536,0.0007953315097043137
5900,-0.06439798617383169,-1.3618655845983585,1.2755402007421464,-0.2799507654317582,-0.060744586132179874,-0.03870197628060797,0.9573086342563605,0.4999643635239443,0.21898946770445626,-0.022659313760042956,-0.008141296565287915,-0.07082673415647635,0.019941293314338367,0.20005938833020545,-0.12778802157133756,0.09956609044777108,0,5.409900000001375,1.75,-3.9799747470500266e-05,-0.04997915342387482,0.9987499437230536,0.0007953315097043137
6000,-0.06676366925674472,-1.366972748159183,1.278459760024845,-0.28354219715016005,-0.06274647794725,-0.040098451422404854,0.9560642322218733,0.5000041976438221,0.22567893635182748,-0.019961140172692807,-0.008607623196523438,-0.07204720734607184,0.02407828171954571,0.19967363561508097,-0.15000287680701652,0.09950681301997599,0,5.399900000001399,1.75,-3.9799747470500266e-05,-0.04997915342387482,0.9987499437230536,0.0007953315097043137
6100,-0.06855839301538132,-1.3748225906585094,1.284954630031653,-0.28965183397065897,-0.06283244542014113,-0.04093423558483337,0.9541898591145497,0.5000036286279117,0.23819714065652225,-0.01925142174639512,-0.008795474117812127,-0.07227805202590071,0.024023372081942104,0.19969946024651872,-0.15000313832503465,0.0995003588951563,0,5.389900000001422,1.75,-3.9799747470500266e-05,-0.04997915342387482,0.9987499437230536,0.0007953315097043137
6200,-0.07037276385617586,-1.3826220529365905,1.2913955045527143,-0.295697740720416,-0.0628531519249371,-0.04173864031415004,0.952297334518305,0.5000038219053123,0.25059653175413116,-0.01855603883842799,-0.008999976001479247,-0.0724731354695354,0.023983087155847276,0.19972252230861412,-0.15000224049643715,0.09949093258887896,0,5.379900000001445,1.75,-3.9799747470500266e-05,-0.04997915342387482,0.9987499437230536,0.0007953315097043137
6300,-0.07225020203613632,-1.3903419346848946,1.2977213048892287,-0.3016514313643461,-0.06286895374894547,-0.04255176711182366,0.9503911067166061,0.5000034496867239,0.26281900457567314,-0.017844969001369598,-0.009207153103175054,-0.07267628789136715,0.023971040249321434,0.19975105198952975,-0.1500026455347445,0.09948139248865186,0,5.3699000000014685,1.75,-3.9799747470500266e-05,-0.04997915342387482,0.9987499437230536,0.0007953315097043137
6400,-0.07447789575240789,-1.3982022794045528,1.3031442546964376,-0.30681255038500216,-0.06293486791863746,-0.043399456886921484,0.948694760430474,0.5000029546315369,0.27347512776103183,-0.017282204355172363,-0.00932800732792211,-0.07289842400367245,0.024013336150864234,0.19968821935383738,-0.15000208114973715,0.09947796836819088,0,5.359900000001492,1.75,-3.9799747470500266e-05,-0.04997915342387482,0.9987499437230536,0.0007953315097043137
6500,-0.07645048115841073,-1.4054296931753347,1.3103526591061532,-0.31360043517517977,-0.06287679047236769,-0.04426142177379283,0.9464365815100314,0.5000260046477759,0.28748315811071656,-0.016575233813033042,-0.009544248048642526,-0.07308735027466956,0.024043707321581287,0.1997243828421489,-0.150002101447617,0.0994681413052796,0,5.349900000001515,1.75,-3.9799747470500266e-05,-0.04997915342387482,0.9987499437230536,0.0007953315097043137
6600,-0.07787172740876884,-1.4130554079549702,1.316338757174463,-0.3192763872813922,-0.06288584640653207,-0.04498892029334998,0.9445019618280923,0.5000511383987708,0.299222280599362,-0.01595736057747852,-0.009712596972619772,-0.07327861247091877,0.023978555784235907,0.19974708312968548,-0.15000163509436726,0.09945779728193761,0,5.339900000001538,1.75,-3.9799747470500266e-05,-0.04997915342387482,0.9987499437230536,0.0007953315097043137
6700,-0.07989986472286889,-1.4204951162988526,1.3223545566117938,-0.3249954845016753,-0.0629013933217145,-0.04583340770988768,0.9425076384355766,0.5000035363133488,0.31109718383154406,-0.015231489701084523,-0.009917253141194066,-0.07349496463368481,0.023956436489349742,0.199785772169468,-0.15000314884507435,0.0994534421991101,0,5.329900000001562,1.75,-3.9799747470500266e-05,-0.04997915342387482,0.9987499437230536,0.0007953315097043137
6800,-0.08120709675724445,-1.4269684864225303,1.330490118612791,-0.33267240054053693,-0.062804284491698,-0.04663148726026183,0.9397926367896157,0.5000051262490879,0.32727493743830244,-0.014812984031918955,-0.009997710470150653,-0.07367443942204514,0.024267707408772158,0.19970865595484688,-0.150001340205177,0.09944150983990308,0,5.319900000001585,1.75,-3.9799747470500266e-05,-0.04997915342387482,0.9987499437230536,0.0007953315097043137
6900,-0.08233942282168759,-1.4332071648307934,1.3393305771518045,-0.34103678532398496,-0.06269683979615204,-0.047440485032566294,0.9367563278224132,0.5000056058362635,0.3450416383010808,-0.014514640094412333,-0.010008586880719253,-0.0738668340762633,0.024275076083331758,0.19945567596284308,-0.15000116323521676,0.09943024186206852,0,5.309900000001608,1.75,-3.9799747470500266e-05,-0.04997915342387482,0.9987499437230536,0.0007953315097043137
7000,-0.08355772213497271,-1.4393422083871374,1.3478853555505776,-0.34915863239807954,-0.06255957571149766,-0.04824765633004262,0.9337273223845163,0.5000064425506966,0.36226783306988264,-0.014078672787029855,-0.010096433592565165,-0.07404686433817839,0.024269202618116166,0.19942496230258275,-0.15000203304970688,0.09941631794326686,0,5.299900000001632,1.75,-3.9799747470500266e-05,-0.04997915342387482,0.9987499437230536,0.0007953315097043137
7100,-0.08484398838642254,-1.4453961238466573,1.3561958867515964,-0.3570771438923226,-0.06239674195094541,-0.04905247108193614,0.9306967363133732,0.5000049295767593,0.3790893399314479,-0.013604808592738112,-0.010210127550859609,-0.07421589280235621,0.024274885410604206,0.19942389290902152,-0.1500017954596721,0.0993998062255646,0,5.289900000001655,1.75,-3.9799747470500266e-05,-0.04997915342387482,0.9987499437230536,0.0007953315097043137
7200,-0.086206326346173,-1.4513811383076303,1.36424042744418,-0.36480128467365136,-0.062273035005749294,-0.04987928612407746,0.9276605783514673,0.5000050457020719,0.3955294688991612,-0.013073112363785543,-0.010335401373803711,-0.07440953313618759,0.024251105125898273,0.19942705109124473,-0.15000202867971005,0.09938351477296892,0,5.279900000001678,1.75,-3.9799747470500266e-05,-0.04997915342387482,0.9987499437230536,0.0007953315097043137
7300,-0.08680122156250875,-1.4547098837599926,1.3692619286137109,-0.3688158339398586,-0.06237781264295258,-0.05040560673904609,0.926036264913203,0.5007751175819432,0.4000420041628535,-0.008615810585601295,-0.011174323996179783,-0.07461509538892253,0.024557813820732646,0.200013178214497,-0.15007806325382128,0.099191335433312,0,5.269900000001702,1.75,-3.9799747470500266e-05,-0.04997915342387482,0.9987499437230536,0.0007953315097043137
7400,-0.08724691147072296,-1.4546031520564624,1.3689460427155746,-0.36869031053939955,-0.06246023493242928,-0.05057015260147453,0.9260717216460129,0.5007566636486009,0.40000977670500654,-0.008766442378217209,-0.011173477712263798,-0.07468710795258955,0.02650572787895203,0.20000224260661992,-0.15000406983799577,0.09913649187952901,0,5.259900000001725,1.75,-3.9799747470500266e-05,-0.04997915342387482,0.9987499437230536,0.0007953315097043137
7500,-0.08761180769238422,-1.4544721629922883,1.3696971440875256,-0.36883027095527915,-0.06138792483329987,-0.050463354183559815,0.9260935178459361,0.50077430843417,0.3999967281264234,-0.00919039581718916,-0.011164205260581135,-0.0741515796817963,0.030165711423269813,0.20000569462764634,-0.15001067779043095,0.0990479971233175,0,5.249900000001748,1.75,-3.9799747470500266e-05,-0.04997915342387482,0.9987499437230536,0.0007953315097043137
7600,-0.08827605542563527,-1.4543695625514403,1.3695743306226487,-0.36882642331608995,-0.06119993721634227,-0.05066771121454588,0.9260963341838988,0.5007829112284135,0.40025045274373294,-0.009564893090874285,-0.0111520027859856,-0.07411705023203419,0.03275039565456276,0.20000394798260437,-0.1500038502286883,0.09902193083013783,0,5.2399000000017715,1.75,-3.9799747470500266e-05,-0.04997915342387482,0.9987499437230536,0.0007953315097043137
7700,-0.08896213414580671,-1.4543671120821036,1.369638320521667,-0.3689098916368309,-0.0611002271546667,-0.05091915117739838,0.9260558806775772,0.5008529305151969,0.40029072020499634,-0.009528277723843912,-0.011158793201452214,-0.07406218152500192,0.035581161119662495,0.20000210773552357,-0.15001926124990259,0.09894540120137325,0,5.229900000001795,1.75,-3.9799747470500266e-05,-0.04997915342387482,0.9987499437230536,0.0007953315097043137
7800,-0.09045693679776347,-1.4547847815481236,1.3695386137095449,-0.3692016096319403,-0.062371861204465195,-0.05184440128947038,0.9258034782987217,0.5008185875458759,0.4001771444594538,-0.007785113846593501,-0.011181422099177532,-0.07347931984519077,0.03744756523171334,0.19983313534915062,-0.15002066442304185,0.09895118689099594,0,5.219900000001818,1.75,-3.9799747470500266e-05,-0.04997915342387482,0.9987499437230536,0.0007953315097043137
7900,-0.09197028173403139,-1.455234150023579,1.3693075910643113,-0.3694869775564425,-0.06368812512354162,-0.05279557612084181,0.9255462296808957,0.5008246208460987,0.40017878480780517,-0.006177262443346123,-0.011205545666607766,-0.07220010023840946,0.03816805369365636,0.1998933641318144,-0.1500201016386632,0.09901686928577433,0,5.209900000001841,1.75,-3.9799747470500266e-05,-0.04997915342387482,0.9987499437230536,0.0007953315097043137
8000,-0.0932711679868002,-1.455689900104997,1.3692359868617963,-0.36979204191345016,-0.06481910112321945,-0.05362628175770835,0.9252980880623832,0.5008022660416689,0.40021014344633565,-0.00466367862203511,-0.011228061958848744,-0.07158137511369671,0.041800462975558825,0.19642750570018672,-0.15000546720137892,0.0990447029799931,0,5.199900000001865,1.75,-3.9799747470500266e-05,-0.04997915342387482,0.9987499437230536,0.0007953315097043137
8100,-0.0937819804219932,-1.455919109279487,1.36941829799908,-0.3699725761759867,-0.06518017678104793,-0.053960010596435154,0.925181146959301,0.5008544104940593,0.40000923900688135,-0.0038369543622232194,-0.01123713927166343,-0.07174786243145746,0.053628209118098825,0.17983075442405602,-0.15000310263977862,0.09885006069893819,0,5.189900000001888,1.75,-3.9799747470500266e-05,-0.04997915342387482,0.9987499437230536,0.0007953315097043137
8200,-0.09426001370724282,-1.4559163347256268,1.3693124691853646,-0.3699604409085574,-0.0653667167792498,-0.054218184049462895,0.9251577449379245,0.5007673388845608,0.40000211273048414,-0.003619318996365321,-0.01123551799715857,-0.07190508715505772,0.0667148984605145,0.16078576858205282,-0.15007162184393974,0.09861009625559318,0,5.179900000001911,1.75,-3.9799747470500266e-05,-0.04997915342387482,0.9987499437230536,0.0007953315097043137
8300,-0.09471033055408427,-1.4558437791974654,1.3690845872675073,-0.3698933539062524,-0.06549074315928417,-0.05444806073945578,0.9251622981824006,0.500726815859529,0.4000011681491288,-0.003628125311831407,-0.01121811895799965,-0.07197015042011569,0.07960824703747894,0.14170469595926924,-0.1500658746476249,0.0984015893645187,0,5.169900000001935,1.75,-3.9799747470500266e-05,-0.04997915342387482,0.9987499437230536,0.0007953315097043137
8400,-0.09512756799714356,-1.4557631971136045,1.3688412174259474,-0.3698311735126315,-0.06561012169294217,-0.054672607684302946,0.9251654560124397,0.5007226791894874,0.4000049570793132,-0.003673414619151886,-0.011201816380977002,-0.07199900466412694,0.09190939308477877,0.12352401042590257,-0.15001360334731564,0.0982395386282096,0,5.159900000001958,1.75,-3.9799747470500266e-05,-0.04997915342387482,0.9987499437230536,0.0007953315097043137
8500,-0.09541087184744433,-1.455661860028363,1.3688539667424258,-0.36977613394562325,-0.06544416527552954,-0.05478821115222604,0.9251923713014266,0.5006024954845006,0.4000017635157779,-0.003761999527625868,-0.011206143456784829,-0.07198852892420661,0.10578396907905842,0.10173971917289293,-0.1500348481466585,0.0980902709534571,0,5.149900000001981,1.75,-3.9799747470500266e-05,-0.04997915342387482,0.9987499437230536,0.0007953315097043137
8600,-0.09563353362441367,-1.4554913943075936,1.3691023408328509,-0.36979170089643576,-0.06481640625094919,-0.054792248800895275,0.9252301015964481,0.500646485715431,0.4000055319988723,-0.004177615178200912,-0.011231301334791074,-0.07202844775588038,0.12269415434800429,0.07331713359810306,-0.15001257193233214,0.09790788482053142,0,5.1399000000020045,1.75,-3.9799747470500266e-05,-0.04997915342387482,0.9987499437230536,0.0007953315097043137
8700,-0.09603401156727022,-1.455223404032266,1.3695176372449736,-0.369800338181103,-0.06387152063939096,-0.054752319924125985,0.9252947218023455,0.5006496950463577,0.40000691099954494,-0.004810167777112045,-0.01119970651493275,-0.07221237981441138,0.14145176349625316,0.0407480160068369,-0.15007104067440977,0.09778552192234623,0,5.129900000002028,1.75,-3.9799747470500266e-05,-0.04997915342387482,0.9987499437230536,0.0007953315097043137
8800,-0.09654026265063667,-1.4550896802188076,1.3690295584447272,-0.3696926339257236,-0.06410351494160499,-0.055046411046056246,0.9253042680243839,0.5007104691352228,0.4000577060535909,-0.004957798048166118,-0.011223695313074692,-0.07219090817575999,0.15082508387473856,0.027415374304266518,-0.1500003832617534,0.09771783926212355,0,5.119900000002051,1.75,-3.9799747470500266e-05,-0.04997915342387482,0.9987499437230536,0.0007953315097043137
8900,-0.09706492321852983,-1.4549452008037496,1.3686932503475322,-0.36959837470805423,-0.06415482933575191,-0.05531468713745832,0.9253223679739674,0.5007509711122369,0.4000573864037751,-0.005133613898685635,-0.01123094706801578,-0.0724205376870889,0.15956282785719886,0.016761632808771444,-0.15000672610280583,0.09756562043262908,0,5.1099000000020744,1.75,-3.9799747470500266e-05,-0.04997915342387482,0.9987499437230536,0.0007953315097043137
9000,-0.097384866558222,-1.4548619735969472,1.368996092216632,-0.36964848994978533,-0.06371417567782747,-0.05538365745165331,0.9253286703560072,0.5006073947462392,0.4002186362009664,-0.005322823895808386,-0.011229010186742352,-0.07258908798991817,0.1690558918828294,0.00615069480809102,-0.1500277933204485,0.09751513219306956,0,5.099900000002098,1.75,-3.9799747470500266e-05,-0.04997915342387482,0.9987499437230536,0.0007953315097043137
9100,-0.09754332737064912,-1.4547812186687272,1.3691038999331044,-0.36967856630326557,-0.06324636188412393,-0.05538849064460375,0.9253484589215553,0.5008825176188094,0.40005961686545727,-0.005689304352779625,-0.011220199841761336,-0.07309416315220663,0.17934722953011656,-0.0049795301100790034,-0.15000648853965898,0.09738662830312315,0,5.089900000002121,1.75,-3.9799747470500266e-05,-0.04997915342387482,0.9987499437230536,0.0007953315097043137
9200,-0.09770989363066546,-1.454655979954829,1.3693675516482862,-0.36967733195856783,-0.06276525742083434,-0.05537937452226362,0.9253822548408923,0.5008366573294015,0.40000216999318244,-0.0059099569254138515,-0.011210927766898198,-0.07356390397770966,0.18919416937515657,-0.015442480727164979,-0.150001165018735,0.09726314547553407,0,5.079900000002144,1.75,-3.9799747470500266e-05,-0.04997915342387482,0.9987499437230536,0.0007953315097043137
9300,-0.09796938542960704,-1.4544910093077275,1.3697360317199039,-0.3697160316113329,-0.062343558956879035,-0.05543594378893918,0.925391913062994,0.5006419605800808,0.40006017050297404,-0.0059570829977165255,-0.011208648496965836,-0.07376246832669742,0.19805680693579833,-0.02505293444667926,-0.15000477453014446,0.09723521950169733,0,5.069900000002168,1.75,-3.9799747470500266e-05,-0.04997915342387482,0.9987499437230536,0.0007953315097043137
9400,-0.09829687052199303,-1.4544864023570792,1.3701686269030773,-0.3698590392342927,-0.06187899813173354,-0.055504409365508295,0.9253618434039114,0.5006479112550444,0.4001197124273537,-0.005998326225014837,-0.011211036418598072,-0.07037716989024062,0.200011933998691,-0.0314834527083049,-0.15001201954889784,0.0972729457158338,0,5.059900000002191,1.75,-3.9799747470500266e-05,-0.04997915342387482,0.9987499437230536,0.0007953315097043137
9500,-0.09856790381586394,-1.4544894931509136,1.3707024521317681,-0.3700151543891683,-0.061397488515740097,-0.05555130620170698,0.9253286909555997,0.5006909185644457,0.40000317060455925,-0.005895230001136877,-0.011204413665511444,-0.06600670240391786,0.20001294217933532,-0.0369371365877338,-0.1500112432043531,0.09732655739955212,0,5.049900000002214,1.75,-3.9799747470500266e-05,-0.04997915342387482,0.9987499437230536,0.0007953315097043137
9600,-0.09882601341624805,-1.4544675232905109,1.3711590189310754,-0.3701513050022834,-0.06093410991329185,-0.05559835781308739,0.9253020416397391,0.5006840368550526,0.4000306245725246,-0.0059185201188630444,-0.011196987545671585,-0.061621516805431646,0.20001260609550597,-0.04253368036249601,-0.15000892902199384,0.09738554875099562,0,5.039900000002238,1.75,-3.9799747470500266e-05,-0.04997915342387482,0.9987499437230536,0.0007953315097043137
9700,-0.09903349919450241,-1.4544280143519939,1.371565859690718,-0.37027116964897916,-0.06045628078275928,-0.05562253495142133,0.92528397405676,0.5005842250754954,0.40027476412194934,-0.006115070048148561,-0.011183341915838405,-0.05723120268977802,0.20001155505668117,-0.0481556552145653,-0.1500049241998474,0.09743801742676696,0,5.029900000002261,1.75,-3.9799747470500266e-05,-0.04997915342387482,0.9987499437230536,0.0007953315097043137
9800,-0.09908213587916145,-1.454358307002085,1.3720484477995467,-0.37035659929306836,-0.05992515725321119,-0.05557624873441355,0.9252871151512173,0.5006279919684098,0.4000586389681687,-0.00610742247803158,-0.011180234656414096,-0.052938548983355316,0.20001070378098115,-0.05336332323749814,-0.1500105748170677,0.09749101856987079,0,5.019900000002284,1.75,-3.9799747470500266e-05,-0.04997915342387482,0.9987499437230536,0.0007953315097043137
9900,-0.09894999169927406,-1.454322769128441,1.372598462083075,-0.37047404417572094,-0.059279295410672964,-0.05542362433290123,0.9252908567545156,0.5006641366060799,0.4000184087417491,-0.006285479851334447,-0.01117182468126069,-0.04884523233742748,0.20001299719387935,-0.057806371585756036,-0.15001082643718336,0.09754628174770127,0,5.0099000000023075,1.75,-3.9799747470500266e-05,-0.04997915342387482,0.9987499437230536,0.0007953315097043137
10000,-0.0988655561288979,-1.4543218301109453,1.3732786285690735,-0.37063618661220354,-0.05860615773120294,-0.055271323507630254,0.9252779129792649,0.5006545383202624,0.4000053013825482,-0.0063647980786519206,-0.01116318529134475,-0.044988911303896546,0.20001243729393295,-0.06162204857542606,-0.1500094420680182,0.09761052660806752,0,4.999900000002331,1.75,-3.9799747470500266e-05,-0.04997915342387482,0.9987499437230536,0.0007953315097043137
10100,-0.0988175930246221,-1.454317059219667,1.3739001304790084,-0.3707938419510863,-0.05792837015457186,-0.05512061147396549,0.9252664204936456,0.5007017255550518,0.4000006780831603,-0.006521447494692218,-0.011154607996796143,-0.041105424772955215,0.2000103061773826,-0.06551447453916401,-0.15001061922229905,0.09765594683486313,0,4.989900000002354,1.75,-3.9799747470500266e-05,-0.04997915342387482,0.9987499437230536,0.0007953315097043137
10200,-0.09876004988146833,-1.4542854374642307,1.3745100036980002,-0.3709684048749513,-0.05725614550465793,-0.05497256072483902,0.9252470988626971,0.5007217411211818,0.40013551150961046,-0.0067508461442702065,-0.011143054701292449,-0.03729580803430321,0.20001033569679771,-0.06927180057049225,-0.1500105842349429,0.09770642275767165,0,4.979900000002377,1.75,-3.9799747470500266e-05,-0.04997915342387482,0.9987499437230536,0.0007953315097043137
10300,-0.09869239883414896,-1.4542507933280464,1.3751806209079402,-0.37110866462582587,-0.05659260960282648,-0.054817490507000376,0.9252408758331494,0.500725271381589,0.40001873001563276,-0.006779192406997671,-0.011132796023753408,-0.03346918887070848,0.20001347642487882,-0.07312194431832814,-0.15000933623904306,0.09776514350528237,0,4.969900000002401,1.75,-3.9799747470500266e-05,-0.04997915342387482,0.9987499437230536,0.0007953315097043137
10400,-0.0985704377378985,-1.4542138927284227,1.3759556084626057,-0.37127080253600075,-0.0558711529595394,-0.05462786906691345,0.925230890844255,0.500636421018694,0.40000452784547225,-0.0068052933555054615,-0.011126346348989596,-0.029885070300592866,0.20001746598948883,-0.07615999602765025,-0.150020391393212,0.0978219227170773,0,4.959900000002424,1.75,-3.9799747470500266e-05,-0.04997915342387482,0.9987499437230536,0.0007953315097043137
10500,-0.09827381708909459,-1.4542030612993553,1.3768872830914887,-0.371482913390156,-0.05501102927985909,-0.05433876539112204,0.9252143158709235,0.5005867604232187,0.4000021259328887,-0.006879835049955653,-0.011113078877368005,-0.026784497229540565,0.20002239415897707,-0.07746429135251878,-0.15001503072258784,0.09786819448160271,0,4.949900000002447,1.75,-3.9799747470500266e-05,-0.04997915342387482,0.9987499437230536,0.0007953315097043137
10600,-0.09794359891301131,-1.454186259578366,1.3777266286330279,-0.37167575117732066,-0.054165104639758245,-0.054044777330684,0.9252039988399398,0.5005940903503631,0.40000173057722505,-0.007047251195713635,-0.011098860971441775,-0.023646547403243345,0.20001988219161798,-0.07887082091627606,-0.1500138047865257,0.09791618429387043,0,4.939900000002471,1.75,-3.9799747470500266e-05,-0.04997915342387482,0.9987499437230536,0.0007953315097043137
10700,-0.09759794312094247,-1.454157065946863,1.378487447466023,-0.3718623658995297,-0.05333370253480568,-0.053752346298695464,0.9251943483770955,0.5006314051522929,0.4000766247978285,-0.007327944113575951,-0.011081791053277161,-0.020472847176530463,0.2000102727477404,-0.08037753162141585,-0.15000661571230622,0.09796751831063004,0,4.929900000002494,1.75,-3.9799747470500266e-05,-0.04997915342387482,0.9987499437230536,0.0007953315097043137
10800,-0.097426765294272,-1.4541224984585508,1.3790617767945899,-0.37196287892163316,-0.05267917563374912,-0.05356443383050816,0.9252023414298605,0.5006362785837797,0.4000031974464143,-0.007489415348628087,-0.011068209114136914,-0.016712546456538992,0.20001096228634208,-0.08410103937803295,-0.15000116274052147,0.09802805541016835,0,4.919900000002517,1.75,-3.9799747470500266e-05,-0.04997915342387482,0.9987499437230536,0.0007953315097043137
10900,-0.09753866656687782,-1.4540239591108914,1.3792452605748786,-0.37197441137479514,-0.052353371455954825,-0.053563046050403504,0.925216278432979,0.5006092872852732,0.40000772818456914,-0.007656264587260934,-0.011057721627511648,-0.011762038420633798,0.20000671494799813,-0.09233057189850717,-0.15009221379880863,0.0977914357678096,0,4.909900000002541,1.75,-3.9799747470500266e-05,-0.04997915342387482,0.9987499437230536,0.0007953315097043137
11000,-0.09765061748911079,-1.4539272967545316,1.3794533045226858,-0.3719820833217542,-0.05205867530627815,-0.053564957015864896,0.9252297116894007,0.5005273713641023,0.40000489608317374,-0.007742846179940313,-0.011051497641929076,-0.006714071145696192,0.20000282107294087,-0.10112777829444827,-0.15000499211699264,0.09755133545663121,0,4.899900000002564,1.75,-3.9799747470500266e-05,-0.04997915342387482,0.9987499437230536,0.0007953315097043137
11100,-0.0977587395533884,-1.4538329152232141,1.3796566290234098,-0.37199305974719077,-0.051767901563498725,-0.05356779302009008,0.925241449254513,0.5004552552434474,0.40000607472775584,-0.00783295712921923,-0.011046213921650864,-0.0027178889082857616,0.20000378838804783,-0.10728029981023304,-0.1500403969013887,0.0973314429306362,0,4.889900000002587,1.75,-3.9799747470500266e-05,-0.04997915342387482,0.9987499437230536,0.0007953315097043137
11200,-0.0978412423956378,-1.4537511302797261,1.3798962299317035,-0.37205998013297686,-0.051329031762497625,-0.0535396832716814,0.9252406195130765,0.5005620331388233,0.40000136383648444,-0.00805298286195144,-0.011055455950615347,0.0004828550575573146,0.20001820311758528,-0.11068559764008634,-0.1500135272421446,0.09733855395264655,0,4.8799000000026105,1.75,-3.9799747470500266e-05,-0.04997915342387482,0.9987499437230536,0.0007953315097043137
11300,-0.09797043767560819,-1.453631780330411,1.3801264690236,-0.3720781076483685,-0.05092612171299476,-0.05353850949649545,0.9252556619318663,0.5005425850630799,0.4000043754790886,-0.008269985609712364,-0.011036090140575442,0.003724018170263761,0.20000557540349861,-0.1140972678516629,-0.1500003815515447,0.09740404394624051,0,4.869900000002634,1.75,-3.9799747470500266e-05,-0.04997915342387482,0.9987499437230536,0.0007953315097043137
11400,-0.09807692811579416,-1.4535306597930404,1.3803196061472025,-0.3721028685421266,-0.05064051196032516,-0.053544944194510564,0.925261007890381,0.5005157335669287,0.4000045182949087,-0.008371255095051792,-0.011031333523286958,0.007375326264612806,0.20001677774851762,-0.11913630504862395,-0.15000301396816895,0.0973079049897977,0,4.859900000002657,1.75,-3.9799747470500266e-05,-0.04997915342387482,0.9987499437230536,0.0007953315097043137
11500,-0.09800447196450718,-1.4534064245294942,1.3800925315984114,-0.37201723875080894,-0.05077149993673828,-0.05362721272987644,0.9252834975947761,0.5004792900189601,0.40000045062997136,-0.008422021602113815,-0.011030812294917822,0.012228848493576224,0.20000606901565057,-0.1288975593556214,-0.15006415706302967,0.0970731846975265,0,4.84990000000268,1.75,-3.9799747470500266e-05,-0.04997915342387482,0.9987499437230536,0.0007953315097043137
11600,-0.09792155955634504,-1.4532594175882887,1.379741994631358,-0.37188402942469584,-0.050928621251176066,-0.05373888483929524,0.925321931250165,0.5004432315075243,0.4000075620506924,-0.008573697594546915,-0.011028295532095106,0.01697400725843188,0.20000643945455115,-0.13856093357645358,-0.15017008557628833,0.09682587672916561,0,4.839900000002704,1.75,-3.9799747470500266e-05,-0.04997915342387482,0.9987499437230536,0.0007953315097043137
11700,-0.09782614725513047,-1.4530840642972538,1.3793306836680388,-0.37173251448197475,-0.051103749723743694,-0.053873102911543166,0.92536535121203,0.500419675376814,0.40000640946790694,-0.008747717407266674,-0.011037241614020423,0.021638923197566974,0.20000668452210948,-0.14824354601112147,-0.15000672652665942,0.09652371063078681,0,4.829900000002727,1.75,-3.9799747470500266e-05,-0.04997915342387482,0.9987499437230536,0.0007953315097043137
11800,-0.09771257623779889,-1.4528833854531233,1.3788595646225785,-0.3715561469532264,-0.05129930543929319,-0.05403068827217329,0.9254161742954106,0.5003909138018608,0.4000003559569831,-0.008954159325023615,-0.011040232716208848,0.02617081181129148,0.2000059572002276,-0.15771318120101005,-0.15002454195679427,0.09620105187433038,0,4.81990000000275,1.75,-3.9799747470500266e-05,-0.04997915342387482,0.9987499437230536,0.0007953315097043137
11900,-0.09733926622065878,-1.452243342274518,1.3767885829473248,-0.37086130015962987,-0.0523446405009102,-0.054583059294205594,0.9256039240910902,0.5003644324111238,0.40007192385661056,-0.00978345491724313,-0.011056965896474666,0.032214929448659516,0.20000492449017523,-0.1741585881791787,-0.15001812845149684,0.0959282024733041,0,4.809900000002774,1.75,-3.9799747470500266e-05,-0.04997915342387482,0.9987499437230536,0.0007953315097043137
12000,-0.0964192722297966,-1.4507427719455224,1.3717747517682797,-0.3691395343269471,-0.05459416650246132,-0.05565205941795035,0.9260984448012679,0.5005755837237506,0.4000074219082162,-0.012126429490905586,-0.01109668638773828,0.04075825607649974,0.19923203976536527,-0.2000248576740387,-0.15002292916338508,0.09582995836171292,0,4.799900000002797,1.75,-3.9799747470500266e-05,-0.04997915342387482,0.9987499437230536,0.0007953315097043137
12100,-0.09628190419104289,-1.4506284086644368,1.3722575036428437,-0.36921186716859405,-0.053903144058547556,-0.05548040593654088,0.9261203878328133,0.5005880482623937,0.4000077178436247,-0.012444947576659126,-0.01108611230310855,0.0428825580532603,0.19914826704272606,-0.20002752643404598,-0.15002415363086816,0.09590172914213624,0,4.78990000000282,1.75,-3.9799747470500266e-05,-0.04997915342387482,0.9987499437230536,0.0007953315097043137
12200,-0.09613809883294065,-1.4505138756929246,1.3727572566941681,-0.3692888585662132,-0.05320788687829572,-0.05530498808099792,0.9261403878495801,0.5005956547917125,0.4000065660940429,-0.012748330498840667,-0.011075717442873317,0.045050993716843596,0.19903685910135793,-0.2000304927167991,-0.15002547192196117,0.09597605885876347,0,4.7799000000028435,1.75,-3.9799747470500266e-05,-0.04997915342387482,0.9987499437230536,0.0007953315097043137
12300,-0.0961701281683723,-1.4504268902043955,1.3730625886262013,-0.36938300671270236,-0.05267852006027417,-0.055247090231988684,0.9261365595294473,0.500747774497614,0.4000112845554502,-0.013033125307497433,-0.011077321251620753,0.04706757726373387,0.19887911255367752,-0.20003594384480725,-0.15001010574037174,0.0960415087878129,0,4.769900000002867,1.75,-3.9799747470500266e-05,-0.04997915342387482,0.9987499437230536,0.0007953315097043137
12400,-0.096756091032209,-1.4504091724756456,1.3733275363533892,-0.3695019961058494,-0.05247844075356041,-0.05549722434460093,0.9260854961718777,0.5007442410766104,0.40000444369953186,-0.012682620214722847,-0.01119950739098056,0.0497280286197614,0.19836126696803486,-0.20003560316551253,-0.15000572506207527,0.09608521691706436,0,4.75990000000289,1.75,-3.9799747470500266e-05,-0.04997915342387482,0.9987499437230536,0.0007953315097043137
12500,-0.09702094512125536,-1.4506609411523794,1.3741742794054628,-0.3699719403347858,-0.05240463459299852,-0.05572353104313673,0.9258884412963435,0.5008360750957856,0.4000731387573113,-0.011965802103653278,-0.011112118176300551,0.052551249653200044,0.1960479504114209,-0.20002663906844387,-0.15001901929221187,0.09613987970325481,0,4.7499000000029135,1.75,-3.9799747470500266e-05,-0.04997915342387482,0.9987499437230536,0.0007953315097043137
12600,-0.09774709077182618,-1.4515792836872956,1.3762760318654308,-0.37111968303497733,-0.05247224583383805,-0.05622910677077845,0.9253945816963333,0.5009766252637724,0.4001099153452301,-0.009544295974881807,-0.010853555687701164,0.05604562180389124,0.19258279516841514,-0.20003178858593154,-0.15001582762643378,0.09617175336405094,0,4.739900000002937,1.75,-3.9799747470500266e-05,-0.04997915342387482,0.9987499437230536,0.0007953315097043137
12700,-0.09832317440123856,-1.451798247197681,1.377039655930926,-0.3714979298263104,-0.05240899622299741,-0.05660741690607763,0.9252233166111223,0.5009356991682822,0.4000495676686494,-0.008341887814763787,-0.01082721964340163,0.061284894237911905,0.1876161047157505,-0.20003496936952983,-0.15000753932285432,0.09621254215972955,0,4.72990000000296,1.75,-3.9799747470500266e-05,-0.04997915342387482,0.9987499437230536,0.0007953315097043137
12800,-0.09890422309254883,-1.4520233902836044,1.3776419841915999,-0.3718618007828885,-0.052463662865401973,-0.056997403940933715,0.9250500857473863,0.5009613571731042,0.40000686001186675,-0.006969101760311124,-0.010654436098253735,0.06643968902582938,0.18070563198890027,-0.20003800144225017,-0.15000470067517066,0.09627206542389574,0,4.719900000002983,1.75,-3.9799747470500266e-05,-0.04997915342387482,0.9987499437230536,0.0007953315097043137
12900,-0.09945683620146543,-1.45215571760487,1.3779244682138039,-0.37210251781299986,-0.052525382486428206,-0.0573482361548208,0.9249280946332052,0.5010136885618602,0.40000676742805613,-0.005389668297016424,-0.010356664201352714,0.07056364103254827,0.17351970775660372,-0.20003974268233285,-0.15000162369360356,0.09635117424150311,0,4.709900000003007,1.75,-3.9799747470500266e-05,-0.04997915342387482,0.9987499437230536,0.0007953315097043137
13000,-0.09987276592781764,-1.4521993171985208,1.3780164921696085,-0.3722197494228454,-0.052486694926283765,-0.0575725728863036,0.9248691820179546,0.501075152912458,0.4000085660157297,-0.00413572916442743,-0.009770857529573096,0.07384304137877017,0.16715349340921407,-0.2000459228113806,-0.15000927738296702,0.09638283006270133,0,4.69990000000303,1.75,-3.9799747470500266e-05,-0.04997915342387482,0.9987499437230536,0.0007953315097043137
13100,-0.10002397803370666,-1.452367270972427,1.3784642267576117,-0.37252154118178027,-0.05286916763314272,-0.05799783057557541,0.924699304702808,0.5009014858434001,0.4001750299320983,-0.003950526184955574,-0.009247847000040908,0.08550986789383067,0.15073221517199653,-0.2000185273213694,-0.1500111249714383,0.0963780704616355,0,4.689900000003053,1.75,-3.9799747470500266e-05,-0.04997915342387482,0.9987499437230536,0.0007953315097043137
13200,-0.10042007912078138,-1.4525286139540163,1.3786638480972409,-0.37279770080176017,-0.05378981386869425,-0.058916118589348955,0.9244768364709082,0.5007688700435231,0.3999960674215335,-0.004112256873626083,-0.00863176665058518,0.10246668295873014,0.127909783452585,-0.20001800912905332,-0.1500055521604643,0.09641968308211792,0,4.679900000003077,1.75,-3.9799747470500266e-05,-0.04997915342387482,0.9987499437230536,0.0007953315097043137
13300,-0.10183726671024804,-1.452323952178825,1.376552892067535,-0.372573956430145,-0.05615209654965225,-0.06077275294033693,0.9243063677932333,0.5007138646327339,0.4002936045329593,-0.0035014066557242447,-0.007511646557797124,0.1317430250507588,0.07649074702455014,-0.2000113152531158,-0.15000183895442573,0.09646607451046718,0,4.6699000000031,1.75,-3.9799747470500266e-05,-0.04997915342387482,0.9987499437230536,0.0007953315097043137
13400,-0.10168282131690586,-1.4508362843371796,1.3711665900854277,-0.37089404261724285,-0.0596368667772309,-0.0628428721699868,0.9246252358060861,0.5004223338613979,0.4000789569471641,-0.0023230531396579014,-0.007172938328225022,0.17120003477350318,0.004139938954070572,-0.20013025725614933,-0.15006968851097327,0.09640414761715778,0,4.659900000003123,1.75,-3.9799747470500266e-05,-0.04997915342387482,0.9987499437230536,0.0007953315097043137
13500,-0.10089710500435232,-1.4497207422432623,1.3679188507409783,-0.3697207267878569,-0.06103757904791604,-0.06357043330059103,0.9249539437925562,0.5004407268780042,0.4000040619189194,-0.003507443568190087,-0.006870314334701421,0.18996080016397107,-0.028106269092985536,-0.2000505149420267,-0.150053199233387,0.09639225703570084,0,4.6499000000031465,1.75,-3.9799747470500266e-05,-0.04997915342387482,0.9987499437230536,0.0007953315097043137
13600,-0.10332828814647395,-1.4521659247259409,1.372264725270415,-0.3723644841937092,-0.061345482862559246,-0.06443266682252614,0.9238126726180204,0.5015058047942339,0.4000884084270081,-0.0007837344460359763,-0.01079390636071287,0.20889945667253781,-0.04347007955376431,-0.20011746755242482,-0.14805797347225852,0.09628983929658336,0,4.63990000000317,1.75,-3.9799747470500266e-05,-0.04997915342387482,0.9987499437230536,0.0007953315097043137
13700,-0.10338132064100447,-1.4520735791155288,1.3726262077665585,-0.37223014199237936,-0.061371162110455166,-0.06464052260820108,0.9238505856958061,0.5006793866711622,0.4000370535770793,-0.00024737681075766933,-0.009328351213234663,0.2128172513968102,-0.04859861123391134,-0.20002368970650652,-0.15006872569835075,0.0961261764061859,0,4.629900000003193,1.75,-3.9799747470500266e-05,-0.04997915342387482,0.9987499437230536,0.0007953315097043137
13800,-0.10303548206755028,-1.4519904218311441,1.3720277350581846,-0.37202571773643045,-0.062051826127654267,-0.06480574515651231,0.9238758853935015,0.5003941240157986,0.40019759201559785,-0.00016601311029846484,-0.008784324046131154,0.22916229118647832,-0.07431029443478913,-0.20001752936018297,-0.1500508463453308,0.09618577344582772,0,4.619900000003216,1.75,-3.9799747470500266e-05,-0.04997915342387482,0.9987499437230536,0.0007953315097043137
13900,-0.10272668107106027,-1.4519775452363326,1.3723100288917056,-0.37210034667577047,-0.061600585806755224,-0.06459364531904417,0.9238908814445749,0.5006294935821705,0.4000259993548296,-0.00034052475052116364,-0.008664489436737519,0.24083705245077378,-0.08913228110621176,-0.20000591661370434,-0.15003665063284963,0.09627034629468591,0,4.60990000000324,1.75,-3.9799747470500266e-05,-0.04997915342387482,0.9987499437230536,0.0007953315097043137
14000,-0.10232520363601239,-1.4519489520007853,1.3727825731967023,-0.37219841279351923,-0.06107475323747501,-0.0643197592707094,0.9239053980783556,0.500666970567413,0.4000300327888236,-0.0005590947478655592,-0.007489235334497078,0.2500436200090731,-0.10210073921738205,-0.20001078383477605,-0.1500827778097482,0.09639043330499791,0,4.599900000003263,1.75,-3.9799747470500266e-05,-0.04997915342387482,0.9987499437230536,0.0007953315097043137
14100,-0.10234700689287213,-1.4518885761298777,1.3730152589300297,-0.3722452570758221,-0.060717852231732816,-0.06426490571457179,0.9239138666014369,0.5006718886275785,0.4000707958354637,-0.0009299199261028679,-0.0019658940120448726,0.25003981311806417,-0.11012459552193872,-0.20002457821945693,-0.15007628863830544,0.09656557269825561,0,4.589900000003286,1.75,-3.9799747470500266e-05,-0.04997915342387482,0.9987499437230536,0.0007953315097043137
14200,-0.10237550909145414,-1.4518126726210454,1.3732852041226413,-0.3723227262628278,-0.060313769948532006,-0.06420961860960166,0.9239129621023944,0.5007751136900594,0.4000415278356736,-0.0011489120741280652,0.002924084197208572,0.25000916206517915,-0.11720036211892343,-0.2000058239911869,-0.1500427450122448,0.09672145911508874,0,4.57990000000331,1.75,-3.9799747470500266e-05,-0.04997915342387482,0.9987499437230536,0.0007953315097043137
14300,-0.10223531146572117,-1.451757807408414,1.3737254501385658,-0.3724118060893429,-0.059763563413733956,-0.06405135760938062,0.9239237992181831,0.5007974621920407,0.40002964320583384,-0.0009670501055238537,0.006686301332814307,0.25000402917029374,-0.12288774883221168,-0.20000534954815338,-0.15003113321997116,0.09681175111072256,0,4.569900000003333,1.75,-3.9799747470500266e-05,-0.04997915342387482,0.9987499437230536,0.0007953315097043137
14400,-0.10207676938417275,-1.4517059338165719,1.3742099253781745,-0.37250803491185597,-0.059199227412115495,-0.06387968228459512,0.9239332235562998,0.5007908847603152,0.40002781404403454,-0.000750617593739869,0.010338734103089758,0.25000241498307807,-0.12838107598858833,-0.20000506394453632,-0.15002406719278324,0.09688595569381096,0,4.559900000003356,1.75,-3.9799747470500266e-05,-0.04997915342387482,0.9987499437230536,0.0007953315097043137
14500,-0.1018474013086547,-1.4516635614260878,1.3747589002925777,-0.37262053571625753,-0.058594481761014554,-0.06366723110610666,0.9239410732037888,0.5007807470541032,0.40002849420085623,-0.0005020167747891341,0.013806785172132591,0.2500024070122114,-0.1335309153979455,-0.20000586044067076,-0.15002203262902597,0.0969553645488253,0,4.54990000000338,1.75,-3.9799747470500266e-05,-0.04997915342387482,0.9987499437230536,0.0007953315097043137
14600,-0.10155807301943766,-1.4516315872308008,1.375347917557082,-0.37274158269196067,-0.05795790951345777,-0.06342145281398089,0.9239493019533518,0.5007720849434619,0.40002749697020706,-0.00023239685966999115,0.017115977904718374,0.25000143939942837,-0.13839710487556678,-0.20000530956488657,-0.15001630057444368,0.097016692547501,0,4.539900000003403,1.75,-3.9799747470500266e-05,-0.04997915342387482,0.9987499437230536,0.0007953315097043137
14700,-0.10113709034106559,-1.4516196074578516,1.3760423751250794,-0.3728884029145294,-0.05725619570288868,-0.06310162500586736,0.9239557088665576,0.5007575026374984,0.4000312081414054,8.62217710804701e-05,0.020183504801396256,0.25000369934567795,-0.14281640793452788,-0.20000810964540555,-0.15001885546019755,0.09708439766058746,0,4.529900000003426,1.75,-3.9799747470500266e-05,-0.04997915342387482,0.9987499437230536,0.0007953315097043137
14800,-0.10064528260617597,-1.4516201923907692,1.376776529601455,-0.3730446840969951,-0.05651840468383197,-0.0627432488303242,0.9239624550408874,0.5007514993302734,0.40003066736369497,0.0004287955873216607,0.02308342707919265,0.2500030381399401,-0.14694615534286073,-0.2000074968880246,-0.15001351337835658,0.09714712535863573,0,4.5199000000034495,1.75,-3.9799747470500266e-05,-0.04997915342387482,0.9987499437230536,0.0007953315097043137
14900,-0.10013436981469856,-1.4516237638509866,1.3775199658805204,-0.37320289347518354,-0.05577386302597591,-0.062375156231953215,0.9239687312836674,0.500746116958717,0.4000287948331633,0.0007772586216050374,0.025923871121118065,0.25000195685555937,-0.15096953767007928,-0.20000644396574302,-0.15000822245260004,0.09720035581077696,0,4.509900000003473,1.75,-3.9799747470500266e-05,-0.04997915342387482,0.9987499437230536,0.0007953315097043137
15000,-0.0990881429041651,-1.451788120704258,1.3783303171921233,-0.3733518100750633,-0.05526423919852539,-0.06177390790020707,0.9239795853168071,0.5006190176927454,0.40000965092403806,0.001074696414794538,0.028932692977679666,0.2500044311379598,-0.1534338633158408,-0.20000480260089448,-0.15001362802058835,0.09722389727774407,0,4.499900000003496,1.75,-3.9799747470500266e-05,-0.04997915342387482,0.9987499437230536,0.0007953315097043137
15100,-0.09778568075447278,-1.4518972316967926,1.3797695688296165,-0.3736892719234792,-0.05397070935600501,-0.06096258011604436,0.9239735139096275,0.5006388012054307,0.4000188481779068,0.0018621416646218724,0.029866548526994482,0.2500002082320459,-0.15422577994793,-0.20000678234738814,-0.1500123756833532,0.09715282412802542,0,4.489900000003519,1.75,-3.9799747470500266e-05,-0.04997915342387482,0.9987499437230536,0.0007953315097043137
15200,-0.0965992500423695,-1.4519684622967906,1.380964781705059,-0.3739593771233555,-0.05283651573672293,-0.06023528125120233,0.92397748769053,0.5006248664875192,0.40010713187611563,0.0024237865613021604,0.03142817374265342,0.2500074333035825,-0.15622036813425996,-0.20003022658546107,-0.15000146872518072,0.09710900559059417,0,4.479900000003543,1.75,-3.9799747470500266e-05,-0.04997915342387482,0.9987499437230536,0.0007953315097043137
15300,-0.095789410580762,-1.4519621619787932,1.381519069664216,-0.3740466376516427,-0.05219651211441771,-0.059768806534732495,0.924008834779194,0.5006555948519146,0.4000864266743094,0.0026419620451737704,0.03474664321052016,0.2500088023145967,-0.16178859486276145,-0.2000035098706423,-0.1500008332918963,0.09712658150698487,0,4.469900000003566,1.75,-3.9799747470500266e-05,-0.04997915342387482,0.9987499437230536,0.0007953315097043137
15400,-0.0949455054773613,-1.4519533334421315,1.3820952576893664,-0.374123481202789,-0.051562172054779205,-0.05929397522017409,0.9240439317090337,0.5006575511775246,0.40002480674947155,0.002903664362909778,0.038014857500866216,0.2500123542490756,-0.16724719935855553,-0.20003617395548567,-0.15001469059279976,0.09715556613674711,0,4.459900000003589,1.75,-3.9799747470500266e-05,-0.04997915342387482,0.9987499437230536,0.0007953315097043137
15500,-0.0940523012720957,-1.4519246623601476,1.382599776755021,-0.37419632865163754,-0.05092679108050198,-0.058809353090241746,0.924080640184062,0.5006300546023396,0.40014028783323224,0.0031186405367495534,0.04107729292382375,0.2500112599203629,-0.17260485598067937,-0.20004073966248184,-0.15001918632629785,0.0971930563920193,0,4.449900000003613,1.75,-3.9799747470500266e-05,-0.04997915342387482,0.9987499437230536,0.0007953315097043137
15600,-0.0931320852530626,-1.4518960599415525,1.3831525370885414,-0.3742497555431056,-0.05029452421690611,-0.058316659225430084,0.9241248555073637,0.500636412802949,0.40002383183431184,0.003435460220756734,0.04417884054787031,0.2500149406047148,-0.17795133156895906,-0.2000236720464254,-0.15002231261424753,0.09723402932845975,0,4.439900000003636,1.75,-3.9799747470500266e-05,-0.04997915342387482,0.9987499437230536,0.0007953315097043137
15700,-0.09217580463410166,-1.4518521239338251,1.3836531208360507,-0.37428864007020185,-0.049664980734949044,-0.05781578745477032,0.9241746254490981,0.5006053590302495,0.40000793832739867,0.0036921886595172575,0.04718516906204647,0.2500113121990433,-0.1831844734913446,-0.20005319033669866,-0.150018148552823,0.09727635307023387,0,4.429900000003659,1.75,-3.9799747470500266e-05,-0.04997915342387482,0.9987499437230536,0.0007953315097043137
15800,-0.09119722422477515,-1.4517133447926942,1.3838115988364055,-0.37420833569798995,-0.049216121131439514,-0.05738445198446783,0.9242580373387933,0.5005429000560807,0.40003590783622145,0.0037485582433532207,0.05064791050107151,0.2500070382797675,-0.18959695089869277,-0.20001469248169682,-0.15001807336604456,0.09731927421301713,0,4.4199000000036825,1.75,-3.9799747470500266e-05,-0.04997915342387482,0.9987499437230536,0.0007953315097043137
15900,-0.09001232094389815,-1.4512911442922458,1.3828792021404934,-0.3737587703925743,-0.049360232948887965,-0.057173537126307745,0.9244453123956707,0.5004279536660634,0.4001570787511865,0.0033841900825668583,0.05524850506281409,0.2500050842999822,-0.19940510228096694,-0.20007347797082156,-0.15003022999944493,0.09736257278815988,0,4.409900000003706,1.75,-3.9799747470500266e-05,-0.04997915342387482,0.9987499437230536,0.0007953315097043137
16000,-0.08869063036792846,-1.451369024680129,1.3840372702268209,-0.3740576450761901,-0.04815264008826272,-0.056402116743113816,0.9244355048566024,0.5006937021155019,0.40005792553532954,0.003689538978406416,0.0568313332903522,0.24950060063399981,-0.2001667254869639,-0.2000009498187774,-0.1501152739139684,0.09746441251225882,0,4.399900000003729,1.75,-3.9799747470500266e-05,-0.04997915342387482,0.9987499437230536,0.0007953315097043137
16100,-0.08755860913442073,-1.4514553469741072,1.3851457819332045,-0.37439434861552784,-0.04705901339732954,-0.055711656108217135,0.9243973887655159,0.5009534699940673,0.40007197834399,0.005305247150182343,0.05752845011705094,0.24746459148552502,-0.20023240069133827,-0.20008936065011212,-0.1501487850626906,0.09755905671089014,0,4.3899000000037525,1.75,-3.9799747470500266e-05,-0.04997915342387482,0.9987499437230536,0.0007953315097043137
16200,-0.0868325954375298,-1.451510296400189,1.385876593119942,-0.37457738146546077,-0.046332468071430474,-0.05524856637638704,0.9243877344546727,0.5010335802883839,0.4000757152623795,0.008784516772696687,0.05782587152888558,0.2423689525211025,-0.200236162341575,-0.20009324691989946,-0.15013669583523243,0.09767775320257395,0,4.379900000003776,1.75,-3.9799747470500266e-05,-0.04997915342387482,0.9987499437230536,0.0007953315097043137
16300,-0.08611016943384908,-1.4515580478070158,1.386655849161376,-0.374733673027518,-0.04560765433205403,-0.05478428217839387,0.9243880670972723,0.5009893906593306,0.4000756633807915,0.012206079116116236,0.05824771602313368,0.23731222124832604,-0.20023709738393417,-0.20008078364180837,-0.1501284208740964,0.0978238687779123,0,4.369900000003799,1.75,-3.9799747470500266e-05,-0.04997915342387482,0.9987499437230536,0.0007953315097043137
16400,-0.08537484641678215,-1.4516040668208912,1.3874333236257013,-0.3748883118228556,-0.04488191124784207,-0.05431594554598581,0.9243885253294719,0.5009444112916595,0.40007481787121724,0.015490128782610491,0.05882069278578366,0.2322725864124338,-0.20023819031224038,-0.20006831600424954,-0.15012009507095359,0.09800058364804948,0,4.359900000003822,1.75,-3.9799747470500266e-05,-0.04997915342387482,0.9987499437230536,0.0007953315097043137
16500,-0.08462393631686842,-1.4516491394245914,1.3882066227860959,-0.3750462478381458,-0.044153256847297116,-0.05384223612343652,0.9243872648957973,0.5009162225700063,0.4000716133101887,0.018659123797358904,0.059486622887788825,0.2272785537058121,-0.20023011632634924,-0.2000615732532533,-0.15011284915368622,0.09819614595661723,0,4.349900000003846,1.75,-3.9799747470500266e-05,-0.04997915342387482,0.9987499437230536,0.0007953315097043137
16600,-0.08385982807739732,-1.4516949288876535,1.3889789968123798,-0.3752063170508326,-0.04342260232675983,-0.053363715646565175,0.9243846661994749,0.5008963480049393,0.4000678373853228,0.02177909569403626,0.06012733222624597,0.22238690475276648,-0.20021878305349736,-0.2000573732515607,-0.1501051882303447,0.09838226257457648,0,4.339900000003869,1.75,-3.9799747470500266e-05,-0.04997915342387482,0.9987499437230536,0.0007953315097043137
16700,-0.08308402488216188,-1.4517414304097602,1.389751385722578,-0.37536654954624615,-0.0426909280761555,-0.052880896667129036,0.9243814412402612,0.5008777103558111,0.4000640833837286,0.024858257812728626,0.06073749710296369,0.21759613057884575,-0.20020780160283663,-0.20005323427646493,-0.15009797102590955,0.09855868403197542,0,4.329900000003892,1.75,-3.9799747470500266e-05,-0.04997915342387482,0.9987499437230536,0.0007953315097043137
16800,-0.08229682740779426,-1.4517885932113261,1.3905235841240051,-0.37552681184220493,-0.041958374104856457,-0.05239386346181888,0.9243776238646467,0.5008601167290284,0.4000603159625807,0.027898900382479237,0.06131674528373103,0.21290288306723054,-0.20019709381953332,-0.200049140120719,-0.15009114462838336,0.09872593566524353,0,4.319900000003916,1.75,-3.9799747470500266e-05,-0.04997915342387482,0.9987499437230536,0.0007953315097043137
16900,-0.08149847652636118,-1.4518364078545551,1.3912950316429578,-0.37568704978432416,-0.041225072944232964,-0.051902697796697456,0.9243732168050511,0.5008439866647213,0.40005652233797684,0.030902690919330032,0.06186467817874565,0.20830416640300908,-0.20018666493643417,-0.20004507840379052,-0.15008468869896327,0.09888449772523737,0,4.309900000003939,1.75,-3.9799747470500266e-05,-0.04997915342387482,0.9987499437230536,0.0007953315097043137
17000,-0.08082416878102436,-1.4518847460312492,1.391854414327852,-0.37582032955913003,-0.04063816998928779,-0.051497450684720586,0.9243676928598075,0.500937071002838,0.40001213297909616,0.03446605834273878,0.062261370559569845,0.20264147770733512,-0.20015094456152896,-0.20000237886459732,-0.15011349948121455,0.09902495406371803,0,4.299900000003962,1.75,-3.9799747470500266e-05,-0.04997915342387482,0.9987499437230536,0.0007953315097043137
17100,-0.08024204100078489,-1.4518999428951356,1.3922576431924718,-0.3758992178045092,-0.04021094642036188,-0.05117683943278721,0.9243721052409617,0.5009533231384214,0.40001291100690695,0.03863584071491598,0.06252169075493828,0.1959387666901829,-0.20014787838000525,-0.20000086931401584,-0.1501054090911307,0.09912375561524055,0,4.2899000000039855,1.75,-3.9799747470500266e-05,-0.04997915342387482,0.9987499437230536,0.0007953315097043137
17200,-0.0796016893179265,-1.4518966393162773,1.3926450913445017,-0.3759552202976784,-0.03980009602230946,-0.050851547047718534,0.9243850630826921,0.5009236929794278,0.4000123823034129,0.042794416790237245,0.06278738921624925,0.18923483605608132,-0.20015273203931688,-0.20000465824579042,-0.15011222267740587,0.09923868332600387,0,4.279900000004009,1.75,-3.9799747470500266e-05,-0.04997915342387482,0.9987499437230536,0.0007953315097043137
17300,-0.07891267657746649,-1.4518776869318764,1.3929438912921661,-0.37599348424161644,-0.039433955758292435,-0.050538265192739566,0.924402372721106,0.5009293353239015,0.40001303244586434,0.046960502260516436,0.06305959202934129,0.18233786610236072,-0.20014687300818199,-0.20000454098517184,-0.15010079343145966,0.09935703787837984,0,4.269900000004032,1.75,-3.9799747470500266e-05,-0.04997915342387482,0.9987499437230536,0.0007953315097043137
17400,-0.07799676117426319,-1.451653961994972,1.3926494291709552,-0.3757914293520695,-0.03954975207333802,-0.05048768779866719,0.9244823481912515,0.500722952459709,0.40002394513313644,0.049865571863086953,0.0634047517464815,0.1768331856285367,-0.200130930150865,-0.20000685084382253,-0.15005822766078178,0.09944184140280286,0,4.259900000004055,1.75,-3.9799747470500266e-05,-0.04997915342387482,0.9987499437230536,0.0007953315097043137
17500,-0.07629640241908153,-1.4516092589560412,1.3930518526436382,-0.37589313837226174,-0.038950108163075786,-0.04990668409686639,0.9244980045847541,0.5009560462459002,0.4000131785374463,0.054179337899780404,0.06416171991713575,0.16914494986910875,-0.20014207222717187,-0.20000861261844835,-0.15008674205616424,0.09958128903991828,0,4.249900000004079,1.75,-3.9799747470500266e-05,-0.04997915342387482,0.9987499437230536,0.0007953315097043137
17600,-0.07540142799021342,-1.4514726275336387,1.3931182508335072,-0.37581439438509295,-0.038713256035441755,-0.04965104346876139,0.9245537294622543,0.5008629495443809,0.4000150617833537,0.05794418465910869,0.06441593193841146,0.16268594905351028,-0.20012298870506542,-0.2000144413791839,-0.1500670761726139,0.0996922440252309,0,4.239900000004102,1.75,-3.9799747470500266e-05,-0.04997915342387482,0.9987499437230536,0.0007953315097043137
17700,-0.07489132331205861,-1.4511619993167062,1.391211375899081,-0.3753386901592218,-0.04026636444636569,-0.05026133829037031,0.9246476547513075,0.5010165787942539,0.40001610767219076,0.06024696655701793,0.06594953487982931,0.1538403176598082,-0.20013098184689881,-0.2000997518717157,-0.15007895573091085,0.09980204669316149,0,4.229900000004125,1.75,-3.9799747470500266e-05,-0.04997915342387482,0.9987499437230536,0.0007953315097043137
17800,-0.07381643521921016,-1.4511236983276006,1.3917114190844933,-0.37537079236188425,-0.039709697110965884,-0.049825499180410605,0.9246822848029421,0.5008890324831237,0.40001914680802186,0.06302611081788034,0.06644348976299286,0.14930266796162198,-0.2001262817691701,-0.20001589231216665,-0.15006956526118054,0.09991333942169209,0,4.219900000004149,1.75,-3.9799747470500266e-05,-0.04997915342387482,0.9987499437230536,0.0007953315097043137
17900,-0.07245115028794319,-1.450982691593444,1.3917584142251613,-0.37531765777178877,-0.039456618842244065,-0.0494945185989301,0.9247324605651607,0.5009114453090049,0.4000205492251365,0.06686170886722796,0.066724327558315,0.14263676964527522,-0.20012636914487983,-0.20001359386936055,-0.1500603781570377,0.10003006827080081,0,4.209900000004172,1.75,-3.9799747470500266e-05,-0.04997915342387482,0.9987499437230536,0.0007953315097043137
18000,-0.07111954040226424,-1.450659141169895,1.3911794378773281,-0.37499480432035476,-0.03974689468332401,-0.049470145500155334,0.9248523048573567,0.5006557772368911,0.40001421200217696,0.06951305188618626,0.0670622354520022,0.1371869807559994,-0.2001086325170513,-0.20008270887462645,-0.150045104593535,0.10001769019916566,0,4.199900000004195,1.75,-3.9799747470500266e-05,-0.04997915342387482,0.9987499437230536,0.0007953315097043137
18100,-0.07009678438831846,-1.4502918369678257,1.390118659580219,-0.3746169964016563,-0.04029610057289769,-0.049613553350341996,0.9249739594224116,0.5006571945620107,0.4000135046284974,0.0715077121334459,0.06739760297290555,0.13194458181101806,-0.20011086605279585,-0.2000458849052878,-0.1500487860046859,0.10001632624741111,0,4.189900000004219,1.75,-3.9799747470500266e-05,-0.04997915342387482,0.9987499437230536,0.0007953315097043137
18200,-0.06902311750930538,-1.4499014538904424,1.3889649766375538,-0.3742075014048923,-0.04088040914939282,-0.04975905772052179,0.9251062502301298,0.5006700785616396,0.4000149548826628,0.07351157704442222,0.0677013122458407,0.1265417592436167,-0.2001125052732431,-0.19999523278661466,-0.15004795013206024,0.10001528468390498,0,4.179900000004242,1.75,-3.9799747470500266e-05,-0.04997915342387482,0.9987499437230536,0.0007953315097043137
18300,-0.0678003085729555,-1.4494193433988998,1.3874459972226345,-0.3736927673755588,-0.04167577803689663,-0.0499737598850848,0.9252672416438203,0.500733681376796,0.4000109685582737,0.07593541974288438,0.06796710943113855,0.11992464888046142,-0.2001277270937812,-0.19999483103245036,-0.15005973522322683,0.10001756248704695,0,4.169900000004265,1.75,-3.9799747470500266e-05,-0.04997915342387482,0.9987499437230536,0.0007953315097043137
18400,-0.06635521763298682,-1.4487826838425,1.3853270361831103,-0.37298794508565997,-0.042823224450848435,-0.05030843555667324,0.9254810779158312,0.5008269990722055,0.40000663801605235,0.0790629129712031,0.06824514218916766,0.11120088734727424,-0.20012229811340967,-0.20014580613649036,-0.1500530580095742,0.10001754440524865,0,4.1599000000042885,1.75,-3.9799747470500266e-05,-0.04997915342387482,0.9987499437230536,0.0007953315097043137
18500,-0.06457689042710264,-1.4479426902144052,1.3824223539433584,-0.37203447760108044,-0.044389451278415606,-0.050771099416504505,0.925765747668022,0.5009854039009805,0.40000687177621164,0.0830191142156261,0.06850532377885139,0.0997850054741559,-0.20015219827127625,-0.2001223224910192,-0.1500645401322409,0.10001955438081483,0,4.149900000004312,1.75,-3.9799747470500266e-05,-0.04997915342387482,0.9987499437230536,0.0007953315097043137
18600,-0.060232331468980764,-1.4463096742817243,1.3771454003284263,-0.3701019225938404,-0.04724123920203231,-0.051364539872738424,0.9263662970200617,0.5008389669075058,0.4000063023628421,0.08822572112391984,0.07113706540170536,0.07936994848419461,-0.20011915926329774,-0.20012101154377207,-0.1500680994668927,0.1000275661927191,0,4.139900000004335,1.75,-3.9799747470500266e-05,-0.04997915342387482,0.9987499437230536,0.0007953315097043137
18700,-0.0584705304860525,-1.445526559425767,1.374622667223906,-0.3692102559296381,-0.0485502666252677,-0.051699337077007995,0.9266357628932657,0.5008591435572253,0.40000775322104853,0.09159974467620279,0.07141155666129788,0.06945247109594443,-0.20013446314419414,-0.20009214814463838,-0.15006462141124877,0.10001876914895101,0,4.129900000004358,1.75,-3.9799747470500266e-05,-0.04997915342387482,0.9987499437230536,0.0007953315097043137
18800,-0.0566937218065194,-1.4448185616580889,1.372490830278287,-0.36838077971795574,-0.04965885642004388,-0.051922728373342615,0.9268946161197142,0.5007018408500951,0.4000077284341423,0.09447260291734738,0.07165837071938724,0.061019132297342536,-0.20010183777783203,-0.20006422361561665,-0.15004548262707154,0.100013246405061,0,4.119900000004382,1.75,-3.9799747470500266e-05,-0.04997915342387482,0.9987499437230536,0.0007953315097043137
18900,-0.05537975148990225,-1.4444645382469177,1.3717833143665077,-0.36797569965887145,-0.04998726710385577,-0.0518489857309841,0.9270419840906452,0.5003685930616688,0.40003313452288847,0.09541972523647231,0.07217218311954744,0.05760481816840334,-0.20010952308369342,-0.20004660303220945,-0.15003984222074537,0.10001317618124227,0,4.109900000004405,1.75,-3.9799747470500266e-05,-0.04997915342387482,0.9987499437230536,0.0007953315097043137
19000,-0.05421552162414064,-1.4442806333349671,1.3717470221775976,-0.3677743182793035,-0.04996906703418241,-0.05163281268029574,0.9271349393743332,0.5000210749766631,0.3999604190609934,0.09586136369662002,0.07228383589655452,0.05658947112915016,-0.20007436880438217,-0.20002584331318748,-0.15003793346436484,0.10001169627373482,0,4.099900000004428,1.75,-3.9799747470500266e-05,-0.04997915342387482,0.9987499437230536,0.0007953315097043137
19100,-0.0527291864255616,-1.4440810402637025,1.3715945229720357,-0.3675713225151963,-0.049965131930381025,-0.05135606173676584,0.9272310194220741,0.5000181259857468,0.39955386067539433,0.09640681781754058,0.072161208033455,0.05567611822483582,-0.20009589827577223,-0.20001019981330417,-0.15004034246289139,0.10001117297004332,0,4.089900000004452,1.75,-3.9799747470500266e-05,-0.04997915342387482,0.9987499437230536,0.0007953315097043137
19200,-0.03903641173900646,-1.4441236457265545,1.3725729923500405,-0.36759166897030593,-0.049522089974032915,-0.047467067891850206,0.9274539368475285,0.5000963462747742,0.3999398769447157,0.0990546165950027,0.07234720858191411,0.04589413408947596,-0.2001097133782518,-0.20000427198451332,-0.15003761782310987,0.10000943120279913,0,4.079900000004475,1.75,-3.9799747470500266e-05,-0.04997915342387482,0.9987499437230536,0.0007953315097043137
19300,-0.02087802131466292,-1.4407081618628017,1.3641290884173778,-0.3625819740423838,-0.05776361455979779,-0.047073474027612326,0.928968118384849,0.5000023712463981,0.39974451633970887,0.1132304568995776,0.07515712240149608,-0.010058392098378879,-0.20005661595296578,-0.20005817054068264,-0.15004215291408207,0.1000092918332661,0,4.069900000004498,1.75,-3.9799747470500266e-05,-0.04997915342387482,0.9987499437230536,0.0007953315097043137
19400,0.005708526738382445,-1.4359288457649706,1.3584458339260668,-0.3568731790339044,-0.059854923512890394,-0.041873494959122466,0.9312923991085771,0.5000093355683978,0.38259276775399803,0.11780286177651429,0.09371708270953445,-0.03822997013954211,-0.20006204280144263,-0.19999959019649496,-0.15001935034471553,0.10000389549751496,0,4.059900000004522,1.75,-3.9799747470500266e-05,-0.04997915342387482,0.9987499437230536,0.0007953315097043137
19500,0.005853898092470252,-1.4356850563375896,1.3582634908190925,-0.3567817931369802,-0.060032780714099995,-0.04193567479022884,0.9313131677935097,0.5000193234352599,0.38302464725131447,0.11837614882660119,0.09449553198330658,-0.041658403939588036,-0.20000697568602083,-0.20000020940125973,-0.15000111128469248,0.10000004477269286,0,4.049900000004545,1.75,-3.9799747470500266e-05,-0.04997915342387482,0.9987499437230536,0.0007953315097043137
19600,0.007545070824840661,-1.433987549831596,1.3561049278778856,-0.3558280248545358,-0.06251763259448749,-0.0428151492924429,0.931474543578066,0.5000000092770237,0.3833531893748252,0.12457388566938232,0.09476788394557502,-0.0577659595895329,-0.20000320545418768,-0.19998675147512512,-0.14980809279594198,0.09997305119883212,0,4.039900000004568,1.75,-3.9799747470500266e-05,-0.04997915342387482,0.9987499437230536,0.0007953315097043137
19700,0.011731304429612984,-1.4301184572125905,1.3501274066256759,-0.35296761531699444,-0.06908345874297861,-0.04512198365029062,0.9319899918223394,0.5000008121453952,0.38335783846111593,0.13607808585405126,0.09476808857642027,-0.0910962977300509,-0.20000447683538908,-0.20000159595820008,-0.14987542197003784,0.09997896063602114,0,4.0299000000045915,1.75,-3.9799747470500266e-05,-0.04997915342387482,0.9987499437230536,0.0007953315097043137
19800,0.012886806486991486,-1.428875907423865,1.3491290878650475,-0.35240136895152085,-0.07055464752313154,-0.04561916513359976,0.9320698518064481,0.5000068096248387,0.38418741257404626,0.1390947422737646,0.09476824398586077,-0.10078482653349383,-0.20000530673119143,-0.19999991383844795,-0.14975751380425714,0.09995606376706408,0,4.019900000004615,1.75,-3.9799747470500266e-05,-0.04997915342387482,0.9987499437230536,0.0007953315097043137
19900,0.013953481085682576,-1.4276907991925496,1.3483031489983868,-0.35195227219433783,-0.07184036764851487,-0.04605224761582618,0.9321200299118668,0.5000010861230825,0.38509302574837945,0.14178358526146229,0.09479242952755401,-0.1095869694608834,-0.2000029318424669,-0.19986387213995713,-0.1495072709256734,0.09990727757850207,0,4.009900000004638,1.75,-3.9799747470500266e-05,-0.04997915342387482,0.9987499437230536,0.0007953315097043137
20000,0.017211887890772853,-1.4247186456768621,1.3449881400284038,-0.35001467186827623,-0.07648509738950465,-0.04760470687816232,0.9324020330508215,0.5000094304079664,0.3853498433187371,0.14867532622595914,0.0947688852072929,-0.1316688638908493,-0.20000156413716125,-0.19998737792298596,-0.14950257335142703,0.09989731942251628,0,3.999900000004661,1.75,-3.9799747470500266e-05,-0.04997915342387482,0.9987499437230536,0.0007953315097043137
20100,0.01839989475111103,-1.4235542913631303,1.344148303559521,-0.34960253063836466,-0.07791231508592467,-0.048086242657122406,0.9324137788537464,0.500009994056524,0.38725085712098295,0.15000858119730417,0.09470792265881867,-0.14028335346628773,-0.2001216363236985,-0.19922068902577694,-0.14871546551320822,0.09973035563591313,0,3.98990000000464,1.75,-3.9799747470500266e-05,-0.04997915342387482,0.9987499437230536,0.0007953315097043137
20200,0.018666557437849444,-1.4230572571691715,1.344713202455678,-0.3500778524848063,-0.07765142831939485,-0.0479953604745441,0.9322618721434995,0.500033140886401,0.38838999992116124,0.15077733976666194,0.09490456105927322,-0.14205130747318584,-0.20000573553645057,-0.19930374108321508,-0.14841017221751965,0.09964832470799859,0,3.9799000000046187,1.75,-3.9799747470500266e-05,-0.04997915342387482,0.9987499437230536,0.0007953315097043137
20300,0.01892198493934997,-1.4225420673156741,1.3452957334890998,-0.350563052889691,-0.07740021286032103,-0.047910654444960475,0.9321047806917913,0.5000347753088997,0.3895582655708852,0.15155938896252974,0.09513838296784226,-0.14381986477860026,-0.20000519517269963,-0.19931951371498544,-0.1480877848046236,0.09955079082944937,0,3.9699000000045976,1.75,-3.9799747470500266e-05,-0.04997915342387482,0.9987499437230536,0.0007953315097043137
20400,0.019185032966912912,-1.4220223533829865,1.3458794139154924,-0.35105067451023064,-0.07715723960521421,-0.0478282082624487,0.9319456243777421,0.5000340316797806,0.39072699382176446,0.15232781215205482,0.09542671715351446,-0.14562266093027137,-0.20000190859625694,-0.19936114354125145,-0.14774030940638347,0.09944800985665572,0,3.9599000000045765,1.75,-3.9799747470500266e-05,-0.04997915342387482,0.9987499437230536,0.0007953315097043137
20500,0.019459254947059954,-1.4214911988087184,1.3464848253134498,-0.3515581872544258,-0.07691142552615975,-0.04774515391585754,0.9317788760620553,0.5000361550963965,0.39183108737268374,0.15315291136058734,0.09584233940164265,-0.14746085270293208,-0.2000036410030845,-0.19944946032627844,-0.14739351310279078,0.09934972408643977,0,3.9499000000045554,1.75,-3.9799747470500266e-05,-0.04997915342387482,0.9987499437230536,0.0007953315097043137
20600,0.019723977047876585,-1.4209788920631365,1.3470668864057997,-0.3520456753925565,-0.07666676392114347,-0.04767208252477416,0.9316187107905302,0.5000380605317533,0.3929087061135256,0.15397259489938386,0.0961717441399923,-0.14925842201561462,-0.20000356913430828,-0.1995242268735374,-0.14703218687990302,0.09924955530259458,0,3.9399000000045343,1.75,-3.9799747470500266e-05,-0.04997915342387482,0.9987499437230536,0.0007953315097043137
20700,0.019981211180476792,-1.4204749798157228,1.3476513820430847,-0.3525342221517181,-0.07641660455515485,-0.04759705466040779,0.9314583432165919,0.5000401825587476,0.39397175323621086,0.15481237119652447,0.09648091396761987,-0.15105454497455045,-0.20000810849592165,-0.199501206662546,-0.14675774252938018,0.09917964484935667,0,3.9299000000045132,1.75,-3.9799747470500266e-05,-0.04997915342387482,0.9987499437230536,0.0007953315097043137
20800,0.020236256482986492,-1.419971740469134,1.3482500882602397,-0.3530321980881737,-0.0761604040585705,-0.04752038508644451,0.9312946220009561,0.5000370989128874,0.39498661566247517,0.1556941238794568,0.09688960310095336,-0.15294350207756824,-0.20000648129799684,-0.19937449544180216,-0.14652885098063917,0.09912437959034424,0,3.919900000004492,1.75,-3.9799747470500266e-05,-0.04997915342387482,0.9987499437230536,0.0007953315097043137
20900,0.020486431372374467,-1.4194785369903318,1.3488562413725533,-0.3535365838892264,-0.07589423404871617,-0.04743994575127368,0.9311290998767093,0.5000391913185463,0.3959855099916917,0.15655507721791892,0.0973469713473309,-0.1548256053162597,-0.20000759267594298,-0.1992066512253213,-0.1462988237972689,0.09906847415134108,0,3.909900000004471,1.75,-3.9799747470500266e-05,-0.04997915342387482,0.9987499437230536,0.0007953315097043137
21000,0.020736766547844555,-1.4189853108407746,1.3494622436673553,-0.3540397425775206,-0.07563314189278486,-0.04736228197313706,0.9309631049452851,0.5000339532174328,0.39695840488761014,0.1574323248067854,0.09788790180153868,-0.15683295850959808,-0.20000555467173686,-0.19892177869965513,-0.14608935122792108,0.09901293734646441,0,3.89990000000445,1.75,-3.9799747470500266e-05,-0.04997915342387482,0.9987499437230536,0.0007953315097043137
21100,0.02098310723948958,-1.4185022097693516,1.3500855462581904,-0.35455798841445146,-0.0753546057115342,-0.04727819356271241,0.9307927205683356,0.500039279064883,0.39790743910089166,0.1582913206633157,0.09847804038959064,-0.15877787880877153,-0.2000060306171376,-0.19863576302050862,-0.14586101879849653,0.09895383282408887,0,3.889900000004429,1.75,-3.9799747470500266e-05,-0.04997915342387482,0.9987499437230536,0.0007953315097043137
21200,0.021149369469378763,-1.4184200388622046,1.3500416145361658,-0.35455162880272184,-0.07559465625086029,-0.04732769464857315,0.9307731623649785,0.5000244498296293,0.39655430526224555,0.15909850944128381,0.10023020862978918,-0.16061425341833468,-0.2000021284917045,-0.1983260191208586,-0.1456312881583561,0.0988938757509535,0,3.8799000000044077,1.75,-3.9799747470500266e-05,-0.04997915342387482,0.9987499437230536,0.0007953315097043137
21300,0.02635339318026701,-1.4111590953002766,1.3498799870796603,-0.3549553085925592,-0.07962735893164873,-0.047012259322526985,0.9302989089991038,0.5000030599230315,0.3807133089417509,0.17702375842744797,0.1436425977216401,-0.22665241014150683,-0.20000338634900633,-0.18745804495942783,-0.1470358904731016,0.09889086507663414,0,3.8699000000043866,1.75,-3.9799747470500266e-05,-0.04997915342387482,0.9987499437230536,0.0007953315097043137
21400,0.07466576959787602,-1.3985251412824826,1.3509038417881638,-0.35561310998844237,-0.0845102705609987,-0.03963794701625919,0.9299603020185276,0.500008559649592,0.37948826952812525,0.1936165075775865,0.1448518169614251,-0.25003420695818834,-0.2000848493981054,-0.20001169406018152,-0.1500732310763867,0.09872279428525021,0,3.8599000000043655,1.75,-3.9799747470500266e-05,-0.04997915342387482,0.9987499437230536,0.0007953315097043137
21500,0.07869324285790476,-1.397566732499014,1.3504537140304407,-0.35541861697661226,-0.08544156531134217,-0.039413049245351266,0.9299591158608874,0.5001589112726206,0.3839523674840325,0.19495843169727653,0.13518941531363096,-0.2500838861588024,-0.20014674433115337,-0.20001569186972298,-0.15012245128534288,0.09854194080177095,0,3.8499000000043444,1.75,-3.9799747470500266e-05,-0.04997915342387482,0.9987499437230536,0.0007953315097043137
21600,0.08145170924510418,-1.396911468353209,1.349849389635153,-0.35511306806590237,-0.0865605255401535,-0.03946193735871364,0.9299702897442107,0.5001769988517548,0.3882558669082516,0.1964476622054523,0.12506518024843188,-0.2500839937514208,-0.2001456186311516,-0.20001554453344572,-0.1501223139184987,0.0983436299493074,0,3.8399000000043233,1.75,-3.9799747470500266e-05,-0.04997915342387482,0.9987499437230536,0.0007953315097043137
21700,0.08439713458654066,-1.3961868691885764,1.349125741577938,-0.354733705980118,-0.08782843946114567,-0.0395403442592783,0.9299928624668519,0.5001950578069292,0.3929641035446155,0.1980554654371666,0.11381131493688981,-0.25008476520747325,-0.2001456427111833,-0.200015711304388,-0.15012293500387763,0.09814790575339513,0,3.829900000004302,1.75,-3.9799747470500266e-05,-0.04997915342387482,0.9987499437230536,0.0007953315097043137
21800,0.09027520275026626,-1.3947681414004216,1.3476529872246765,-0.35391551167891944,-0.0905163790541484,-0.03971336001371467,0.930039485587787,0.5000981668623058,0.4000189228858304,0.2019114333821863,0.09388223318813196,-0.25003997921412047,-0.20009095591126105,-0.20001393525098363,-0.15007892838118683,0.09797761808849956,0,3.819900000004281,1.75,-3.9799747470500266e-05,-0.04997915342387482,0.9987499437230536,0.0007953315097043137
21900,0.09369043283034424,-1.3937118200809542,1.3464491715249145,-0.3531861783771193,-0.09210401351545931,-0.0397873729902102,0.9301576957958514,0.5003412431415213,0.40002004638937794,0.20929062967342266,0.0809947954458948,-0.2501299912828267,-0.20017799008333154,-0.20001218631565193,-0.15013829332523035,0.0979929460975011,0,3.80990000000426,1.75,-3.9799747470500266e-05,-0.04997915342387482,0.9987499437230536,0.0007953315097043137
22000,0.09634079188506871,-1.3928999007441456,1.3458514703111542,-0.35279396381479605,-0.09288842640737867,-0.039672337907380624,0.930233446474791,0.5004520940979368,0.4000592533586602,0.21331503698745735,0.07414554103034561,-0.25013345939425563,-0.20020009158452473,-0.200022553656763,-0.15016127225911044,0.09777637609904834,0,3.799900000004239,1.75,-3.9799747470500266e-05,-0.04997915342387482,0.9987499437230536,0.0007953315097043137
22100,0.09799542732157333,-1.3923678305072933,1.3455742905860975,-0.3525923827650462,-0.09319389354040689,-0.03952644677798471,0.9302855313439813,0.5005234734902052,0.4000675892136207,0.21573253995917863,0.07032641088232132,-0.25012744561679334,-0.2001983516698579,-0.20002454370871733,-0.15016219369837744,0.09752443994294997,0,3.789900000004218,1.75,-3.9799747470500266e-05,-0.04997915342387482,0.9987499437230536,0.0007953315097043137
22200,0.09944703441834907,-1.3917288973738944,1.3446691237695192,-0.3518869281488946,-0.09431039417947855,-0.03970345917612637,0.9304325739553059,0.5002216892970548,0.4000447309675429,0.22278152082565525,0.05872483225178976,-0.25004995341003894,-0.2000874872618057,-0.20001703119766884,-0.15007022360976874,0.09730473076703262,0,3.7799000000041967,1.75,-3.9799747470500266e-05,-0.04997915342387482,0.9987499437230536,0.0007953315097043137
22300,0.10179005770424071,-1.390838265587632,1.3434381520507852,-0.35111690454453987,-0.09561587121353926,-0.03973072858619598,0.9305890573830892,0.5005798121764987,0.40008007385529526,0.22926944426971324,0.046488419523545474,-0.25011975916325174,-0.20022793638416234,-0.20005372650266895,-0.15020177888098665,0.09772841378252792,0,3.7699000000041756,1.75,-3.9799747470500266e-05,-0.04997915342387482,0.9987499437230536,0.0007953315097043137
22400,0.10249762848320132,-1.3905210870611173,1.3429582496445691,-0.3507015784069613,-0.09621470696480933,-0.03977780239914175,0.9306819325112295,0.5003205721891907,0.40003379457264904,0.23236327405830876,0.04121238663869224,-0.25010531261992364,-0.20014898507546597,-0.20000625192474517,-0.15011750627398157,0.09783581223866254,0,3.7599000000041545,1.75,-3.9799747470500266e-05,-0.04997915342387482,0.9987499437230536,0.0007953315097043137
22500,0.10314971780274294,-1.3902697102135797,1.3424948108910941,-0.350406155534709,-0.09674067877922406,-0.039814468455513036,0.9307371139770484,0.5004159850749361,0.400047735510375,0.2341771041516602,0.037437621506957015,-0.25009754303127174,-0.2001507311175054,-0.200004509064798,-0.15012431674355645,0.09759777583605249,0,3.7499000000041334,1.75,-3.9799747470500266e-05,-0.04997915342387482,0.9987499437230536,0.0007953315097043137
