yifeidong0/3D-Soft-Fixture/results/4blender/StarfishBowl_18-05-2023-17-41-28_dynamics/data.csv
index,obj_pos_x,obj_pos_y,obj_pos_z,obj_qtn_x,obj_qtn_y,obj_qtn_z,obj_qtn_w,obj_joint_0_pos,obj_joint_1_pos,obj_joint_2_pos,obj_joint_3_pos,obj_joint_4_pos,obj_joint_5_pos,obj_joint_6_pos,obj_joint_7_pos,obj_joint_8_pos,obj_joint_9_pos,obs_pos_x,obs_pos_y,obs_pos_z,obs_qtn_x,obs_qtn_y,obs_qtn_z,obs_qtn_w,box_pos_x,box_pos_y,box_pos_z,box_eul_x,box_eul_y,box_eul_z
0,0.0,1.5,3.5,0.0,0.0,0.0,1.0,0.0,0.0,0.0,0.0,0.0,0.0,0.0,0.0,0.0,0.0,0,0.0,1.0,-0.14943813247359924,0.0,0.0,0.9887710779360424,0,1.5,3.0,0.0008,0,0
12,-5.657173775328227e-37,1.5,3.4867257277408714,-3.910110965969202e-19,1.1707273256585696e-19,-1.4944179343682263e-37,1.0,3.3281501750969003e-37,6.254613836436996e-21,-8.619042791833881e-38,-4.4938365369035504e-35,-2.0890725378065187e-38,-1.4999297945239906e-18,-2.1344713305418607e-37,5.116939973991503e-19,5.880926707042718e-37,6.17243866813524e-19,0,0.0,1.0,-0.14943813247359924,0.0,0.0,0.9887710779360424,0,1.5,3.0,0.010400000000000003,0,0
24,-5.30493990690211e-37,1.5,3.449003375198647,-1.858471975741868e-18,-1.7461629599782383e-19,1.094413758675983e-36,1.0,-7.824519478125232e-37,2.0882745799062175e-19,-4.917246001892799e-36,1.283953296258157e-35,-4.9101867775338385e-37,-3.618421705780825e-18,-6.26000067218992e-36,8.243579691147272e-19,-1.5912824143498454e-36,2.1987616920905645e-19,0,0.0,1.0,-0.14943813247359924,0.0,0.0,0.9887710779360424,0,1.5,3.0,0.019999999999999997,0,0
36,8.447705421241388e-36,1.5,3.386953299553773,-3.854419287324609e-18,-1.1327125965678307e-18,6.083260751401334e-36,1.0,-5.491804874906185e-36,1.435715289750131e-19,-2.101752757398972e-35,-6.419766481290786e-35,-2.244992222407187e-37,-4.859455055510955e-18,-2.4510476796246123e-35,1.1568318850745352e-18,-1.0840639845200934e-35,9.588225019959982e-19,0,0.0,1.0,-0.14943813247359924,0.0,0.0,0.9887710779360424,0,1.5,3.0,0.02959999999999998,0,0
48,6.095681259039685e-35,1.5,3.3007423458539797,-6.5965675716312015e-18,-2.600933194853049e-18,2.2059980712098456e-35,1.0,-3.62117466517986e-35,2.0537216825034562e-19,-7.014466128533188e-35,-1.925929944387236e-35,-5.234577177911611e-37,-5.231452917455918e-18,-6.845154039824883e-35,1.2008474642898308e-18,-5.882643526741362e-35,7.863514624355824e-19,0,0.0,1.0,-0.14943813247359924,0.0,0.0,0.9887710779360424,0,1.5,3.0,0.0392,0,0
60,1.7804647005738805e-34,1.5,3.1905825733868602,-9.841231920966213e-18,-4.467719807610279e-18,3.4862161733352154e-35,1.0,-6.651213927082831e-35,3.1152455202367906e-19,-1.410575957377483e-34,-8.018294130276587e-51,-1.132727524159492e-36,-6.279245306848363e-18,-1.221262000098291e-34,1.7116740326947159e-18,-1.1051968617958944e-34,9.960782337660436e-19,0,0.0,1.0,-0.14943813247359924,0.0,0.0,0.9887710779360424,0,1.5,3.0,0.048800000000000024,0,0
72,0.00030113495056562393,1.498960799225007,3.078225009101944,0.03486835550792797,-0.0013255508557494771,9.912810106857406e-05,0.9993910300141388,0.00040274600092067136,-0.007633412101305514,-0.00027700304369553623,-0.028226368829176573,-0.00024902361678451497,-0.025941976078735933,-0.00020228888039857418,0.03663578446088478,-0.00017212809127535602,0.05523954775702312,0,0.0,1.0,-0.14943813247359924,0.0,0.0,0.9887710779360424,0,1.5,3.0,0.05840000000000005,0,0
84,0.0005443448706703378,1.4985009558456082,3.0700657090184955,0.050588782411150675,0.011884377624773445,0.0006782683463879256,0.9986486252004152,0.0005725313856227849,0.04651893618734848,-0.00037203254571319003,0.003962915400340924,-0.0002888085640753404,-0.042121026508098396,-0.0011629332320668812,0.034041939467057525,0.0010938590446966246,-0.005970428531203096,0,0.0,1.0,-0.14943813247359924,0.0,0.0,0.9887710779360424,0,1.5,3.0,0.06800000000000003,0,0
96,0.0005464169177417729,1.4983062491668202,3.0700845983899816,0.05540231916548696,0.011936462666077641,0.0007439074341029946,0.9983924831907722,0.0005417590424213244,0.07530995540194686,-0.00042147970660432924,0.0032003565634925566,-0.00033483683128025517,-0.04472733470183906,-0.001156301336352133,0.034191486174271354,0.0010837517602928115,-0.005972740930856949,0,0.0,1.0,-0.14943813247359924,0.0,0.0,0.9887710779360424,0,1.5,3.0,0.07759999999999997,0,0
108,0.0005252135827356552,1.4981798158075144,3.0700836083428147,0.058550396792740815,0.011406292959624245,0.000771194752982754,0.9982189903898767,0.0005284604249203993,0.07556265997862611,-0.0004521519017392617,0.0031198186367107105,-0.0003529896892298259,-0.05143445093247561,-0.001155036271510621,0.029410970661955433,0.0010822361266824769,-0.009320958000901604,0,0.0,1.0,-0.14943813247359924,0.0,0.0,0.9887710779360424,0,1.5,3.0,0.08719999999999992,0,0
120,0.0005011069677604727,1.4980850170963371,3.0700737576704973,0.06093587901117736,0.010805530111024402,0.0007875824059887516,0.9980828817699002,0.000518526688121942,0.06652755549449786,-0.00047371268028321474,0.0038166058814518193,-0.0003653742133009636,-0.052969788084036296,-0.001156166271064395,0.022693260531412494,0.00107879033324519,-0.014460276674328608,0,0.0,1.0,-0.14943813247359924,0.0,0.0,0.9887710779360424,0,1.5,3.0,0.09679999999999986,0,0
132,0.0004951662202118083,1.4979075496979362,3.0700970943290296,0.0652961882903424,0.010652251596213715,0.0008268025563572733,0.9978087260232874,0.0005126489889997379,0.04246044655525463,-0.0004943336791703082,0.0038021347085601337,-0.00036072965379000614,-0.05297365863780083,-0.0011561922313088994,0.021432565315285746,0.0010784783050394055,-0.015303796772451942,0,0.0,1.0,-0.14943813247359924,0.0,0.0,0.9887710779360424,0,1.5,3.0,0.1063999999999998,0,0
144,0.0005141962901140366,1.4979884078011014,3.0701608656991666,0.07004001010622786,0.010579082630681866,0.0008822289355147283,0.9974876949953408,0.0005080303679324235,0.017615749416528426,-0.0005074886610249447,0.0036433619828754576,-0.00037464220025580555,-0.05298955844670315,-0.0011499898247367055,0.02123200404759029,0.0010819967379389556,-0.01528986229412841,0,0.0,1.0,-0.14943813247359924,0.0,0.0,0.9887710779360424,0,1.5,3.0,0.11599999999999974,0,0
156,0.0005112034789984607,1.4978165946826287,3.070201175303715,0.07481129506491548,0.010551936077754176,0.0009291918429796189,0.9971414460237024,0.000508509583426469,0.008057753849073807,-0.0005105299077920399,0.0035858397429987966,-0.00037879549312094807,-0.053006703227202745,-0.0011486123151398554,0.021168797206023906,0.0010845312890861649,-0.01527589296312836,0,0.0,1.0,-0.14943813247359924,0.0,0.0,0.9887710779360424,0,1.5,3.0,0.12559999999999968,0,0
168,0.0005107281552018345,1.4976189610317887,3.0702412180546617,0.07958391447950583,0.010538165178414638,0.0009836502798911627,0.9967719799748176,0.0004897807481176295,0.004571985942599632,-0.00055780443180755,0.0035675740506915473,-0.0003866919341369408,-0.0530128675257276,-0.001154228376876989,0.021135223625678892,0.001075142398633939,-0.015274449636076545,0,0.0,1.0,-0.14943813247359924,0.0,0.0,0.9887710779360424,0,1.5,3.0,0.13519999999999963,0,0
180,0.0005080483225444582,1.4974090159791784,3.070282115035577,0.08435254341420843,0.010531993945592105,0.0010294981644109746,0.9963797798312718,0.00048728818019069375,0.003343843428440353,-0.0005719775957656808,0.003572956713452338,-0.00038201105799410266,-0.053018138606597105,-0.0011609710007014532,0.021107773675841258,0.0010724668800871245,-0.015288371696404663,0,0.0,1.0,-0.14943813247359924,0.0,0.0,0.9887710779360424,0,1.5,3.0,0.14479999999999957,0,0
192,0.0005061136756720005,1.4971814609986145,3.0703223161850954,0.08909849043378905,0.010535241539408385,0.0010760734410687194,0.9959665203981888,0.0004966033934569839,0.003114517572255366,-0.0005761847622619464,0.0036250432888195886,-0.0003529767957972901,-0.05302725978011613,-0.001175954188833554,0.021046137750364492,0.0010847044184884279,-0.015367127409143153,0,0.0,1.0,-0.14943813247359924,0.0,0.0,0.9887710779360424,0,1.5,3.0,0.1543999999999995,0,0
204,0.0005034279531557529,1.4969335390674525,3.0703617543258095,0.09385316893495114,0.010533188342115533,0.001123345861795513,0.9955296945437097,0.0004981301885106572,0.0030737274856065377,-0.0005675533767806057,0.0036518553704979763,-0.00034026345990908417,-0.05303391622062131,-0.001184024911474758,0.02100023899525645,0.0010893384364170995,-0.015413471427930509,0,0.0,1.0,-0.14943813247359924,0.0,0.0,0.9887710779360424,0,1.5,3.0,0.16399999999999945,0,0
216,0.0005013933141133418,1.4966810745489887,3.0704025749134023,0.09861662122186637,0.010527722713640785,0.0011715041731736224,0.9950691215444382,0.0004996965324198329,0.003056414883792077,-0.0005568499229083383,0.00365950427836489,-0.00032985237223755214,-0.05303782433413875,-0.0011887491102458227,0.020975949362847586,0.001090110224756305,-0.015428838817996435,0,0.0,1.0,-0.14943813247359924,0.0,0.0,0.9887710779360424,0,1.5,3.0,0.1735999999999994,0,0
228,0.0004994445018279748,1.4964263572738257,3.070444920892795,0.10338222908586865,0.010520700773167524,0.0012213248080475208,0.9945853095286455,0.0004937106666500226,0.003052854825647434,-0.0005490714821005876,0.0036598614245592015,-0.00031847652497725236,-0.053039078913938324,-0.0011936712006984024,0.020960564004477076,0.0010832070022009435,-0.015431859616752745,0,0.0,1.0,-0.14943813247359924,0.0,0.0,0.9887710779360424,0,1.5,3.0,0.18319999999999934,0,0
240,0.0004979303415895977,1.4961699994039337,3.0704888309988267,0.10814861478538956,0.010513779038678563,0.0012721648632255406,0.9940783264747743,0.0004845579785875191,0.003052342401866858,-0.0005437595843679993,0.003658391693583705,-0.0003052916448476885,-0.05304112320460899,-0.0011993125490173473,0.020953601648892484,0.001072730269091077,-0.015427746227810592,0,0.0,1.0,-0.14943813247359924,0.0,0.0,0.9887710779360424,0,1.5,3.0,0.19279999999999928,0,0
252,0.0004972857166211818,1.4959119796688216,3.0705342445915726,0.11291419299771352,0.010506939136492931,0.0013237047869606154,0.9935483063521844,0.00047575546463141024,0.003052098661007742,-0.0005391096113008105,0.003656351407841899,-0.000291200383300728,-0.05304387817106665,-0.001205673477291659,0.020951333718324472,0.0010616629641253502,-0.015420045579036942,0,0.0,1.0,-0.14943813247359924,0.0,0.0,0.9887710779360424,0,1.5,3.0,0.20239999999999922,0,0
264,0.0004975391808933206,1.4956518942195152,3.0705810392742987,0.11767749999272435,0.010499614484421911,0.0013751132689035774,0.9929954043975423,0.000471427340991377,0.003053432960407657,-0.0005316097918620086,0.0036532520473572176,-0.000273860435082494,-0.05304546075509445,-0.0012110875900639287,0.020949408359057252,0.0010522766931532032,-0.015411272542823892,0,0.0,1.0,-0.14943813247359924,0.0,0.0,0.9887710779360424,0,1.5,3.0,0.21199999999999916,0,0
276,0.0004987425771436628,1.4953898387820572,3.0706290264111575,0.1224381566094656,0.010491807301788794,0.0014265742038590723,0.9924196615704765,0.0004707070605515183,0.0030563691815537085,-0.0005216318432724378,0.003649655207374518,-0.0002537974128411462,-0.05304587000535213,-0.0012158696699566204,0.020947454660929808,0.0010441946199740452,-0.01540189106148913,0,0.0,1.0,-0.14943813247359924,0.0,0.0,0.9887710779360424,0,1.5,3.0,0.2215999999999991,0,0
288,0.0005012620259619816,1.4951265372772278,3.0706765290352545,0.12719772098819104,0.010484091141256216,0.0014796726081109535,0.9918208679884312,0.00046784854909724845,0.003059114012150061,-0.0005138760270173428,0.0036483347776277123,-0.00023803089941259342,-0.05304585877966506,-0.0012224337292192301,0.020952817152706298,0.0010347020381297415,-0.015386570085861554,0,0.0,1.0,-0.14943813247359924,0.0,0.0,0.9887710779360424,0,1.5,3.0,0.23119999999999905,0,0
300,0.0005060024677033924,1.4948607759068782,3.0707240916519387,0.13195444389280186,0.010475651885556953,0.0015335125212061283,0.9911992402104943,0.00047105258665877984,0.0030660158877049144,-0.000500744155749809,0.0036470947647566907,-0.00022801311108928675,-0.05304350192567943,-0.001224824847504194,0.020959209861596405,0.0010307308532565256,-0.015369225050609841,0,0.0,1.0,-0.14943813247359924,0.0,0.0,0.9887710779360424,0,1.5,3.0,0.240799999999999,0,0
312,0.0005118662197047821,1.4945933026917786,3.0707725334163163,0.13670857973856412,0.010466937270676116,0.0015882537481603834,0.9905547359434852,0.0004745129244518756,0.003073902329509661,-0.00048734416892822174,0.003646255672028968,-0.00021774286604556378,-0.05304064585568866,-0.001227340187151268,0.020967426530155313,0.0010264379607988134,-0.015350427544546213,0,0.0,1.0,-0.14943813247359924,0.0,0.0,0.9887710779360424,0,1.5,3.0,0.25039999999999896,0,0
324,0.0005187783410951143,1.4943241074877474,3.070822114113666,0.14145979428377606,0.010457898497392858,0.0016438233172495383,0.9898873960229576,0.0004782137720088931,0.0030822842924646755,-0.0004738494624812414,0.003645546210826606,-0.00020709677682916307,-0.05303755192337721,-0.0012300373281747719,0.02097651073680737,0.001021967909172364,-0.01533101432333602,0,0.0,1.0,-0.14943813247359924,0.0,0.0,0.9887710779360424,0,1.5,3.0,0.25999999999999923,0,0
336,0.0005266225519721486,1.4940531558555556,3.0708729128150334,0.14620782201610813,0.010448472880155069,0.0016999678958147949,0.9891972565191091,0.00048283619145062987,0.0030910590062935965,-0.0004610785625538659,0.003644774652492033,-0.0001958795777148507,-0.05303415536077901,-0.0012324210466530653,0.02098582021072587,0.0010180973089946213,-0.015311379957053093,0,0.0,1.0,-0.14943813247359924,0.0,0.0,0.9887710779360424,0,1.5,3.0,0.2695999999999995,0,0
348,0.0005349913403497758,1.4937805243643647,3.0709249641222,0.15095250549492648,0.01043867472907744,0.0017563928186952321,0.9884843399057828,0.0004879235984677059,0.003100099320303513,-0.0004485925895710532,0.003643914684434847,-0.00018412830324199297,-0.05303051985888543,-0.0012341816165649668,0.02099517106382075,0.001015103559851146,-0.015291649073939,0,0.0,1.0,-0.14943813247359924,0.0,0.0,0.9887710779360424,0,1.5,3.0,0.2791999999999998,0,0
360,0.0005436794897541366,1.4935062143479605,3.070978266472611,0.15569371843832475,0.010428526278934659,0.0018129841900511765,0.9877486648772672,0.0004931940255175133,0.0031092888521754903,-0.0004363327185206558,0.0036430159350022443,-0.00017196272107079008,-0.053026740295183374,-0.0012355177586743356,0.021004515712087078,0.001012654444432874,-0.015271895278307874,0,0.0,1.0,-0.14943813247359924,0.0,0.0,0.9887710779360424,0,1.5,3.0,0.28880000000000006,0,0
372,0.0005526085246354016,1.49323019343852,3.071032801492131,0.16043134284564872,0.010418035278025175,0.0018696877112394609,0.9869902497195958,0.0004985904576212175,0.0031185728710598597,-0.00042425785066630176,0.0036420901515359337,-0.00015946770500694597,-0.05302285811311817,-0.0012365311966707011,0.021013827227878767,0.0010106158046578571,-0.015252151515407746,0,0.0,1.0,-0.14943813247359924,0.0,0.0,0.9887710779360424,0,1.5,3.0,0.29840000000000033,0,0
384,0.0005617509668649515,1.49295241926455,3.0710885441949887,0.16516526452552308,0.01040720355991794,0.001926481938855489,0.9862091128029672,0.0005040951416655336,0.0031279298538163516,-0.0004123537126005539,0.003641140636115853,-0.00014664713980277306,-0.0530188907397978,-0.001237273958563987,0.021023090515346857,0.0010089284042274025,-0.015232434752536824,0,0.0,1.0,-0.14943813247359924,0.0,0.0,0.9887710779360424,0,1.5,3.0,0.3080000000000006,0,0
396,0.0005710915386731618,1.4926728468406625,3.0711454667903997,0.1698953724237269,0.010396031055953237,0.001983353978157558,0.9854052726032493,0.0005096999970906344,0.0031373477840837796,-0.00040060877148584607,0.003640167245381764,-0.00013353602355871936,-0.053014846573144814,-0.0012377625035309644,0.021032298969217142,0.00100757367029248,-0.015212751238260437,0,0.0,1.0,-0.14943813247359924,0.0,0.0,0.9887710779360424,0,1.5,3.0,0.3176000000000009,0,0
408,0.000580535924687923,1.4923896183623315,3.071202898253756,0.1746215467638475,0.01038449830351489,0.002041403598336848,0.9845787476236395,0.000515154341538313,0.0031468397005309035,-0.00039047680808250717,0.003639734723861788,-0.00012198697688264953,-0.05301113031875122,-0.0012394961525399053,0.021041706986347473,0.0010050576862807806,-0.015193426105717119,0,0.0,1.0,-0.14943813247359924,0.0,0.0,0.9887710779360424,0,1.5,3.0,0.32720000000000116,0,0
420,0.0005893075685218117,1.4920917611942175,3.071257000496662,0.17934372187658523,0.010371901378655549,0.0021052414003070543,0.9837295466965968,0.0005182067857204113,0.0031562827939358522,-0.0003906194381031632,0.0036399994525617737,-0.00011665860887184275,-0.05300810142780933,-0.0012431573980006974,0.02105135581676814,0.001000040458139503,-0.01517508803272547,0,0.0,1.0,-0.14943813247359924,0.0,0.0,0.9887710779360424,0,1.5,3.0,0.33680000000000143,0,0
432,0.0005875534600376825,1.491758386476268,3.0713000012244125,0.18406197490186232,0.010358489970261625,0.0021699323026641453,0.9828576613500879,0.0005172846783015684,0.003164939041736072,-0.0003984290112828491,0.0036393779419557947,-0.00012083409135507508,-0.05300519215213295,-0.0012424482191338545,0.02106011179394032,0.000996658674949212,-0.015157671732311966,0,0.0,1.0,-0.14943813247359924,0.0,0.0,0.9887710779360424,0,1.5,3.0,0.3464000000000017,0,0
444,0.0005761541935300893,1.4913831153079924,3.071328532827776,0.18877620300628625,0.01034516118275543,0.0022311897591585066,0.9819631075610177,0.0005172681745250878,0.0031727143152982407,-0.00040228175809256484,0.0036382083793463,-0.00012436594885093937,-0.053002579618249245,-0.0012406672503085209,0.02106771935906785,0.0009950599700441123,-0.01514176011656319,0,0.0,1.0,-0.14943813247359924,0.0,0.0,0.9887710779360424,0,1.5,3.0,0.356000000000002,0,0
456,0.0005571853862401554,1.4909565444975525,3.0713377507859394,0.1934868476714468,0.010332679968832994,0.0022882055678508815,0.9810457887469408,0.0005215546844316243,0.0031772788396360256,-0.00040472827229751167,0.00363766493041188,-0.00012696025835251873,-0.05300174686103889,-0.0012384673163754684,0.021076156693393452,0.0009969413850754328,-0.015127213254396544,0,0.0,1.0,-0.14943813247359924,0.0,0.0,0.9887710779360424,0,1.5,3.0,0.36560000000000226,0,0
468,0.0005319061371033807,1.4904471325598692,3.0713137692104544,0.19819410266336876,0.010321612602535666,0.002340088765251593,0.9801056504108707,0.0005369464771305746,0.003176892609331653,-0.0004041444534037175,0.0036382727540096777,-0.0001299972908628062,-0.05300392925746862,-0.0012336462789362414,0.021085480514591505,0.0010086688669299635,-0.01511527456371087,0,0.0,1.0,-0.14943813247359924,0.0,0.0,0.9887710779360424,0,1.5,3.0,0.37520000000000253,0,0
480,0.0005014534155979128,1.4897808584535137,3.071224372869734,0.20289684196618565,0.01031072777088624,0.0023875572682201364,0.9791429211219751,0.0005528476298581955,0.0031765661624296093,-0.0004001220249472133,0.003637817137428454,-0.00013227557904342546,-0.05300559315632042,-0.00122834715679751,0.021089180079032786,0.0010222099789674408,-0.015111120911948892,0,0.0,1.0,-0.14943813247359924,0.0,0.0,0.9887710779360424,0,1.5,3.0,0.3848000000000028,0,0
492,0.00046692209287615516,1.4888181578014716,3.071007248025189,0.20759538460065735,0.010299515540271564,0.0024338226838471074,0.9781575296337929,0.0005646218760827951,0.003175497812103474,-0.00039703393463078843,0.003636110066810773,-0.00013404719287137513,-0.05300644687170652,-0.001223381212465688,0.021084183433982884,0.001034767097002401,-0.01512148623100047,0,0.0,1.0,-0.14943813247359924,0.0,0.0,0.9887710779360424,0,1.5,3.0,0.3944000000000031,0,0
504,0.0004290022494739764,1.4873691225359822,3.070572879890014,0.2122923936930678,0.010288933480591587,0.0024835475085575615,0.9771488675834774,0.0005603897171572971,0.0031628262936209445,-0.0004000336789546978,0.00363533420549979,-0.00013588843065208433,-0.0530117767848002,-0.0012239828307313502,0.02107374203531865,0.0010376207661789132,-0.015152873984252817,0,0.0,1.0,-0.14943813247359924,0.0,0.0,0.9887710779360424,0,1.5,3.0,0.40400000000000336,0,0
516,0.00038558626328926186,1.4852261659776456,3.0698156031049075,0.2169880674943038,0.010279461656668603,0.0025349366177294806,0.9761168399989217,0.0005519277490279942,0.0031360572801785976,-0.00040517636945253853,0.0036353836622139784,-0.00013899466073122692,-0.053022673488334254,-0.0012255629294896121,0.021051352560567515,0.0010434940716112177,-0.015217024000855511,0,0.0,1.0,-0.14943813247359924,0.0,0.0,0.9887710779360424,0,1.5,3.0,0.41360000000000363,0,0
528,0.00033546332570929274,1.4821807742153865,3.0686198413869885,0.22168342170918892,0.010271746312958832,0.002587484363988594,0.975061155359834,0.000537669088340088,0.0030899100422756773,-0.00041311125641516327,0.0036366107535059275,-0.0001438078491887229,-0.05304100860467333,-0.0012285474788065684,0.021012448914411036,0.0010533932674587113,-0.015325229429176225,0,0.0,1.0,-0.14943813247359924,0.0,0.0,0.9887710779360424,0,1.5,3.0,0.4232000000000039,0,0
540,0.00027759636246011505,1.4780299971723034,3.0668626245468205,0.22637946799688405,0.010266655995347913,0.0026396635321025955,0.9739815010669136,0.0005161007383553962,0.0030187948585949447,-0.0004243247046998664,0.003639357941963842,-0.00015050781284124825,-0.05306882591416992,-0.0012333997700700134,0.02095199562807628,0.0010684582253768019,-0.015489433271770794,0,0.0,1.0,-0.14943813247359924,0.0,0.0,0.9887710779360424,0,1.5,3.0,0.4328000000000042,0,0
552,0.0001314610298205231,1.4730673578563345,3.064611600092799,0.23109987308125796,0.010364952250133445,0.0023943556714560244,0.97287187413739,0.0004523418378011762,0.0029192109967996586,-0.0005076468969581434,0.0037611940275529402,-0.00030691495720099906,-0.0530633718291031,-0.0012300912426838017,0.021009876488588014,0.0010669259554916082,-0.015644498205814726,0,0.0,1.0,-0.14943813247359924,0.0,0.0,0.9887710779360424,0,1.5,3.0,0.44240000000000446,0,0
564,-0.0001802380390937551,1.469218388744397,3.062786357471935,0.23581698859407016,0.010578769435777718,0.0015725055256451278,0.9717386298557965,0.0004139880494187749,0.0028864267599696017,-0.000548282085149854,0.00387568823616617,-0.0005337264241633118,-0.05304618482503698,-0.0012219010234153869,0.02267083957369365,0.0010608443407985333,-0.015708155089053082,0,0.0,1.0,-0.14943813247359924,0.0,0.0,0.9887710779360424,0,1.5,3.0,0.45200000000000473,0,0
576,-0.00024372752483267074,1.4664620782058655,3.0614182674658563,0.24051771099614638,0.010692401456395129,0.0012394731644905681,0.9705850642548256,0.0003812007739800842,0.0028707902616679345,-0.0005461304575526996,0.003986629564279588,-0.0018129298003413691,-0.05302646115855972,-0.0012227510659076595,0.024392021017460266,0.0010435764663985884,-0.015755906954489057,0,0.0,1.0,-0.14943813247359924,0.0,0.0,0.9887710779360424,0,1.5,3.0,0.461600000000005,0,0
588,-0.0003002343244013523,1.46334315586278,3.059806745765961,0.24521154112569082,0.010739093596376035,0.00126691618467847,0.9694092876029572,0.0003190183720516156,0.0028400360448849423,-0.0005745583990023606,0.004113494466007944,-0.005087676202338271,-0.05300855962842056,-0.0012135892551971173,0.026224931426833898,0.0010142892714959302,-0.015850617101106326,0,0.0,1.0,-0.14943813247359924,0.0,0.0,0.9887710779360424,0,1.5,3.0,0.4712000000000053,0,0
600,-0.0004377803838131818,1.4600952715073976,3.058059560456971,0.24989904322917603,0.010761012914932205,0.001389853742405665,0.9682111015169996,0.0002477488341758148,0.0028059409518503362,-0.0006192470160542423,0.004228371056467745,-0.009071823439378957,-0.05299462533529433,-0.0011951010365210707,0.02817307980242187,0.0009811693091794234,-0.015955069114725332,0,0.0,1.0,-0.14943813247359924,0.0,0.0,0.9887710779360424,0,1.5,3.0,0.48080000000000556,0,0
612,-0.0006096904165037951,1.4568104430754754,3.056219786093188,0.25458144631020935,0.010778311505721892,0.0015306805932049517,0.966990057969889,0.00017380066245190816,0.0027705471039979074,-0.000668134049560844,0.0043420703781035935,-0.013285328756386721,-0.0529814619399425,-0.001176255559928143,0.030243729183049368,0.0009472722636966659,-0.01606342891573618,0,0.0,1.0,-0.14943813247359924,0.0,0.0,0.9887710779360424,0,1.5,3.0,0.49040000000000583,0,0
624,-0.0009546648225665765,1.4532849211367012,3.0541752351273996,0.2593739878223991,0.011100222046909053,0.0010598585015989838,0.9657125846811627,0.00015870661296970383,0.002234121067775995,-0.0006783547337042902,0.0047478792673694824,-0.01509479785406168,-0.0529751100184179,-0.0011728126632619918,0.029584018593857984,0.0009404373305640929,-0.016079972517669544,0,0.0,1.0,-0.14943813247359924,0.0,0.0,0.9887710779360424,0,1.5,3.0,0.5000000000000061,0,0
636,-0.00164736981558147,1.4486983606301216,3.0514560568326905,0.26421460944040387,0.01176422181412901,-0.000508832132994411,0.9643920283438802,0.00013712355409438345,0.0015492621422414257,-0.0007232992165407657,0.005305259822643183,-0.015153233322015005,-0.05297441101246102,-0.001171217239128929,0.024078713204571753,0.0009337323520689425,-0.01607485024504052,0,0.0,1.0,-0.14943813247359924,0.0,0.0,0.9887710779360424,0,1.5,3.0,0.5096000000000064,0,0
648,-0.0027922138164114866,1.4430459609735415,3.048017090121932,0.26895533799604,0.01247663571491377,-0.0028603320555961906,0.963067587568601,0.00011690540760931294,0.0013714083614690155,-0.0007017093516626676,0.005578529207145673,-0.015931131138740905,-0.05295341430917633,-0.0011722789825426303,0.022913860294305796,0.0009267299395711747,-0.016133722668890446,0,0.0,1.0,-0.14943813247359924,0.0,0.0,0.9887710779360424,0,1.5,3.0,0.5192000000000067,0,0
660,-0.004339567549637868,1.4362228183876422,3.0437569016793016,0.27369255090984446,0.013437497122952662,-0.006176916752480645,0.9617035234140332,8.53084899794904e-05,0.001259461942873566,-0.000724596715478283,0.0058335743617346225,-0.016092745814060668,-0.05292332788441975,-0.0011711952141539189,0.022967981063449824,0.0009313958083253453,-0.01619113086774292,0,0.0,1.0,-0.14943813247359924,0.0,0.0,0.9887710779360424,0,1.5,3.0,0.5288000000000069,0,0
672,-0.0063451161051564925,1.4278781702878058,3.0384187647964582,0.27846015639469723,0.014667578529718214,-0.010370024505096283,0.9602797852878499,4.975798916425856e-05,0.0010237229620132693,-0.0007487875664597142,0.006112699156550712,-0.01625590384479749,-0.05288703097010691,-0.0011694481036777656,0.023036235303610587,0.0009347707682958307,-0.016213840716498954,0,0.0,1.0,-0.14943813247359924,0.0,0.0,0.9887710779360424,0,1.5,3.0,0.5384000000000072,0,0
684,-0.008908523809631122,1.417895066438112,3.031868089825867,0.2832541241148144,0.01616946745691449,-0.015449038435509634,0.95878411371149,5.152975185415108e-05,0.0006678927717508976,-0.0006642019213484012,0.006381595491728372,-0.016724308447252357,-0.05284739851050172,-0.0011728604019787924,0.023091368030989337,0.0009379310870157599,-0.016192383347257203,0,0.0,1.0,-0.14943813247359924,0.0,0.0,0.9887710779360424,0,1.5,3.0,0.5480000000000075,0,0
696,-0.012119208558139617,1.4060804947874466,3.0239164265543534,0.2880693038162505,0.0179398520605013,-0.021347175703573834,0.9572034976933321,9.67027391494169e-05,0.0002085186483433736,-0.0005300943577984644,0.006641059561961089,-0.018082011914307326,-0.05281560951197746,-0.0011771993781461093,0.023124164043016687,0.0009607353801194217,-0.016147283021487373,0,0.0,1.0,-0.14943813247359924,0.0,0.0,0.9887710779360424,0,1.5,3.0,0.5576000000000078,0,0
708,-0.01609069825043969,1.392255670553802,3.014369815644449,0.29289425889685317,0.019995971013633138,-0.02799099866491524,0.955525833372508,0.0001335338653412176,-0.0002566605871678356,-0.00046555338024065716,0.006990344246633504,-0.020823904753414207,-0.05280957283648207,-0.0011778602739503047,0.023150492647158304,0.0009782935189697342,-0.016147208723853574,0,0.0,1.0,-0.14943813247359924,0.0,0.0,0.9887710779360424,0,1.5,3.0,0.567200000000008,0,0
720,-0.02093962283266269,1.3762639223035196,3.003040107964467,0.2977419260427113,0.02234665543293404,-0.03536684472220004,0.9537292900827435,0.00013712035249918776,-0.0008376811422408881,-0.0004510292132642091,0.007421199333622688,-0.02527601183892516,-0.052800903682976616,-0.001177514792924412,0.02320332574735759,0.0009785992813695584,-0.01616685180146346,0,0.0,1.0,-0.14943813247359924,0.0,0.0,0.9887710779360424,0,1.5,3.0,0.5768000000000083,0,0
732,-0.026823213361085528,1.3579435540678295,2.9897237029607924,0.3026111236191625,0.024984993507694862,-0.04346260413558294,0.9517947572891553,0.00011960518118088452,-0.0015728324834912552,-0.00046260437767391485,0.007900535213769074,-0.03186616038468434,-0.052731489224692285,-0.0011767440127500952,0.023253612861506973,0.0009675425933490455,-0.016195722813197103,0,0.0,1.0,-0.14943813247359924,0.0,0.0,0.9887710779360424,0,1.5,3.0,0.5864000000000086,0,0
744,-0.033804694096173,1.3371564158001183,2.97422221067371,0.30750270860562173,0.027904497019636296,-0.05230639434777387,0.9496986176448939,0.00012994238572821992,-0.0025450340973937986,-0.0004415897665853511,0.00832459625148901,-0.040476941887524626,-0.05225201284072943,-0.001183997170463775,0.02325239087175835,0.0009689758090916485,-0.016199512633168038,0,0.0,1.0,-0.14943813247359924,0.0,0.0,0.9887710779360424,0,1.5,3.0,0.5960000000000089,0,0
756,-0.041795533093321444,1.313816427421328,2.95636111732969,0.3124245756594972,0.031153745791389218,-0.06193794352201641,0.9474091089911538,0.00013897139584975661,-0.003805752865386324,-0.0004236349552046921,0.008778594624891733,-0.0506576402637737,-0.051001691720190506,-0.0011967618228583186,0.023253107867992513,0.0009672096661412873,-0.016196659694689648,0,0.0,1.0,-0.14943813247359924,0.0,0.0,0.9887710779360424,0,1.5,3.0,0.6056000000000091,0,0
768,-0.04978798391210128,1.287631415203462,2.9358115181691877,0.3172066419376962,0.034611234586147066,-0.07251697060389364,0.944946187740586,0.0001296975044125748,-0.004624909391219382,-0.0004395898259767174,0.008939297434678747,-0.05540609796583488,-0.05046820640215641,-0.0011967975234930882,0.02241284539886913,0.0009643520308626945,-0.016352416142098362,0,0.0,1.0,-0.14943813247359924,0.0,0.0,0.9887710779360424,0,1.5,3.0,0.6152000000000094,0,0
780,-0.05626711357126895,1.2568968131269211,2.911206743766904,0.3218057934825588,0.03810483701375271,-0.08328170260130623,0.9423657520777395,0.00011339056859281046,-0.00462712106592064,-0.00046587693843577575,0.008936208956390027,-0.055429932949814395,-0.051282831916975115,-0.001197016737965531,0.0204352857336841,0.0009572718261730747,-0.01709281775745523,0,0.0,1.0,-0.14943813247359924,0.0,0.0,0.9887710779360424,0,1.5,3.0,0.6248000000000097,0,0
792,-0.06174195504728174,1.221195111615871,2.8820224731846267,0.3264806118459398,0.04195967351364296,-0.09386260440701585,0.9395954487870093,0.0001256527737088862,-0.004627377773770735,-0.00044168245720227364,0.008935793292073647,-0.055400697998531714,-0.053572180208553165,-0.0012031376742324318,0.01859532338955666,0.0009593471957122556,-0.01867582416041662,0,0.0,1.0,-0.14943813247359924,0.0,0.0,0.9887710779360424,0,1.5,3.0,0.63440000000001,0,0
804,-0.06647856799298352,1.1804869831642721,2.84799030510101,0.33115066969048745,0.045881266595210676,-0.10434230896539914,0.9366679379048533,0.00012279862118169682,-0.0046295936381296095,-0.0004361282728587194,0.008932771134517407,-0.05538566462943666,-0.056129312531623926,-0.0012241370906644804,0.01608984841841944,0.0009460850899298555,-0.0208444289225661,0,0.0,1.0,-0.14943813247359924,0.0,0.0,0.9887710779360424,0,1.5,3.0,0.6440000000000102,0,0
816,-0.07065016336805974,1.1347385926212237,2.8088329868750486,0.33582239377029466,0.049892432814943356,-0.11473676402456412,0.9335788879207622,0.00013836550737562165,-0.004633105701976992,-0.00041349957684145276,0.008928972745005736,-0.05535333986008538,-0.05866615192457213,-0.0012244807516149305,0.013299440944174798,0.0009518835433139987,-0.0232765229090728,0,0.0,1.0,-0.14943813247359924,0.0,0.0,0.9887710779360424,0,1.5,3.0,0.6536000000000105,0,0
828,-0.07437539632002707,1.083927670112469,2.7642726688492676,0.34049638490586326,0.053989446325188296,-0.12504487555010743,0.9303285068459398,0.00013926613072992106,-0.004636935127159274,-0.00041159035808791027,0.008923831853573524,-0.05534085944155462,-0.060828935141004056,-0.0012310024783498542,0.010632066140624532,0.0009472367449224169,-0.025570465915300777,0,0.0,1.0,-0.14943813247359924,0.0,0.0,0.9887710779360424,0,1.5,3.0,0.6632000000000108,0,0
840,-0.07774819797085729,1.0280604745401614,2.7140442781571106,0.34517238158928726,0.05817715225624068,-0.13528785386559,0.9269135032675792,0.0001336512581020304,-0.004640846004377656,-0.0004195573655596157,0.00891860850453358,-0.05533822140582098,-0.06162377638353434,-0.0012358993365794515,0.008506257906878027,0.0009399222225027461,-0.027317528444688776,0,0.0,1.0,-0.14943813247359924,0.0,0.0,0.9887710779360424,0,1.5,3.0,0.6728000000000111,0,0
852,-0.08081025048601127,0.96707636046571,2.6578153896428685,0.3496345731735742,0.06240658230295292,-0.14547938097138055,0.9234158507623644,0.00013278216938762867,-0.004638591805534229,-0.00042986330252096406,0.008910431282459814,-0.055345704348839356,-0.06165017052028118,-0.0012278730709176014,0.0067233491023449,0.0009442012137587008,-0.02852182123900328,0,0.0,1.0,-0.14943813247359924,0.0,0.0,0.9887710779360424,0,1.5,3.0,0.6824000000000113,0,0
864,-0.08361386545820718,0.9008956908243412,2.5952299782007207,0.35387510958960455,0.06664013672925355,-0.15560871414623476,0.9198464149364323,0.00012789601228463147,-0.005820299636500688,-0.00044895250849981275,0.008801063366863694,-0.05532758905779967,-0.06167032043405982,-0.0012252301529304265,0.005599535151297801,0.0009439734483607962,-0.028978774910668234,0,0.0,1.0,-0.14943813247359924,0.0,0.0,0.9887710779360424,0,1.5,3.0,0.6920000000000116,0,0
876,-0.08626113136595352,0.8294971452264672,2.5259730299187817,0.3582436525658419,0.07092437259378273,-0.16560394070852044,0.9160821762212555,0.00012456838613121194,-0.008133977232472436,-0.00046763094240250187,0.008574360622265622,-0.05528483357179939,-0.06170370573599491,-0.0012259278943390459,0.0054667853985569115,0.0009412613326552856,-0.028968400571535623,0,0.0,1.0,-0.14943813247359924,0.0,0.0,0.9887710779360424,0,1.5,3.0,0.7016000000000119,0,0
888,-0.08878077768902623,0.7528661377504442,2.449710453635267,0.3625555462378259,0.07526066654088862,-0.1754506731737609,0.912198645716429,0.00012103095965853674,-0.010609264688212116,-0.0004858340478532305,0.008362707529162634,-0.055245309336507516,-0.061736028920457785,-0.0012264373881727298,0.005343553381233577,0.0009385179323788423,-0.028958539936968834,0,0.0,1.0,-0.14943813247359924,0.0,0.0,0.9887710779360424,0,1.5,3.0,0.7112000000000122,0,0
900,-0.09124132829377292,0.6714267104874958,2.365056999541128,0.3669832909880919,0.08002969422020237,-0.18503812790108073,0.9081186064614213,0.00012003828231310438,-0.0120374660013731,-0.0004920512415416586,0.00791689997233914,-0.055231021522210905,-0.061670633961495726,-0.0012261848784827316,0.005271522383619673,0.0009378098834515421,-0.029051126846389757,0,0.0,1.0,-0.14943813247359924,0.0,0.0,0.9887710779360424,0,1.5,3.0,0.7208000000000124,0,0
912,-0.09182014070275771,0.6081433523597989,2.290164554458364,0.37545331511115526,0.08113562363978766,-0.18328817928466015,0.9049073223723746,-0.041720187167875955,-0.010429916916718972,-0.07438477278816372,0.00734116575724333,-0.057898728678608,-0.06375328907892094,-0.025462837025737296,0.036989373252200954,-0.029672029053825787,-0.013611932728899634,0,0.0,1.0,-0.14943813247359924,0.0,0.0,0.9887710779360424,0,1.5,3.0,0.7304000000000127,0,0
924,-0.08542298745399991,0.6102950295440399,2.284569824199752,0.37479292763329003,0.07632792672690453,-0.1670400073742557,0.9087364551585065,-0.15147089026194097,0.0010565180661292874,-0.32546355571292707,-0.0018274918313990693,-0.009770466598547602,-0.06386475226210915,-0.07253230622677903,0.04241985985498731,-0.06659433835982712,-0.001725585466361492,0,0.0,1.0,-0.14943813247359924,0.0,0.0,0.9887710779360424,0,1.5,3.0,0.740000000000013,0,0
936,-0.07748533003022147,0.6121356545084475,2.2800618593488813,0.3730869767359357,0.07866648500946291,-0.17115984186953687,0.9084723443547913,-0.17737331947335347,0.0010642406935114225,-0.5019725741970141,-0.013201132737487546,0.08972618794346407,-0.064424051817738,-0.06550862861410157,0.04930230996151192,-0.054566036859336704,-0.001642394847829037,0,0.0,1.0,-0.14943813247359924,0.0,0.0,0.9887710779360424,0,1.5,3.0,0.7496000000000133,0,0
948,-0.08031042533096056,0.6214398491846831,2.2786548058406533,0.37231992159655586,0.08887954019520401,-0.19499786626207577,0.903024991608904,-0.1577536045455316,0.0010632595543050207,-0.500144820164736,-0.015259242980367538,0.2376274377251622,-0.06461639862480922,0.00421925518156762,0.06223792154169639,0.020239323408121374,-0.0016343218833163795,0,0.0,1.0,-0.14943813247359924,0.0,0.0,0.9887710779360424,0,1.5,3.0,0.7592000000000135,0,0
960,-0.08323471252153265,0.6285830747112316,2.271993481777494,0.3751119888843266,0.09226591883765559,-0.20122765473270485,0.9001585565815965,-0.17768443975172002,0.00106231586519353,-0.5000119105242687,-0.015260670972932622,0.31380048359045354,-0.06461467656848094,0.024994861825945954,0.0837359968209281,0.027588181196755185,-0.0016295994656250212,0,0.0,1.0,-0.14943813247359924,0.0,0.0,0.9887710779360424,0,1.5,3.0,0.7688000000000138,0,0
972,-0.08350219865307425,0.6350901268736783,2.265325253730366,0.3775424411474876,0.09444504095207598,-0.20460788526893395,0.8981522435855357,-0.18595341225409096,0.0010611811476305597,-0.5000070162771844,-0.015264536268774194,0.37173568219529934,-0.06462573580004008,0.030446613479017084,0.10272511371624901,0.027581271416775147,-0.0016219950184712805,0,0.0,1.0,-0.14943813247359924,0.0,0.0,0.9887710779360424,0,1.5,3.0,0.7784000000000141,0,0
984,-0.08321178606655119,0.6404835222502367,2.2597115717092087,0.3782415647575779,0.0955940972723115,-0.20693682531563118,0.8972024507237588,-0.18594881161059645,0.0010658041308604998,-0.5000008122046627,-0.015920906632364555,0.4174442354070897,-0.06462730155241483,0.030462703015612255,0.11406933597084018,0.027485179025629584,-0.001612631846413878,0,0.0,1.0,-0.14943813247359924,0.0,0.0,0.9887710779360424,0,1.5,3.0,0.7880000000000144,0,0
996,-0.0832252731216671,0.6446276776403547,2.25527430066455,0.37696846035947135,0.09552612281104464,-0.20839923293969068,0.8974069865256497,-0.18594580591604304,0.001069391435096326,-0.4999995871346902,-0.017561470184808248,0.4515228834139366,-0.06462842007062262,0.03045780019384812,0.11676232034518039,0.027436909374635228,-0.0015943890872220923,0,0.0,1.0,-0.14943813247359924,0.0,0.0,0.9887710779360424,0,1.5,3.0,0.7976000000000146,0,0
1008,-0.08278236284216355,0.6478286756850732,2.2494123314646366,0.37487030502258634,0.09502009765476255,-0.2093569830676623,0.8981164117723042,-0.1859440291819321,0.0010671614935247853,-0.49999853149685225,-0.017744015039180605,0.47645631294855634,-0.06463186304708213,0.030457350330129696,0.11675604574943754,0.02538652437261256,-0.0013796179688139291,0,-0.0009000000000000002,1.0,-0.14765810340469038,0.0,0.0,0.9890384646205271,0,1.508999999999999,3.0,0.8000000000000147,0,0
1020,-0.08160167256905165,0.649214316584171,2.241933495501073,0.37192661733394644,0.09461072872714592,-0.21094959367320307,0.8990103838428993,-0.1859418154527158,0.0010631573189529896,-0.49999831016685964,-0.017759434085579746,0.4945643833948077,-0.0646358435661484,0.03045716598751935,0.11674283324235958,0.023190424915187954,-0.0013589286922995097,0,-0.0021000000000000003,1.0,-0.14528398811321133,0.0,0.0,0.9893899952990834,0,1.5209999999999977,3.0,0.8000000000000147,0,0
1032,-0.08015167047866312,0.650813212953445,2.2345517393984937,0.36911456793283487,0.09420650433223102,-0.2123264069225334,0.8998872524959028,-0.18635639148312488,0.0010637265073418262,-0.5000179168353557,-0.01776951180435067,0.5001826369867123,-0.0646362393427353,0.030228618669768857,0.11674150566669565,0.020894124343326083,-0.0010295988191438414,0,-0.0032999999999999982,1.0,-0.14290903598636243,0.0,0.0,0.9897358270940022,0,1.5329999999999964,3.0,0.8000000000000147,0,0
1044,-0.07857145731344724,0.6526518823496471,2.2273369745223177,0.3663546742959211,0.0940314557389918,-0.21401241158873968,0.9006336800492792,-0.18635776847740776,0.0010729309382668496,-0.5000056440630133,-0.01777509078178054,0.5000339564909965,-0.0646399786120182,0.0302587228734079,0.11674115654212353,0.020231124810950848,-0.0005013935906695397,0,-0.004499999999999999,1.0,-0.14053326070386135,0.0,0.0,0.9900759580132933,0,1.544999999999995,3.0,0.8000000000000147,0,0
1056,-0.07699881359191675,0.6542365344125045,2.2202852521865526,0.36425797214478106,0.09493732658396388,-0.21553126008178783,0.9010268085232639,-0.1863576169177513,0.001076218201606352,-0.49999931133642045,-0.01777447835494874,0.5000083854966552,-0.06744952864569978,0.03026657517913739,0.11944825762561107,0.020230872689679488,-0.00046074228581054785,0,-0.005700000000000002,1.0,-0.13815667595016717,0.0,0.0,0.9904103860978036,0,1.5569999999999937,3.0,0.8000000000000147,0,0
1068,-0.07541067830230753,0.6561149420889035,2.2125213309151115,0.36292743360097857,0.09734953206334891,-0.21656318520368706,0.9010588956118728,-0.18636138674951575,0.0010806087669914934,-0.4999999429370577,-0.01777448361998333,0.5000020509431664,-0.07248585890375721,0.030261633797002353,0.1267696628663926,0.020214757632336062,-0.00045503026488431537,0,-0.006900000000000005,1.0,-0.13577929541440154,0.0,0.0,0.9907391094212284,0,1.5689999999999924,3.0,0.8000000000000147,0,0
1080,-0.07370833871100374,0.6582333619579501,2.20436634254354,0.3615477989949899,0.09922024722967164,-0.21784939078416557,0.9010994254334697,-0.18636657514394345,0.0027792369412908456,-0.49999959382485315,-0.0215586113472847,0.5000006269177896,-0.07446991619302697,0.030255460774994556,0.13382408997189033,0.020189009733096057,0.0010003476152741426,0,-0.008100000000000007,1.0,-0.13340113279026966,0.0,0.0,0.991062126090122,0,1.580999999999991,3.0,0.8000000000000147,0,0
1092,-0.07171859473556841,0.6610391237187886,2.195050784677057,0.36124894194430235,0.1000542875917799,-0.21959323345730494,0.9007036989478777,-0.18636477248669864,0.003068185462490258,-0.4999982419970488,-0.022318703673074234,0.5000006021282085,-0.07466498662322361,0.030254189036429967,0.1442874101749245,0.02018407062429034,0.008678715089779361,0,-0.0093,1.0,-0.13102220177598176,0.0,0.0,0.9913794342439094,0,1.5929999999999898,3.0,0.8000000000000147,0,0
1104,-0.0696388933087493,0.6638226619711487,2.1855659180775877,0.3610642888705542,0.10086821579586429,-0.22141340524606976,0.9002412378478891,-0.18636489062775802,0.0030777990571413524,-0.4999947764394569,-0.022341211775154003,0.5000028505153479,-0.07482427355909285,0.030252383100403162,0.15516029930988443,0.020178634220456095,0.016801284346664582,0,-0.010499999999999992,1.0,-0.12864251607417387,0.0,0.0,0.9916910320548966,0,1.6049999999999884,3.0,0.8000000000000147,0,0
1116,-0.06752142090771296,0.6665291293487567,2.1759882490697535,0.3608749290571449,0.1016737995579532,-0.22327266582087968,0.8997672147609556,-0.1863675623620089,0.0030721116375499904,-0.4999968345325024,-0.022380245104289615,0.5000023767729528,-0.07481821762733516,0.03025605361954309,0.16602061712026767,0.020178339874620144,0.025046919926564288,0,-0.011699999999999985,1.0,-0.12626208939182906,0.0,0.0,0.9919969177282809,0,1.6169999999999871,3.0,0.8000000000000147,0,0
1128,-0.06533956309027614,0.669139532582961,2.1663193803193415,0.3606984616685527,0.10251894177256343,-0.22509903251924582,0.8992868907565998,-0.18637413106276676,0.00307960922412121,-0.49999888535869647,-0.022353067461716853,0.4999998884783505,-0.07507028993615233,0.03048310729710794,0.17697776210921928,0.020092014716828466,0.03338001191747981,0,-0.012899999999999977,1.0,-0.12388093544019846,0.0,0.0,0.9922970895021619,0,1.6289999999999858,3.0,0.8000000000000147,0,0
1140,-0.06252621899231246,0.6715500636189194,2.1564579593845137,0.36059431969275796,0.10292990227741436,-0.22604450694636202,0.8990445220910114,-0.18636902651386958,0.003082781205509411,-0.49999704552511426,-0.022434645403673747,0.5000015622766297,-0.07506095575071228,0.030878560994692453,0.18792215663192927,0.01705400521291672,0.04191718698851842,0,-0.01409999999999997,1.0,-0.12149906793472223,0.0,0.0,0.9925915456475507,0,1.6409999999999845,3.0,0.8000000000000147,0,0
1152,-0.0598781187381365,0.673850815969545,2.1464688263053113,0.36052064821578633,0.10325930927946189,-0.22678598226155638,0.8988495399714341,-0.18637459965161962,0.0030781078193389292,-0.500000830838515,-0.022476600238362655,0.5000004415315057,-0.07525638128160517,0.03088097162730197,0.1989180614738123,0.013407518754957852,0.05082206186595902,0,-0.015299999999999963,1.0,-0.1191165005949506,0.0,0.0,0.992880284468381,0,1.6529999999999831,3.0,0.8000000000000147,0,0
1164,-0.057251811345518225,0.6760692385139785,2.136389794470874,0.3604507897159719,0.10358717926734212,-0.22750391950195448,0.8986583839790379,-0.1863778827399181,0.0030809475796905713,-0.5000005174781558,-0.022484342439584273,0.5000001913537068,-0.07547174497510162,0.030878855068962315,0.20994521817491374,0.009576183367556645,0.05975708349115735,0,-0.016499999999999956,1.0,-0.11673324714446491,0.0,0.0,0.9931633043015179,0,1.6649999999999818,3.0,0.8000000000000147,0,0
1176,-0.054640325776410634,0.6782001886304018,2.1262366879791563,0.3603731111515296,0.10389350633094095,-0.2282112586756345,0.8984748085032283,-0.18637797564620265,0.0030799172409689663,-0.500000534084068,-0.02255205709914753,0.5000007718941292,-0.0754645424404235,0.030880197793496277,0.22093173566765975,0.005572314319575413,0.0687059443779683,0,-0.01769999999999995,1.0,-0.11434932131079838,0.0,0.0,0.9934406035167678,0,1.6769999999999805,3.0,0.8000000000000147,0,0
1188,-0.052042467396973664,0.6802503010303342,2.115990085916243,0.3603035558921343,0.10419865877916083,-0.22889870263675136,0.8982924752280406,-0.18638111147245234,0.0030764570998385683,-0.500000839439878,-0.0226655469725951,0.5000003198381716,-0.07570905279605461,0.030879654861698393,0.23196875401270214,0.0013789194375049244,0.07768445310995949,0,-0.01889999999999994,1.0,-0.11196473682535725,0.0,0.0,0.9937121805168881,0,1.6889999999999792,3.0,0.8000000000000147,0,0
1200,-0.04946543335026842,0.6822153895375136,2.105657948092556,0.36023390135251876,0.1044952718572655,-0.22956629169017093,0.8981155784170785,-0.18638281830001968,0.0030769591390454364,-0.5000003099142941,-0.02274584581279441,0.5000004107825288,-0.07590567933370966,0.030876456343057763,0.2430168311026855,-0.0030043888594018108,0.08668153504731983,0,-0.020099999999999934,1.0,-0.10957950742334159,0.0,0.0,0.9939780337375962,0,1.7009999999999779,3.0,0.8000000000000147,0,0
1212,-0.046915460674478146,0.6841003690830915,2.095232267722509,0.3601663874072712,0.10476807296449421,-0.23021788273270666,0.8979440688257658,-0.18638382090059516,0.003073438851432166,-0.5000007161694356,-0.0227672657764359,0.5000000563225595,-0.07590491765694037,0.030878527824240054,0.25407840975021007,-0.007582014897133092,0.09574361983719543,0,-0.021299999999999927,1.0,-0.10719364684366611,0.0,0.0,0.994238161647578,0,1.7129999999999765,3.0,0.8000000000000147,0,0
1224,-0.04438615862380931,0.6859090073360568,2.0846887110485186,0.3601308767661424,0.10503473024763425,-0.23084372709763396,0.8977664677972381,-0.18638521120309567,0.0030718523859787766,-0.5000003901131869,-0.02277444534642295,0.5000005978986675,-0.07599479533407069,0.03087811660385066,0.26528520427422864,-0.012388836200054194,0.10491764061416768,0,-0.02249999999999992,1.0,-0.1048071688288812,0.0,0.0,0.9944925627484976,0,1.7249999999999752,3.0,0.8000000000000147,0,0
1236,-0.041864825096418784,0.6876073248220976,2.0741222123384313,0.36004540762312603,0.10532485375412234,-0.23145708427487727,0.8976088222439339,-0.18638676202198784,0.0030799664013085874,-0.49999979351545204,-0.02275031110053907,0.5000003291347582,-0.07601949970943502,0.03088003737513406,0.27632161587698834,-0.01731560835133435,0.11386751879605532,0,-0.023699999999999912,1.0,-0.10242008712509361,0.0,0.0,0.9947412355750054,0,1.736999999999974,3.0,0.8000000000000147,0,0
1248,-0.03929992702141141,0.6892917727756217,2.0634139735083448,0.3600238780988398,0.10556691050080921,-0.23207451863375245,0.8974295807509902,-0.18638804634864795,0.0030780283710817023,-0.5000082377882239,-0.02281677448743157,0.5000018230976245,-0.07611885196437265,0.030875195757562597,0.28765585464915816,-0.022443886294575378,0.12308225651498692,0,-0.024899999999999905,1.0,-0.10003241548188734,0.0,0.0,0.9949841786947464,0,1.7489999999999726,3.0,0.8000000000000147,0,0
1260,-0.03675225065625604,0.6909461712475825,2.052849621282827,0.3599171261978567,0.10587461042990591,-0.23268249333318153,0.8972787116788439,-0.18639164273903688,0.0030768743265495507,-0.500002458355728,-0.02284320589295382,0.5000016690435863,-0.07619756019597661,0.0308693059589656,0.2987767772189717,-0.027472495511263368,0.13178987367758602,0,-0.026099999999999898,1.0,-0.09764416765224447,0.0,0.0,0.9952213907083692,0,1.7609999999999713,3.0,0.8000000000000147,0,0
1272,-0.034254297085296696,0.6925452802781562,2.042145119167449,0.35985411950578655,0.10613257498855502,-0.23326055817482236,0.8971234035521446,-0.18639968362366316,0.0030745447605433833,-0.5000018167053046,-0.02285954336755739,0.5000005335871308,-0.0762534784419674,0.03085813465911139,0.31008101217618267,-0.03277633358855689,0.14075372966209654,0,-0.02729999999999989,1.0,-0.09525535739246588,0.0,0.0,0.995452870249533,0,1.77299999999997,3.0,0.8000000000000147,0,0
1284,-0.0317788255327195,0.6940768000009492,2.0313314990579947,0.3598128834927809,0.10636946832191654,-0.23381922279932574,0.8969664409168508,-0.18640620280278605,0.0030716573553491184,-0.5000017523775654,-0.022936284940246018,0.5000005044724701,-0.07625942054875999,0.03085051347459177,0.3214965716009112,-0.038303941941795976,0.14982713310783283,0,-0.028499999999999883,1.0,-0.09286599846209206,0.0,0.0,0.9956786159849165,0,1.7849999999999686,3.0,0.8000000000000147,0,0
1296,-0.029313146170064315,0.6955204623623611,2.0204490183945425,0.3597715224607303,0.10663234632146855,-0.23435758165666895,0.8968113058298854,-0.1864158564568018,0.0030652184375066956,-0.5000036886023947,-0.023070957188644742,0.5000003454695611,-0.07626787058370584,0.030845230499225974,0.3329571135105975,-0.04401361802326261,0.1588218856210781,0,-0.029699999999999876,1.0,-0.09047610462382388,0.0,0.0,0.9958986266142247,0,1.7969999999999673,3.0,0.8000000000000147,0,0
1308,-0.02629440432363391,0.6961231716814008,2.008498933497784,0.35982955062313926,0.10693725189556372,-0.23499703993379234,0.8965843573684129,-0.1864193606341854,0.0030872044593964745,-0.5000015308769244,-0.023329447563587263,0.5000012681048179,-0.07654554643912483,0.030847528868968473,0.3443106117377643,-0.05103871562340478,0.16837828084018827,0,-0.03089999999999987,1.0,-0.08808568964344321,0.0,0.0,0.9961129008701971,0,1.808999999999966,3.0,0.8000000000000147,0,0
1320,-0.023125029982212858,0.6975338367324532,1.995799394481512,0.36088642919227387,0.10753544574552856,-0.2354547058713809,0.8959677419506697,-0.1864201712069171,0.003089979102782166,-0.5000018239660717,-0.02332962506419226,0.5000016878495768,-0.07665906964169605,0.030856427930877714,0.360803764024393,-0.05885012913811038,0.1800394396755939,0,-0.03209999999999989,1.0,-0.08569476728973371,0.0,0.0,0.9963214375186145,0,1.8209999999999646,3.0,0.8000000000000147,0,0
1332,-0.01992052733031671,0.6990371179378362,1.9816530567086459,0.36281835254167255,0.10842258239568771,-0.23562477333954793,0.8950353919674259,-0.1864256607590537,0.0033251676208710026,-0.5000014864920626,-0.02332054523024974,0.5000010353937099,-0.07672888691883142,0.03086167884796833,0.38158722305584003,-0.06858449704796822,0.19402942989959582,0,-0.03329999999999993,1.0,-0.08330335133440159,0.0,0.0,0.9965242353583065,0,1.8329999999999633,3.0,0.8000000000000147,0,0
1344,-0.01646695071976067,0.7008134729900675,1.9651518097579093,0.36596975457628667,0.10916657907568274,-0.23552979724768527,0.8936859131466433,-0.18642567690586698,0.0037630974175694425,-0.5000011180707427,-0.023359491384510257,0.5000011806574834,-0.07758778850738524,0.03087375908305926,0.4082490238598973,-0.08145227197160654,0.21238888117989393,0,-0.03449999999999996,1.0,-0.08091145555199607,0.0,0.0,0.9967212932211579,0,1.844999999999962,3.0,0.8000000000000147,0,0
1356,-0.012347614006803813,0.702534928468294,1.9462014735830848,0.37037569680373844,0.1108952547099047,-0.2346583083522071,0.8918853984796764,-0.1864296686700984,0.004649242484323905,-0.5000028095811464,-0.023495068540876476,0.5000013506453042,-0.07938258912719334,0.03190349874198935,0.4421002521779521,-0.09866314628924663,0.23228123137054485,0,-0.035699999999999996,1.0,-0.07851909371983028,0.0,0.0,0.9969126099721162,0,1.8569999999999607,3.0,0.8000000000000147,0,0
1368,-0.007265995091808007,0.704384034050379,1.9235890985333295,0.375888152312685,0.11269746573428643,-0.2330223854412839,0.8897797177117934,-0.18643237555765152,0.007922465919735094,-0.5000019145808204,-0.02349321947800854,0.5000017403675431,-0.07988223688642397,0.03218710956244864,0.48312536358525343,-0.1220793012929784,0.2555153953101256,0,-0.03690000000000003,1.0,-0.07612627961790176,0.0,0.0,0.9970981845091972,0,1.8689999999999594,3.0,0.8000000000000147,0,0
1380,-0.002517407317965241,0.7074112275319622,1.903633332990093,0.374547886723878,0.11320197262605741,-0.232093802807218,0.8905232510399325,-0.18678062692703726,0.03688304320645984,-0.5000014784550182,-0.037983348493387505,0.500001286485839,-0.07940808091197114,0.028223091918938084,0.5005975495736477,-0.13774956791041376,0.266888903467675,0,-0.038100000000000064,1.0,-0.07373302702881311,0.0,0.0,0.9972780157634923,0,1.880999999999958,3.0,0.8000000000000147,0,0
1392,-0.004015969314890164,0.7128557145107967,1.8884010940280556,0.3699590366927912,0.11043737082556689,-0.23195864239068759,0.8928208591395854,-0.19716275709238754,0.06934640242258631,-0.4993654259219343,-0.036550912962138894,0.5000899916617702,-0.0794278311736122,0.028200105921799924,0.500013345652348,-0.14466419386228266,0.2788915356279467,0,-0.0393000000000001,1.0,-0.07133934973769263,0.0,0.0,0.9974521026991738,0,1.8929999999999567,3.0,0.8000000000000147,0,0
1404,-0.0072005977656375945,0.7170467308555423,1.8740115068597363,0.36739771292548573,0.10133517167816991,-0.23302442893777633,0.8946785562626957,-0.20714259013764905,0.07916012686504943,-0.499412611915718,-0.03656169731674505,0.5000068833883055,-0.07942802966928923,0.03099653450811228,0.5000018286560991,-0.1536725883621964,0.3066488910846848,0,-0.04050000000000013,1.0,-0.0689452615321149,0.0,0.0,0.9976204443135016,0,1.9049999999999554,3.0,0.8000000000000147,0,0
1416,-0.00831809001501661,0.7187004384674857,1.8581604747218166,0.3640142435466583,0.09177847129935869,-0.23376478108007892,0.8968970787262548,-0.21025009116702273,0.08737447933855237,-0.4991442039294386,-0.03288541378675506,0.49382511827530534,-0.07449429147417241,0.03243169266813434,0.49902912522716153,-0.1666542715158278,0.3324297958441927,0,-0.04170000000000017,1.0,-0.06655077620202136,0.0,0.0,0.9977830396368284,0,1.916999999999954,3.0,0.8000000000000147,0,0
1428,-0.00926567344281543,0.7186439208414541,1.8482092864875186,0.36058031760535736,0.09350300472567856,-0.23376565812805447,0.8981050271225782,-0.21025193213017254,0.09143018316281432,-0.4991053982210504,-0.007314606621042882,0.4785560423363848,-0.07187456113578485,0.03320958214183925,0.49960081950707236,-0.16879161708382112,0.33328552976665804,0,-0.0429000000000002,1.0,-0.06415590753964093,0.0,0.0,0.9979398877326054,0,1.9289999999999528,3.0,0.8000000000000147,0,0
1440,-0.010267014140547509,0.7170946968630462,1.8397077084843243,0.35729243547115613,0.09594189898264255,-0.23342922406758151,0.8992486113005129,-0.21029220629309173,0.09143915245830793,-0.49916351822029387,0.016568157483060196,0.4644880296209917,-0.0697644962287632,0.03322199997813087,0.4997642980416884,-0.16881667008438755,0.3332703877163949,0,-0.044100000000000236,1.0,-0.061760669339410434,0.0,0.0,0.9980909876973882,0,1.9409999999999514,3.0,0.8000000000000147,0,0
1452,-0.011379521057832697,0.714661061570184,1.8311660582195475,0.35382481755421985,0.09830641021680937,-0.23305631576118116,0.9004602167096735,-0.21035131267827017,0.09149316483618207,-0.49924550890244085,0.03923164060021812,0.4498135570437533,-0.06645013834303444,0.03322522729799698,0.5000586501335245,-0.16883323593531863,0.33323356610333865,0,-0.04530000000000027,1.0,-0.059365075397895366,0.0,0.0,0.9982363386608415,0,1.95299999999995,3.0,0.8000000000000147,0,0
1464,-0.012098943284887725,0.7134555170591974,1.8234291357182422,0.3507664786564811,0.10031487130460671,-0.2328795131321153,0.9014804137691631,-0.21040238721272472,0.09156056570905377,-0.49931913564015545,0.0592390371396878,0.43775701841430226,-0.06066005273237925,0.03323298905618254,0.5000076639925388,-0.16872219416196868,0.3332065860176272,0,-0.046500000000000305,1.0,-0.05696913951371015,0.0,0.0,0.998375939785744,0,1.9649999999999488,3.0,0.8000000000000147,0,0
1476,-0.012443398781712278,0.7124955106912375,1.8158897602792035,0.3478744872647474,0.10213446787559122,-0.23286792795161165,0.9023992573764574,-0.21044707656045109,0.09157523126650607,-0.4993823941733042,0.07824941283790836,0.42715760004763476,-0.053234799434850835,0.03324664655674226,0.4999998518620662,-0.1687514090781889,0.33318917193774117,0,-0.04770000000000034,1.0,-0.05457287548743883,0.0,0.0,0.9985097902679936,0,1.9769999999999475,3.0,0.8000000000000147,0,0
1488,-0.012489791200256034,0.7114955258131775,1.808438783015023,0.34505520104300696,0.10385542637813282,-0.23298125411513956,0.9032556082726102,-0.21048248576757164,0.09158666041282212,-0.4994293501016656,0.09664144125351366,0.41718642471732487,-0.045126643098507335,0.033263702450045986,0.4999958735889063,-0.16878022947163118,0.3331755565753038,0,-0.048900000000000374,1.0,-0.0521762971215556,0.0,0.0,0.998637889336612,0,1.9889999999999461,3.0,0.8000000000000147,0,0
1500,-0.01261314646098795,0.710400574655653,1.8011565381241132,0.3423127745655079,0.10556693721303845,-0.23306372379082246,0.9040790268496872,-0.2105148845143849,0.09159734843249899,-0.4994700532029836,0.11418360858999017,0.4072432617444889,-0.037030774583458305,0.03328313779489036,0.49999138844273594,-0.16880992842740322,0.33316308397053535,0,-0.05010000000000041,1.0,-0.04977941822034519,0.0,0.0,0.9987602362537488,0,2.000999999999945,3.0,0.8000000000000147,0,0
1512,-0.01283787937695849,0.7092152763458328,1.7940318519996918,0.3396398843842446,0.10727875521330467,-0.23310396668372058,0.9048748854574624,-0.21054719722819185,0.09165245788547345,-0.4995110267538112,0.1309668732464534,0.3972953220569779,-0.028975011155189544,0.03330168859480685,0.4999882899393065,-0.1688361635224327,0.3331510228176445,0,-0.05130000000000044,1.0,-0.047382252589823474,0.0,0.0,0.9988768303146861,0,2.0129999999999435,3.0,0.8000000000000147,0,0
1524,-0.013196491503297113,0.7080666570168064,1.786701891546633,0.3368703800204455,0.10903429970831975,-0.23310107138452948,0.9057007006022362,-0.21057252481627625,0.09284421961839594,-0.4995419368157174,0.14758470396667728,0.3871879007494577,-0.020530437509472803,0.03331684779659565,0.49998396105039966,-0.16885642212711233,0.3331411938212366,0,-0.05250000000000048,1.0,-0.04498481403765783,0.0,0.0,0.9989876708478426,0,2.024999999999942,3.0,0.8000000000000147,0,0
1536,-0.013769795865414132,0.7071925410591822,1.7784459065996683,0.33367692835434815,0.11092160685564253,-0.23304972461882237,0.9066663832257489,-0.210598137653226,0.09719230222610235,-0.499575032760166,0.16508608865778326,0.3766556993319002,-0.010801698432118138,0.03332926900604089,0.4999794513037689,-0.16887576351932643,0.3331331296125416,0,-0.05370000000000051,1.0,-0.042587116373087715,0.0,0.0,0.9990927572147769,0,2.036999999999941,3.0,0.8000000000000147,0,0
1548,-0.014490014455505832,0.706818983798581,1.7684979921056738,0.33000019231701944,0.11334812338402439,-0.23290826311367283,0.9077476615058958,-0.21061834169809276,0.10602019788356679,-0.49960502083742697,0.18568671493520142,0.36611249213133756,0.0004944689160578902,0.03352638562557639,0.4999772242375639,-0.16888538318449667,0.33312572774101473,0,-0.054900000000000546,1.0,-0.04018917340684504,0.0,0.0,0.999192088810192,0,2.0489999999999395,3.0,0.8000000000000147,0,0
1560,-0.01544121739811334,0.7071385271982368,1.7559485740713596,0.3247424919566572,0.1156197026252895,-0.23307707307453135,0.9093126394643536,-0.2106543813794715,0.12232234281482612,-0.49965218678855083,0.2078364241816936,0.35640714025051795,0.017678673543144733,0.03394361872001857,0.5000335806574433,-0.16854630631712003,0.3330669347169473,0,-0.05610000000000058,1.0,-0.03779099895107464,0.0,0.0,0.999285665061938,0,2.060999999999938,3.0,0.8000000000000147,0,0
1572,-0.01635041319948672,0.7082212484492553,1.7397552929567013,0.318083267699924,0.1185502982032643,-0.23332247326680086,0.9112241683987089,-0.21066045621131785,0.1467105120808933,-0.49966281349771346,0.2353207264697747,0.34845112279510093,0.04008770956669979,0.034623043711054804,0.5000056251823092,-0.16826785433252842,0.3329097567744048,0,-0.057300000000000614,1.0,-0.03539260681925479,0.0,0.0,0.9993734854310163,0,2.072999999999937,3.0,0.8000000000000147,0,0
1584,-0.017357644827974503,0.713688279759781,1.719355082093091,0.3085603079472625,0.12059750485419157,-0.23440848909788012,0.9139471748527279,-0.2106980448376763,0.1845807744655426,-0.49971679471664393,0.2632377419421574,0.34754111320903586,0.07704877205929146,0.03462624249120672,0.5000021836864504,-0.16647339438872027,0.33289368422828014,0,-0.05850000000000065,1.0,-0.03299401082611749,0.0,0.0,0.9994555494115814,0,2.0849999999999356,3.0,0.8000000000000147,0,0
1596,-0.018192088887531363,0.7191891264136486,1.692609479782646,0.29823293736725354,0.12547900663663325,-0.23454748570794226,0.9166785755709939,-0.21074343925266326,0.23044131641809387,-0.4997925784840532,0.30568362254197184,0.347458246282048,0.11410916215536535,0.034657516641520655,0.5000019481062848,-0.16648204018998777,0.3328748814334502,0,-0.05970000000000068,1.0,-0.030595224787569063,0.0,0.0,0.9995318565309452,0,2.0969999999999342,3.0,0.8000000000000147,0,0
1608,-0.02049289705088138,0.721381482176974,1.6659261093058957,0.28720951477894946,0.1257230960367013,-0.23497018234500386,0.9200507655298932,-0.21074263368568777,0.29516470943443307,-0.499794290762993,0.333492423015073,0.34450976549657614,0.1621352305416343,0.03474850782014916,0.5000011184042158,-0.16915040571911313,0.34017058126553484,0,-0.06090000000000072,1.0,-0.02819626252061045,0.0,0.0,0.999602406349579,0,2.108999999999933,3.0,0.8000000000000147,0,0
1620,-0.02494906081850572,0.7289422883476974,1.6450587063765032,0.27751883300353597,0.12783228853941453,-0.23438774841532187,0.9228784246735466,-0.21175661051797007,0.38213425266294193,-0.5002739652781893,0.35724147910084675,0.34572359065374997,0.19981122485782246,0.03462641086275411,0.5001614540798328,-0.16767630145490847,0.3427704557295477,0,-0.06210000000000075,1.0,-0.025797137843257677,0.0,0.0,0.9996671984611158,0,2.1209999999999316,3.0,0.8000000000000147,0,0
1632,-0.030901544599864057,0.7356648920457113,1.622116881371206,0.26724820576472036,0.13194806877162207,-0.2338358777520794,0.9254668475633752,-0.2118526372577875,0.4728179870552964,-0.5000258944140622,0.3866140296131612,0.34580327196390265,0.2343975751792237,0.0345345347033552,0.5000130481636677,-0.16729960846443767,0.34230096169473717,0,-0.06330000000000079,1.0,-0.023397864574462246,0.0,0.0,0.9997262324923535,0,2.1329999999999303,3.0,0.8000000000000147,0,0
1644,-0.03751179680862266,0.737450013850121,1.5959244768586973,0.255575714563255,0.13650157467429772,-0.23345807013551792,0.9281948630139677,-0.21206528368558533,0.5631159020509547,-0.5000019617661892,0.4195408001392317,0.34580718303858454,0.27013430217669143,0.036519599822285434,0.5000013696383764,-0.1672363508902915,0.34193388772767475,0,-0.06450000000000082,1.0,-0.02099845653403156,0.0,0.0,0.9997795081032559,0,2.144999999999929,3.0,0.8000000000000147,0,0
1656,-0.04342058272252551,0.7361774148117197,1.5668168983866837,0.24468268982848485,0.13971559504704986,-0.23254020383693588,0.9308786104527391,-0.21853644206376518,0.6461475695302882,-0.4992356977127265,0.45349078234651685,0.343878036020252,0.3091805730028511,0.0411629780502365,0.5006830830585337,-0.16781711747441225,0.3497723534230519,0,-0.06570000000000085,1.0,-0.018598927542549295,0.0,0.0,0.999827024986956,0,2.1569999999999276,3.0,0.8000000000000147,0,0
1668,-0.046289764562189695,0.7350420579220478,1.5651192157340243,0.24609327394575453,0.13268902748585917,-0.231926183759931,0.9316876986362284,-0.24980333957267783,0.6555432548464643,-0.4990382227827126,0.4396890426923999,0.34310501210312266,0.3409930519287812,0.048608066113777486,0.500266544766653,-0.16617277711157208,0.3718245801281411,0,-0.06690000000000089,1.0,-0.016199291421295805,0.0,0.0,0.9998687828697563,0,2.1689999999999263,3.0,0.8000000000000147,0,0
1680,-0.04602000256995288,0.7328935065881839,1.5692541727379128,0.24745300028479933,0.13313651282712197,-0.23066245901029966,0.9315774318893769,-0.25455202404104216,0.6573258302322428,-0.49871507321293285,0.4384710389410297,0.34328765469985884,0.34188019490127153,0.04834442840541941,0.5001299649692615,-0.16653715120949464,0.3697587753622039,0,-0.06810000000000092,1.0,-0.0137995619921685,0.0,0.0,0.9999047815111318,0,2.180999999999925,3.0,0.8000000000000147,0,0
1692,-0.046534352617743455,0.7287911788669409,1.5717990791465508,0.2499588133295068,0.13363465476872452,-0.22978994099539188,0.9310526052275901,-0.25519510488197195,0.6548810740849147,-0.4988505680775236,0.43971658210030096,0.34329591292693884,0.3439525622422889,0.05043965939656829,0.500063580838367,-0.1663545012394553,0.3727664974240344,0,-0.06930000000000096,1.0,-0.01139975307760227,0.0,0.0,0.9999350207037304,0,2.1929999999999237,3.0,0.8000000000000147,0,0
1704,-0.046984206036845486,0.7245470212416241,1.5750136414378388,0.2520647885599024,0.13378411598366707,-0.22849942230746775,0.9307809445212519,-0.2556161677594446,0.6512708921269196,-0.4989198863738351,0.4392902577357792,0.3433068881579916,0.34602539269005017,0.052354230621574446,0.5003774606553958,-0.16609371477080434,0.37482995842395833,0,-0.07050000000000099,1.0,-0.008999878500489831,0.0,0.0,0.9999595002733743,0,2.2049999999999224,3.0,0.8000000000000147,0,0
1716,-0.04730845006125952,0.7198807929779956,1.5782500933853822,0.2540463144561269,0.13397028360119728,-0.22695118953759966,0.930594213817463,-0.2558232447675177,0.647970907027362,-0.4990189288460221,0.4390238268059155,0.34331838467459724,0.3476876531078955,0.054189287820469015,0.5002388851525849,-0.16587375109960117,0.37652401012887,0,-0.07170000000000103,1.0,-0.006599952084102117,0.0,0.0,0.9999782200790613,0,2.216999999999921,3.0,0.8000000000000147,0,0
1728,-0.047502665035895605,0.7144564458332342,1.5812243421169634,0.2556912805737271,0.1341494346622052,-0.22516013982914196,0.9305529590789015,-0.25588705005324613,0.6462871045709043,-0.49916137484495365,0.43895857748097467,0.34331892032403116,0.3491487604879815,0.055567009455704246,0.4997189455145197,-0.1657694644104063,0.3777177975498145,0,-0.07290000000000106,1.0,-0.004199987652008652,0.0,0.0,0.9999911800129654,0,2.2289999999999197,3.0,0.8000000000000147,0,0
1740,-0.04710662098597139,0.7148393805534647,1.5921358010141256,0.2600292531550097,0.13218763824440066,-0.22135973560585767,0.9305434343712926,-0.2725925166952133,0.6488183518778431,-0.5003312597382639,0.4274804832973841,0.34490102889623997,0.35060881166159236,0.05818061534573305,0.5009710951778398,-0.16428377407091888,0.38090232600696733,0,-0.0741000000000011,1.0,-0.0017999990279979172,0.0,0.0,0.9999983800004375,0,2.2409999999999184,3.0,0.8000000000000147,0,0
1752,-0.044803333445595235,0.7196169240821779,1.6117940045825803,0.26711195846218844,0.12828873831227797,-0.2177040068242061,0.929945249292357,-0.28023713113674514,0.6590031622224313,-0.5000349313350078,0.40346427240877214,0.34520124913642863,0.3493411619669527,0.056656609752068786,0.50019185133599,-0.16404894527675193,0.38220726418535433,0,-0.07530000000000113,1.0,0.0005999999640022415,0.0,0.0,0.9999998200000054,0,2.252999999999917,3.0,0.8000000000000147,0,0
1764,-0.04490055836816199,0.7175185146719656,1.6209605866545864,0.27058958220787543,0.12718275515730973,-0.2158463043248634,0.9295247160245185,-0.2802673336405536,0.6590248566647655,-0.50001140340752,0.3940010271197764,0.34527778910118334,0.34938214723857763,0.056610901636827915,0.50005958486997,-0.16399470732520258,0.3824858269238129,0,-0.07650000000000116,1.0,0.002999995500004267,0.0,0.0,0.999995500003375,0,2.2649999999999157,3.0,0.8000000000000147,0,0
1776,-0.04605412630265497,0.708236363648998,1.6165643982855074,0.2691723355171228,0.12882598495872769,-0.2150033489164476,0.9299051991178366,-0.2802757118101271,0.6590362401886081,-0.5000038405074857,0.4032646950309356,0.34529383281697235,0.35289027872635437,0.05660470089668009,0.5000100455371211,-0.1639857373082969,0.3824776739240333,0,-0.0777000000000012,1.0,0.005399973756040503,0.0,0.0,0.9999854200354293,0,2.2769999999999144,3.0,0.8000000000000147,0,0
1788,-0.04835190971703267,0.6917856979336535,1.6043026559001163,0.2647274033858632,0.13162593871900005,-0.2153603253517829,0.9307061536367398,-0.2802832242251488,0.6565892248994718,-0.500004928822123,0.4211416462702544,0.34530479431844086,0.3595720866318571,0.05659778788630696,0.5000068013764212,-0.1639867746016679,0.38252045298766024,0,-0.07890000000000123,1.0,0.0077999209082428335,0.0,0.0,0.9999695801542291,0,2.288999999999913,3.0,0.8000000000000147,0,0
1800,-0.05205655113760404,0.6853575027821688,1.603147632658673,0.2664246900865872,0.13457351943123563,-0.2139222414887452,0.9301317793606386,-0.2917419994798113,0.6566690001249571,-0.5000087026957145,0.4301775632889364,0.3481619750628391,0.35959402205206425,0.057096506195871755,0.49906770944480516,-0.1611580520941806,0.38523916901725147,0,-0.08010000000000127,1.0,0.010199823132922307,0.0,0.0,0.9999479804510119,0,2.300999999999912,3.0,0.8000000000000147,0,0
1812,-0.05552662534246704,0.6792846784382875,1.6022984475579378,0.2700569495207122,0.13703615181975598,-0.2126686424826514,0.9290115099473131,-0.2960620824107341,0.6535621216826271,-0.5000349586774473,0.4392086342449063,0.3490843590132013,0.3605737198635346,0.06107406323447254,0.5013961452980589,-0.16083105780407672,0.39172233025947684,0,-0.0813000000000013,1.0,0.012599666606648735,0.0,0.0,0.9999206210501919,0,2.3129999999999105,3.0,0.8000000000000147,0,0
1824,-0.057592807630353446,0.6786148928782088,1.6087920932238757,0.2726421926945261,0.13794323056158925,-0.20946467160983984,0.9288500693073857,-0.30841437657880433,0.6612807800484711,-0.4998572690889396,0.436707000197094,0.35047472850701855,0.36005452802518456,0.060357999738258276,0.5001160746614546,-0.159693673585022,0.3907116942433253,0,-0.08250000000000134,1.0,0.014999437506330345,0.0,0.0,0.9998875021093592,0,2.324999999999909,3.0,0.8000000000000147,0,0
1836,-0.0594452605019856,0.6733919772931763,1.6113022957135414,0.27435215266676655,0.13869400527365586,-0.20849242298042556,0.9284534338285435,-0.31159379767445716,0.662572974385073,-0.5008645265255023,0.4374481123913221,0.3520592310554267,0.3609559081039289,0.06040019871011338,0.5001839644280347,-0.15828175016447057,0.3918291909409698,0,-0.08370000000000137,1.0,0.017399122009293375,0.0,0.0,0.9998486238192789,0,2.336999999999908,3.0,0.8000000000000147,0,0
1848,-0.06086048275815162,0.6695410665602561,1.6148988003728784,0.2765135927886419,0.1391432644616299,-0.2075412250412777,0.9279579865847611,-0.31520898398389535,0.6638576184634916,-0.5001031940685268,0.4366108340260551,0.3525627802879818,0.3621175839133789,0.060532857302885906,0.500130642238907,-0.15770753875346036,0.3927328418334429,0,-0.0849000000000014,1.0,0.01979870629336173,0.0,0.0,0.9998039864038897,0,2.3489999999999065,3.0,0.8000000000000147,0,0
1860,-0.06212363699373188,0.6651254754095135,1.6181509095635402,0.2785783255594958,0.13961461447345427,-0.20661881946823335,0.9274753578373119,-0.31918115895155275,0.6651322870855298,-0.5000321418633926,0.43629642342638747,0.3531539509687616,0.36329561646356073,0.06076004055843041,0.5001504651660849,-0.15703704232996668,0.3937350830725455,0,-0.08610000000000144,1.0,0.02219817653693658,0.0,0.0,0.9997535901203032,0,2.360999999999905,3.0,0.8000000000000147,0,0
1872,-0.06333014664761163,0.660758984235812,1.6213711776827164,0.2806887348984725,0.1399229492771241,-0.20567776532015572,0.927001650063037,-0.323221421104233,0.6665219233481967,-0.5000262310641463,0.43554586571836684,0.353585825126333,0.3649478346257549,0.061026036214134875,0.5001571327228194,-0.15638995346300277,0.3951443202689618,0,-0.08730000000000147,1.0,0.024597518919075943,0.0,0.0,0.9996974352588016,0,2.372999999999904,3.0,0.8000000000000147,0,0
1884,-0.06465391802360473,0.654227508872394,1.6229603893902218,0.2819908881258821,0.14022046092078583,-0.20518272216586392,0.9266711454867603,-0.3246079776435679,0.664988141553302,-0.5000091936982529,0.4351513669915985,0.35390015610885606,0.3673602599982441,0.06126811128566365,0.5003642656563826,-0.15566019895736935,0.39644426074425476,0,-0.08850000000000151,1.0,0.02699671961957434,0.0,0.0,0.9996355221428369,0,2.3849999999999025,3.0,0.8000000000000147,0,0
1896,-0.06595204762212305,0.6506554080967053,1.6264355670918298,0.2844484291684008,0.1403147911506021,-0.2047575520383343,0.9259995655567345,-0.32570169476015964,0.6606503987552983,-0.5000049979207529,0.43341599383035945,0.3549132047992845,0.36999827410545594,0.06088270764371818,0.5004716097559414,-0.15450312315388878,0.398810836760802,0,-0.08970000000000154,1.0,0.029395764819042366,0.0,0.0,0.9995678511290285,0,2.396999999999901,3.0,0.8000000000000147,0,0
1908,-0.06723044204378613,0.6474348021455952,1.6303583341253214,0.2868685589538981,0.14056784599073546,-0.20458941127972172,0.9252514703308802,-0.32643909992021325,0.6606271080444793,-0.5000044249940243,0.4315739331713535,0.3560630520835709,0.3719557198269652,0.06113832609852473,0.5006006892250725,-0.15322121497024616,0.40023342183294225,0,-0.09090000000000158,1.0,0.03179464069898631,0.0,0.0,0.9994944226071611,0,2.4089999999999,3.0,0.8000000000000147,0,0
1920,-0.06859392349419242,0.6440369921655951,1.6342141173894036,0.2891886307187661,0.14095806667858315,-0.20461124210119436,0.9244647093897352,-0.32708295969220713,0.6613926477077003,-0.4999974799649269,0.42996239726599006,0.35714671937466486,0.37358189433816635,0.06175049037718461,0.5005867018966601,-0.1520625314984711,0.40115061239528044,0,-0.09210000000000161,1.0,0.03419333344188774,0.0,0.0,0.999415237000183,0,2.4209999999998986,3.0,0.8000000000000147,0,0
1932,-0.06991239366589105,0.6404004952014153,1.6378659220784217,0.29146756593233236,0.14138169909880627,-0.20477577523503923,0.9236475274942844,-0.3277264271048643,0.6621958475960265,-0.5000103703383467,0.4286089121662031,0.3581579750105726,0.3751884540957056,0.06244745759553177,0.5005073363826755,-0.150997995287274,0.40203944670229214,0,-0.09330000000000165,1.0,0.036591829231283075,0.0,0.0,0.9993302947642029,0,2.4329999999998972,3.0,0.8000000000000147,0,0
1944,-0.07126422954974347,0.6368447696673503,1.6415904002449329,0.29381001572099286,0.14188861314656687,-0.2049313090598063,0.9227927474186216,-0.3283092738503543,0.6631706726620585,-0.5000010996115278,0.4274014592764174,0.3591385438762085,0.376591501393658,0.06354915566048247,0.5008393284881217,-0.1499506736078383,0.40284254465905783,0,-0.09450000000000168,1.0,0.03899011425184321,0.0,0.0,0.9992395963884879,0,2.444999999999896,3.0,0.8000000000000147,0,0
1956,-0.07235678012552606,0.6337158003832009,1.6511344142005817,0.2969958185052033,0.1384902323860588,-0.2053983641437383,0.9221851502443292,-0.3353408952498323,0.6665384122674248,-0.5000426886714325,0.41031850641776885,0.3596167599748849,0.3831431576389105,0.06594669149431408,0.5002737147561389,-0.14800792357918185,0.4064097354000355,0,-0.09570000000000171,1.0,0.04138817468945306,0.0,0.0,0.9991431423954604,0,2.4569999999998946,3.0,0.8000000000000147,0,0
1968,-0.07253850659206416,0.6266323919486865,1.6526814123302496,0.29643556660362835,0.13769298578475878,-0.20570328450408884,0.9224168012684364,-0.33536182071514636,0.6675740618682302,-0.500021799048205,0.4068851750054381,0.3606852638204073,0.3879596676688393,0.06570404927642878,0.5003176529174078,-0.14681770883286635,0.4047929949543193,0,-0.09690000000000175,1.0,0.04378599673129112,0.0,0.0,0.9990409333406952,0,2.4689999999998933,3.0,0.8000000000000147,0,0
1980,-0.07497078487522,0.6223772921230848,1.6571590589941108,0.29850874092461216,0.13854805516667335,-0.20383842151563095,0.9220340915145986,-0.335380738242451,0.6618977984135749,-0.49997832066648024,0.4056256395969887,0.3610133923781114,0.38750932143798517,0.06535431970307574,0.5002249791977647,-0.14589260995844236,0.40419274530554067,0,-0.09810000000000178,1.0,0.04618356656590908,0.0,0.0,0.9989329698129161,0,2.480999999999892,3.0,0.8000000000000147,0,0
1992,-0.07790968477377887,0.6174876609163279,1.6597690448739941,0.30005447410805347,0.13962208052782055,-0.2017424518005047,0.9218313133856667,-0.3353432319370946,0.661890022218989,-0.4999400283717833,0.40567970548526355,0.3611723643575665,0.38804610976661097,0.06534243910531243,0.5002307816089038,-0.1457247606073593,0.40393106313155697,0,-0.09930000000000182,1.0,0.0485808703833113,0.0,0.0,0.9988192524339927,0,2.4929999999998906,3.0,0.8000000000000147,0,0
2004,-0.08059111751188526,0.6127267692988464,1.6625971930052923,0.30176727264484954,0.14056839180034197,-0.200135336019581,0.9214786420007162,-0.3354989222319178,0.6624383606680229,-0.5000085051430485,0.4055152889511537,0.3612855173564245,0.38875142306548394,0.06532422777946753,0.500186575648203,-0.14561407313154578,0.403802939940825,0,-0.10050000000000185,1.0,0.05097789437503442,0.0,0.0,0.9986997818589368,0,2.5049999999998893,3.0,0.8000000000000147,0,0
2016,-0.08259182755371182,0.6082184266384658,1.6652024421204008,0.30345296366572627,0.14143160275942546,-0.19899237137590603,0.9210404099265032,-0.33562093988156994,0.665469916221211,-0.5000106853761181,0.40585338633556606,0.3614298103296139,0.3896928009162556,0.06529711287111421,0.5001681248258384,-0.14549089618736474,0.4036865171773698,0,-0.10170000000000189,1.0,0.05337462473422689,0.0,0.0,0.9985745587758986,0,2.516999999999888,3.0,0.8000000000000147,0,0
2028,-0.08414649066856929,0.604004848268909,1.6671585133323799,0.30488216839558163,0.14226891048738644,-0.1980711991508093,0.9206379421738498,-0.33573752384776906,0.6724240449144494,-0.500010738128133,0.40707646359380983,0.3615680599405754,0.3912673824273068,0.06527357945234202,0.5001632957143276,-0.14537012011905825,0.40357269538035273,0,-0.10290000000000192,1.0,0.055771047655728455,0.0,0.0,0.9984435839061626,0,2.5289999999998867,3.0,0.8000000000000147,0,0
2040,-0.08547397718760233,0.5998444718672478,1.669130036441744,0.30634074783605875,0.1430757951536153,-0.1972959938497608,0.9201950629443956,-0.33584766401210314,0.6792391932006365,-0.500010295667909,0.40835013817481314,0.3616733860503544,0.3927902604156314,0.06525893175642782,0.5001604672474462,-0.1452362164071094,0.4034451200304497,0,-0.10410000000000195,1.0,0.05816714933614973,0.0,0.0,0.998306858004144,0,2.5409999999998854,3.0,0.8000000000000147,0,0
2052,-0.08692502929589027,0.5968066850952016,1.6749389749452614,0.30990743219375755,0.14209904475789956,-0.1966109436297238,0.9192983094703229,-0.34248551758930873,0.6875024155656361,-0.49925895785667207,0.40228429714775776,0.3615795966375087,0.39650843275607295,0.06616078281862649,0.5001093109370103,-0.14480544704258247,0.40739537362782713,0,-0.10530000000000199,1.0,0.06056291597395164,0.0,0.0,0.9981643818573833,0,2.552999999999884,3.0,0.8000000000000147,0,0
2064,-0.08834333329939696,0.5907277495395764,1.6756531355850757,0.31090585962652445,0.14324213967702684,-0.19584505538365218,0.9189471966072986,-0.34462634395368347,0.6885258227225427,-0.5000581149174732,0.4049896387822488,0.36182805509922866,0.3969810152457244,0.06587127110366184,0.5000375125467399,-0.14377742962710688,0.40737817380982866,0,-0.10650000000000202,1.0,0.062958333769525,0.0,0.0,0.9980161562865428,0,2.5649999999998827,3.0,0.8000000000000147,0,0
2076,-0.08891831826350334,0.5862989254683177,1.6783313998491198,0.3127828874539455,0.1437645364385354,-0.19501790513304443,0.9184043989747133,-0.34464252904478193,0.6885511411009753,-0.5000187842573144,0.4054441050831537,0.36193030930857073,0.39772002793561695,0.0658399379142967,0.5000570470572868,-0.14371386164896963,0.40736075387521814,0,-0.10770000000000206,1.0,0.06535338892527001,0.0,0.0,0.9978621821454016,0,2.5769999999998814,3.0,0.8000000000000147,0,0
2088,-0.08896397324127892,0.5818582753430481,1.6814401530434664,0.31485061247482343,0.14428104862010818,-0.1944894819355626,0.9177286702777391,-0.3446870114524569,0.6885908310987486,-0.5000202101279461,0.4057608429473887,0.3619723382427271,0.39777007756892013,0.0658009208257514,0.5000380689572397,-0.1436410737905742,0.4072760617252154,0,-0.10890000000000209,1.0,0.06774806764567545,0.0,0.0,0.9977024603208499,0,2.58899999999988,3.0,0.8000000000000147,0,0
2100,-0.08896759795248135,0.5774003066851351,1.6846724186054554,0.3170062693765652,0.1447715913009239,-0.19411102407779257,0.916989161255258,-0.34472819188371756,0.6886111919149113,-0.5000171065619636,0.4058825918896574,0.36200920258850333,0.39777625077955053,0.0657723721319484,0.5000334333560089,-0.14359343903873745,0.40723626542574465,0,-0.11010000000000213,1.0,0.0701423561373986,0.0,0.0,0.9975369917328852,0,2.6009999999998787,3.0,0.8000000000000147,0,0
2112,-0.08898376586428361,0.5729219463128935,1.6879396225689762,0.31919066309974276,0.14525493125000538,-0.19377372198055584,0.9162259929773359,-0.34476940756110136,0.6886254924872527,-0.5000153677099418,0.40592300304268475,0.36204465765395605,0.3977733567995981,0.06574741621495954,0.5000327972681791,-0.14355460562256567,0.4072117378784945,0,-0.11130000000000216,1.0,0.07253624060934431,0.0,0.0,0.9973657773346062,0,2.6129999999998774,3.0,0.8000000000000147,0,0
2124,-0.08900170934226835,0.5684250453966414,1.6912092575388036,0.32138401898550784,0.14573414262311918,-0.1934475001411708,0.9154517664540054,-0.34481115278420116,0.6886375626335511,-0.5000146078336306,0.40593470593061304,0.3620798555570038,0.3977669005465674,0.06572365716960774,0.5000329340474811,-0.14351894480252184,0.40719325918398375,0,-0.1125000000000022,1.0,0.07492970727274466,0.0,0.0,0.9971888181122073,0,2.624999999999876,3.0,0.8000000000000147,0,0
2136,-0.0890178685105878,0.5639106695826512,1.6944693307004346,0.3235792747980483,0.14621066545659286,-0.19312236188396412,0.9146707864408202,-0.3448532812440455,0.6886486235851834,-0.5000142738228479,0.40593718172642507,0.36211529499036776,0.39775867574531637,0.06570032667073672,0.5000332680876669,-0.14348449782911735,0.40717773052462597,0,-0.11370000000000223,1.0,0.07732274234123829,0.0,0.0,0.997006115084973,0,2.6369999999998748,3.0,0.8000000000000147,0,0
2148,-0.08903114442501256,0.5593793749054402,1.6977154192133215,0.3257738725274727,0.14668509973717925,-0.19279491832453163,0.9138845577871337,-0.3448956806247618,0.6886591176328898,-0.5000141031016252,0.4059374731119058,0.3621511724477793,0.3977493286359239,0.06567716305398412,0.5000336648473694,-0.14345053058078258,0.40716400963496996,0,-0.11490000000000226,1.0,0.07971533203094983,0.0,0.0,0.9968176693052725,0,2.6489999999998735,3.0,0.8000000000000147,0,0
2160,-0.08904117424743127,0.5548314543444584,1.7009458567062008,0.32796687901855753,0.1471576710428907,-0.19246401670980018,0.9130936142543047,-0.34493828671229365,0.6886692074028715,-0.5000139879928517,0.40593812481011926,0.362187565788275,0.3977390902002974,0.0656540831144708,0.5000340875611405,-0.14341676602875456,0.4071516775199135,0,-0.1161000000000023,1.0,0.08210746256056924,0.0,0.0,0.9966234818585527,0,2.660999999999872,3.0,0.8000000000000147,0,0
2172,-0.0890478218999247,0.5502670860830455,1.704159982993583,0.33015795218201416,0.14762845316756187,-0.19212928253854752,0.9122981449162082,-0.3449810581024705,0.6886789552258347,-0.5000138865065836,0.4059400589236368,0.36222450886638824,0.39772803980957433,0.0656310682613649,0.5000345257043295,-0.14338309379556985,0.4071405784535046,0,-0.11730000000000233,1.0,0.08449912015143134,0.0,0.0,0.9964235538633328,0,2.672999999999871,3.0,0.8000000000000147,0,0
2184,-0.08905102046581712,0.5456864010650206,1.7073575058251207,0.33234696561770527,0.1480974604084655,-0.19179061635728953,0.9114982151066221,-0.3450239613970069,0.6886883876173692,-0.5000137822577002,0.40594361263460643,0.36226201958635035,0.3977162014360675,0.0656081241896512,0.5000349764733432,-0.14334946348185384,0.40713065182850416,0,-0.11850000000000237,1.0,0.08689029102759496,0.0,0.0,0.9962178864711976,0,2.6849999999998695,3.0,0.8000000000000147,0,0
2196,-0.08905072235428783,0.5410895114375412,1.7105382678239618,0.3345338717266796,0.14856468406107287,-0.191448016837531,0.9106938454641974,-0.34506696476636145,0.6886975184024696,-0.5000136684404006,0.40594891274850403,0.3623001102518757,0.39770357853410204,0.06558526645869046,0.5000354394348113,-0.1433158459738855,0.40712187129695604,0,-0.1197000000000024,1.0,0.08928096141592251,0.0,0.0,0.9960064808667907,0,2.696999999999868,3.0,0.8000000000000147,0,0
2208,-0.08904688267687486,0.5364765217690782,1.7137021610439782,0.33671865162343295,0.1490301062992305,-0.1911015171467841,0.9098850406559802,-0.3451100352763891,0.6887063568574908,-0.5000135417132382,0.40595601144209703,0.3623387912944503,0.39769016646989847,0.06556251538607719,0.5000359149764323,-0.14328221973514566,0.4071142231778645,0,-0.12090000000000244,1.0,0.09167111754615916,0.0,0.0,0.9957893382678077,0,2.708999999999867,3.0,0.8000000000000147,0,0
2220,-0.08903945636337371,0.531847534312464,1.7168490961776797,0.33890129700455346,0.1494937065153397,-0.19075116463695674,0.9090717990294175,-0.3451531380070287,0.688714911053262,-0.5000134000381411,0.4059649346256919,0.362378072978133,0.3976759570060102,0.06553989415414808,0.5000364041411808,-0.1432485650637297,0.4071076976953187,0,-0.12210000000000247,1.0,0.09406074565101218,0.0,0.0,0.9955664599249895,0,2.7209999999998655,3.0,0.8000000000000147,0,0
2232,-0.08902839597044959,0.5272026509120574,1.7199789913355916,0.3410818034272496,0.14995546317626673,-0.1903970130310291,0.9082541163481003,-0.34519623543894823,0.6887231889412164,-0.500013241725435,0.40597569918525317,0.3624179657960149,0.3976609401209489,0.06551742829430798,0.5000369080090566,-0.14321486232859604,0.40710228612824184,0,-0.1233000000000025,1.0,0.0964498319662303,0.0,0.0,0.9953378471221146,0,2.732999999999864,3.0,0.8000000000000147,0,0
2244,-0.08901365058710645,0.5225419735577591,1.723091767745364,0.34326016783382307,0.15041535449190677,-0.19003911915914135,0.9074319872590934,-0.345239286990271,0.6887311986785369,-0.5000130650979746,0.40598831978373934,0.36245848065557573,0.3976451043931296,0.06549514565154069,0.5000374277750915,-0.1431810914000458,0.40709797995448566,0,-0.12450000000000254,1.0,0.09883836273068299,0.0,0.0,0.9951035011759922,0,2.744999999999863,3.0,0.8000000000000147,0,0
2256,-0.0889951653698469,0.5178656046815902,1.7261873482318613,0.3454363876574254,0.1508733587135697,-0.1896775420282696,0.9066054057652587,-0.3452822486376798,0.6887389487975922,-0.5000128683706566,0.4060028113254541,0.36249962895748145,0.3976284370886968,0.06547307651357871,0.5000379647717852,-0.1431472313707187,0.40709477044771775,0,-0.12570000000000248,1.0,0.10122632418643959,0.0,0.0,0.9948634234364543,0,2.7569999999998616,3.0,0.8000000000000147,0,0
2268,-0.08897288116154367,0.5131736473085614,1.729265656684775,0.3476104605002005,0.1513294542557521,-0.18931234263302937,0.9057743653649563,-0.34532507251756744,0.6887464483027108,-0.5000126495889319,0.40601918992589214,0.36254142263370803,0.397610924115909,0.06545125382829134,0.500038520484789,-0.143113260401379,0.4070926484799385,0,-0.12690000000000234,1.0,0.10361370257884876,0.0,0.0,0.9946176152863481,0,2.7689999999998602,3.0,0.8000000000000147,0,0
2280,-0.08894673408852581,0.508466205148944,1.7323266178850776,0.3497823840213743,0.1517836197482457,-0.18894358403360845,0.9049388590711411,-0.3453677064767746,0.6887537067427467,-0.5000124065857229,0.40603747336688795,0.3625838741697736,0.39759254991407844,0.06542971348028671,0.5000390965737666,-0.1430791556088822,0.4070916043979091,0,-0.1281000000000022,1.0,0.10600048415661756,0.0,0.0,0.9943660781415277,0,2.780999999999859,3.0,0.8000000000000147,0,0
2292,-0.0889166551038819,0.5037433826713181,1.73537015746458,0.35195215590269313,0.15223583406277308,-0.18857133154731537,0.9040988793827424,-0.3454100935555187,0.6887607342807744,-0.5000121369416876,0.40605768138621073,0.3626269966194126,0.39757329730375623,0.06540849462002812,0.5000396948988545,-0.14304489296174097,0.40709162791745984,0,-0.12930000000000208,1.0,0.10838665517189067,0.0,0.0,0.9941088134508463,0,2.7929999999998576,3.0,0.8000000000000147,0,0
2304,-0.08888256946169734,0.4990052851739861,1.7383962019168497,0.35411977384366156,0.1526860763297995,-0.18819565300704522,0.9032544182328567,-0.34545217138618584,0.6887675417682273,-0.5000118379416394,0.4060798359244471,0.36267080361472664,0.39755314730304103,0.06538764005003021,0.5000403175530319,-0.143010447170999,0.40709270801794767,0,-0.13050000000000195,1.0,0.11077220188032967,0.0,0.0,0.9938458226961482,0,2.8049999999998563,3.0,0.8000000000000147,0,0
2316,-0.08884439567956952,0.4942520190760353,1.7414046789303632,0.3562852355779615,0.15313432569236737,-0.18781661901308,0.9024054669750157,-0.34549387125408904,0.6887741408566378,-0.5000115064255022,0.40610396079770666,0.36271530921298223,0.3975320791969342,0.06536719679227777,0.5000409664446636,-0.14297579169719932,0.4070948328630388,0,-0.13170000000000182,1.0,0.11315711054119208,0.0,0.0,0.9935771073922589,0,2.816999999999855,3.0,0.8000000000000147,0,0
2328,-0.0888020319699635,0.4894836897344432,1.7443955174114523,0.35844853783712743,0.15358055401176962,-0.18743429443979137,0.9015520198079093,-0.34553511268797343,0.6887805428057354,-0.5000111377698312,0.40613007684433133,0.36276052206970627,0.39751007530357124,0.06534721847692526,0.5000416361970151,-0.14294090603454537,0.40709799396404517,0,-0.13290000000000168,1.0,0.11554136741741065,0.0,0.0,0.9933026690869783,0,2.8289999999998536,3.0,0.8000000000000147,0,0
2340,-0.08875537362911538,0.48470040000253434,1.7473686409459595,0.3606096780450363,0.1540247372561896,-0.18704874266096283,0.9006940703048788,-0.3455758076320558,0.6887867581056234,-0.5000107282836009,0.4061582236590678,0.3628064532700633,0.39748710811552596,0.06532776358092197,0.5000423348246146,-0.14290576823887155,0.40710218374377016,0,-0.13410000000000155,1.0,0.11792495877567233,0.0,0.0,0.9930225093610698,0,2.8409999999998523,3.0,0.8000000000000147,0,0
2352,-0.08870431495500206,0.4799022585669904,1.7503239783403357,0.36276865425119453,0.15446685529202056,-0.18666004206539494,0.8998316080273666,-0.34561586309422954,0.688792800637003,-0.5000102742554936,0.40618843834386276,0.36285311769695083,0.39746314781379205,0.06530889504682645,0.5000430683609839,-0.14287034853043115,0.40710738813098657,0,-0.13530000000000142,1.0,0.12030787088649751,0.0,0.0,0.9927366298282531,0,2.852999999999851,3.0,0.8000000000000147,0,0
2364,-0.08864874064782761,0.4750893759690602,1.7532614605164956,0.36492546444238994,0.1549068881881999,-0.18626827758289796,0.898964621194658,-0.3456551763332435,0.6887986859911825,-0.5000097707826338,0.4062207592009409,0.36290053114096743,0.39743816235489027,0.06529068237113958,0.5000438411482019,-0.14283461414264487,0.40711359073365805,0,-0.1365000000000013,1.0,0.122690090024319,0.0,0.0,0.9924450321351931,0,2.8649999999998497,3.0,0.8000000000000147,0,0
2376,-0.08858852398111317,0.47026186428134714,1.7561810197221428,0.3670801067181589,0.15534481632251243,-0.18587353970635262,0.8980930968059719,-0.3456936323950632,0.6888044312544562,-0.5000092118907492,0.4062552287250294,0.3629487100165315,0.39741211594591713,0.06527320300822828,0.5000446579025659,-0.14279852981697186,0.40712077331812047,0,-0.13770000000000115,1.0,0.12507160246756116,0.0,0.0,0.992147717961492,0,2.8769999999998483,3.0,0.8000000000000147,0,0
2388,-0.08852352507196162,0.4654198372709115,1.7590825895102282,0.36923257933731995,0.15578062046088031,-0.18547592521191453,0.8972170204646795,-0.3457311018893595,0.6888100552304023,-0.5000085904960208,0.40629189465890175,0.3629976712455945,0.39738496825224057,0.06525654376438049,0.5000455241197367,-0.14276205759189037,0.40712891549603275,0,-0.13890000000000102,1.0,0.12745239449871892,0.0,0.0,0.9918446890196786,0,2.888999999999847,3.0,0.8000000000000147,0,0
2400,-0.08845358877673146,0.4605634106382145,1.7619661048287174,0.3713828807534656,0.15621428182087224,-0.1850755382099137,0.8963363761416565,-0.3457674382507727,0.6888155787545245,-0.5000078981817142,0.4063308109623227,0.36304743220117996,0.3973566735517843,0.06524080250984797,0.5000464463045544,-0.14272515639985445,0.4071379942838741,0,-0.1401000000000009,1.0,0.12983245240443675,0.0,0.0,0.9915359470551987,0,2.9009999999998457,3.0,0.8000000000000147,0,0
2412,-0.08837854208513188,0.45569270231211373,1.76483150214353,0.3735310096571245,0.15664578215019437,-0.18467249146482875,0.8954511458785765,-0.34580247424581956,0.6888210250946674,-0.50000712484928,0.4063720389814686,0.3630980106627085,0.39732717968001185,0.06522609035023744,0.5000474322392553,-0.14268778153230352,0.4071479835499176,0,-0.14130000000000076,1.0,0.13221176247558772,0.0,0.0,0.9912214938464051,0,2.9129999999998444,3.0,0.8000000000000147,0,0
2424,-0.08829819085742252,0.4508078328169442,1.767678719587705,0.37567696502688747,0.15707510383719575,-0.18426690805759136,0.8945613094123935,-0.34583601745001036,0.6888264204696711,-0.5000062582306207,0.4064156489360289,0.36314942477649276,0.39729642667190396,0.06521253442591374,0.5000484913419766,-0.1426498839437892,0.4071588533025198,0,-0.14250000000000063,1.0,0.13459031100735233,0.0,0.0,0.9909013312045475,0,2.924999999999843,3.0,0.8000000000000147,0,0
2436,-0.08821231611754683,0.4459089256270854,1.7705076969671574,0.37782074618004013,0.15750223027605179,-0.18385892361877118,0.8936668436390455,-0.34586784443023294,0.688831794765457,-0.5000052832847142,0.4064617221261927,0.363201693135451,0.3972643448530352,0.06520028148866774,0.50004963541824,-0.14261140925608617,0.40717056868052215,0,-0.1437000000000005,1.0,0.13696808429929763,0.0,0.0,0.9905754609737617,0,2.9369999999998417,3.0,0.8000000000000147,0,0
2448,-0.08812067991281064,0.4409961139066702,1.7733183812521263,0.37996235400605355,0.1579271515331878,-0.18344870480900324,0.8927677172986773,-0.34589768595288,0.6888371863251241,-0.5000041789632625,0.4065103458379805,0.3632548371971604,0.3972308543709893,0.06518950563572867,0.5000508789590391,-0.14257229165931545,0.40718308273795556,0,-0.14490000000000036,1.0,0.1393450686554561,0.0,0.0,0.9902438850310595,0,2.9489999999998404,3.0,0.8000000000000147,0,0
2460,-0.08802297875235543,0.43606953725820974,1.7761107332799024,0.3821017874754543,0.15834983472397385,-0.18303644094031493,0.8918638994481476,-0.3459252029820946,0.6888426415990185,-0.5000029207376286,0.40656156816905353,0.36330884299822547,0.39719590022446927,0.06518041789892529,0.500052196991603,-0.14253249535988993,0.40719634581414244,0,-0.14610000000000023,1.0,0.14172125038440436,0.0,0.0,0.9899066052863174,0,2.960999999999839,3.0,0.8000000000000147,0,0
2472,-0.0879188921836511,0.4311293269502316,1.7788846860066974,0.3842390506125566,0.1587702714493236,-0.18262231915175525,0.8909553532225415,-0.3459500000644805,0.6888482026472861,-0.5000014786882016,0.4066155422817344,0.36336371232433845,0.39715936586578887,0.06517326461515842,0.5000536408659931,-0.14249196615718684,0.4072103084379132,0,-0.1473000000000001,1.0,0.14409661579934221,0.0,0.0,0.9895636236822657,0,2.9729999999998378,3.0,0.8000000000000147,0,0
2484,-0.08780811547892065,0.4261754979781855,1.7816400776574295,0.38637409583917987,0.15918859994960846,-0.18220646467765766,0.8900420506583997,-0.34597198497115506,0.6888539394901625,-0.5000010904319349,0.4066727103939524,0.36341857780283454,0.39712056416636166,0.06516950950841317,0.50005556451946,-0.14245071264339385,0.4072245762992453,0,-0.14849999999999997,1.0,0.1464711512181715,0.0,0.0,0.9892149421944776,0,2.9849999999998365,3.0,0.8000000000000147,0,0
2496,-0.08768998034482493,0.42120825854301197,1.78437707787041,0.3885068294388769,0.15960472527383804,-0.18178927338624273,0.8891239706763708,-0.3459903308327164,0.6888598267332396,-0.5000007028928932,0.40673293235010716,0.3634735411628492,0.39707940700768907,0.06517069244303568,0.5000575960424147,-0.14240765284629908,0.4072390699928371,0,-0.14969999999999983,1.0,0.14884484296357472,0.0,0.0,0.9888605628313574,0,2.996999999999835,3.0,0.8000000000000147,0,0
2508,-0.08756401218579574,0.41622768996540255,1.7870955646838735,0.3906372633170814,0.16001859363536913,-0.18137090564466496,0.8882010880339732,-0.34600417000224515,0.6888657974880745,-0.4999995572407768,0.4067964931808753,0.36352866169626347,0.39703579802262606,0.06517702287752664,0.5000598245320914,-0.14236267774812722,0.4072538827717782,0,-0.1508999999999997,1.0,0.151217677363094,0.0,0.0,0.9885004876341292,0,3.008999999999834,3.0,0.8000000000000147,0,0
2520,-0.08743108522558833,0.411232963411013,1.7897939080807093,0.3927660790165557,0.16043021644928906,-0.18094902705798788,0.8872735781205042,-0.34601289705382027,0.6888697152114703,-0.49999973249542573,0.4068665942060376,0.3635744767228599,0.3969876325700925,0.0651867164704969,0.5000660194905608,-0.14232296978014353,0.40726948691549375,0,-0.15209999999999957,1.0,0.15358964074920972,0.0,0.0,0.9881347186768253,0,3.0209999999998325,3.0,0.8000000000000147,0,0
2532,-0.08729091863685691,0.4062233397843084,1.7924711314758823,0.39489253648596784,0.16083911816008625,-0.1805214036200541,0.8863423071997691,-0.3460086681400601,0.6888706534807668,-0.4999975154511451,0.40694357311387336,0.36360773762608467,0.3969343079839633,0.06520265249252812,0.5000755872557376,-0.14228805053400154,0.40728553190719535,0,-0.15329999999999944,1.0,0.15596071945941942,0.0,0.0,0.9877632580662739,0,3.032999999999831,3.0,0.8000000000000147,0,0
2544,-0.08714207591567634,0.4011989010538361,1.7951272571212276,0.39701580179081125,0.1612453888190293,-0.18008729161496295,0.8854077846460278,-0.345980698733817,0.6888697762582954,-0.4999863427121607,0.4070283318494054,0.3636387887914575,0.39687561321411097,0.06522956843524831,0.5000873859840542,-0.14224796771075096,0.4073029823190911,0,-0.1544999999999993,1.0,0.15833089983631624,0.0,0.0,0.9873861079420869,0,3.04499999999983,3.0,0.8000000000000147,0,0
2556,-0.08698506714638496,0.3961593068027432,1.7977629075564299,0.39913634182415425,0.16164641432573212,-0.17964101921706851,0.8844714362745235,-0.3459451740682824,0.6888656552833652,-0.49997749772092276,0.40711820787599035,0.36366068178556393,0.39681371570676083,0.06525538996683336,0.5000989115179947,-0.1422105663860191,0.4073238840577713,0,-0.15569999999999917,1.0,0.1607001682276677,0.0,0.0,0.987003270476648,0,3.0569999999998285,3.0,0.8000000000000147,0,0
2568,-0.08683560500988384,0.3911032407999973,1.8003814030324834,0.4012522607291216,0.1620400704352096,-0.1791756010076934,0.8835359318311017,-0.34594693536812493,0.6888600916968993,-0.4999890878733978,0.4071944137590297,0.3636736555343035,0.3967598413887106,0.06526078977252577,0.5000965310543162,-0.14218633435130099,0.40734460511468507,0,-0.15689999999999904,1.0,0.1630685109864945,0.0,0.0,0.9866147478751002,0,3.068999999999827,3.0,0.8000000000000147,0,0
2580,-0.08669827843732204,0.3860322363834941,1.8029808043766906,0.4033641720589089,0.16243311537014804,-0.17870070339859728,0.8825978055350159,-0.34595899290376525,0.6888567273795043,-0.499999887462958,0.4072661727977984,0.3636981757038949,0.3967090935612996,0.06526156311384619,0.50009085857214,-0.14215828792508284,0.40736480571226913,0,-0.1580999999999989,1.0,0.16543591447114886,0.0,0.0,0.9862205423753324,0,3.080999999999826,3.0,0.8000000000000147,0,0
